;Generated by Cura LulzBot Edition GCodeWriter Version: 3.6.8
;FLAVOR:Marlin
;TIME:41406
;Filament used: 10.3876m
;Layer height: 0.2
;Generated with Cura_SteamEngine 3.6.8
M82 ;absolute extrusion mode
M221 S100
;This G-Code has been generated specifically for the LulzBot TAZ 5 with standard extruder
M75			 ; start GLCD timer
M140 S70    ; start bed heating up
G90                      ; absolute positioning
M107                     ; disable fans
M82                      ; set extruder to absolute mode
G28 X0 Y0                ; home X and Y
G28 Z0                   ; home Z
G1 Z15.0 F175 ; move extruder up
M117 Heating...                     ; progress indicator message on LCD
M109 R205  ; wait for extruder to reach printing temp
M190 S60    ; wait for bed to reach printing temp
G92 E0                   ; set extruder position to 0
G1 F200 E0               ; prime the nozzle with filament
G92 E0                   ; re-set extruder position to 0
G1 F175       ; set travel speed
M203 X192 Y208 Z3        ; set limits on travel speed
M117 TAZ 5 Printing...   ; progress indicator message on LCD

G92 E0
G1 F600 E-1.5
;LAYER_COUNT:25
;LAYER:0
M107
G0 F1995 X40.504 Y71.891 Z0.25
;TYPE:SKIRT
G1 F600 E0
G1 F228 X41.037 Y71.62 E0.00846
G1 X42.484 Y71.022 E0.03061
G1 X43.05 Y70.838 E0.03903
G1 X44.566 Y70.475 E0.06108
G1 X45.154 Y70.383 E0.0695
G1 X46.699 Y70.262 E0.09143
G1 X46.996 Y70.25 E0.09563
G1 X243.004 Y70.25 E2.86858
G1 X243.301 Y70.262 E2.87278
G1 X244.846 Y70.383 E2.89471
G1 X245.434 Y70.475 E2.90313
G1 X246.95 Y70.838 E2.92518
G1 X247.516 Y71.022 E2.9336
G1 X248.961 Y71.619 E2.95572
G1 X249.494 Y71.89 E2.96418
G1 X250.827 Y72.706 E2.98629
G1 X251.308 Y73.055 E2.9947
G1 X252.494 Y74.066 E3.01674
G1 X252.916 Y74.487 E3.02518
G1 X253.931 Y75.673 E3.04726
G1 X254.282 Y76.155 E3.05569
G1 X255.099 Y77.485 E3.07778
G1 X255.37 Y78.017 E3.08622
G1 X255.97 Y79.462 E3.10836
G1 X256.155 Y80.03 E3.11681
G1 X256.52 Y81.546 E3.13887
G1 X256.614 Y82.134 E3.14729
G1 X256.738 Y83.693 E3.16942
G1 X256.75 Y83.994 E3.17368
G1 X256.75 Y191.004 E4.68756
G1 X256.738 Y191.305 E4.69182
G1 X256.614 Y192.866 E4.71398
G1 X256.521 Y193.454 E4.7224
G1 X256.157 Y194.967 E4.74441
G1 X255.972 Y195.534 E4.75285
G1 X255.372 Y196.98 E4.775
G1 X255.1 Y197.513 E4.78346
G1 X254.282 Y198.845 E4.80558
G1 X253.931 Y199.326 E4.814
G1 X252.918 Y200.51 E4.83605
G1 X252.496 Y200.932 E4.84449
G1 X251.309 Y201.944 E4.86656
G1 X250.829 Y202.292 E4.87494
G1 X249.497 Y203.108 E4.89704
G1 X248.963 Y203.38 E4.90552
G1 X247.516 Y203.978 E4.92767
G1 X246.95 Y204.162 E4.93609
G1 X245.434 Y204.525 E4.95814
G1 X244.846 Y204.617 E4.96656
G1 X243.301 Y204.738 E4.98849
G1 X243.004 Y204.75 E4.99269
G1 X46.996 Y204.75 E7.76564
G1 X46.695 Y204.738 E7.7699
G1 X45.134 Y204.614 E7.79205
G1 X44.545 Y204.52 E7.80049
G1 X43.03 Y204.155 E7.82254
G1 X42.464 Y203.971 E7.83096
G1 X41.018 Y203.371 E7.85311
G1 X40.484 Y203.098 E7.86159
G1 X39.153 Y202.28 E7.88369
G1 X38.672 Y201.93 E7.89211
G1 X37.487 Y200.916 E7.91417
G1 X37.066 Y200.494 E7.9226
G1 X36.055 Y199.308 E7.94465
G1 X35.706 Y198.827 E7.95306
G1 X34.89 Y197.494 E7.97517
G1 X34.619 Y196.961 E7.98363
G1 X34.021 Y195.514 E8.00578
G1 X33.837 Y194.947 E8.01421
G1 X33.475 Y193.433 E8.03624
G1 X33.383 Y192.846 E8.04464
G1 X33.262 Y191.303 E8.06654
G1 X33.25 Y191.006 E8.07074
G1 X33.25 Y83.996 E9.58462
G1 X33.262 Y83.695 E9.58889
G1 X33.386 Y82.134 E9.61104
G1 X33.479 Y81.546 E9.61946
G1 X33.843 Y80.033 E9.64148
G1 X34.028 Y79.466 E9.64991
G1 X34.628 Y78.02 E9.67206
G1 X34.9 Y77.487 E9.68053
G1 X35.718 Y76.155 E9.70264
G1 X36.069 Y75.674 E9.71106
G1 X37.082 Y74.49 E9.73311
G1 X37.503 Y74.068 E9.74154
G1 X38.691 Y73.055 E9.76363
G1 X39.173 Y72.706 E9.77205
G1 X40.504 Y71.891 E9.79413
G0 F1995 X40.713 Y72.232
G1 F228 X41.189 Y71.99 E9.80168
G1 X42.636 Y71.392 E9.82383
G1 X43.143 Y71.227 E9.83137
G1 X44.659 Y70.864 E9.85343
G1 X45.186 Y70.781 E9.86097
G1 X46.731 Y70.66 E9.8829
G1 X46.996 Y70.65 E9.88665
G1 X243.004 Y70.65 E12.6596
G1 X243.269 Y70.66 E12.66335
G1 X244.814 Y70.781 E12.68527
G1 X245.341 Y70.864 E12.69282
G1 X246.857 Y71.227 E12.71487
G1 X247.363 Y71.392 E12.7224
G1 X248.808 Y71.989 E12.74452
G1 X249.285 Y72.231 E12.75209
G1 X250.618 Y73.047 E12.7742
G1 X251.049 Y73.36 E12.78173
G1 X252.235 Y74.371 E12.80378
G1 X252.612 Y74.747 E12.81131
G1 X253.627 Y75.933 E12.8334
G1 X253.941 Y76.364 E12.84094
G1 X254.758 Y77.694 E12.86302
G1 X255.001 Y78.17 E12.87059
G1 X255.601 Y79.615 E12.89272
G1 X255.767 Y80.123 E12.90028
G1 X256.132 Y81.639 E12.92234
G1 X256.215 Y82.165 E12.92987
G1 X256.339 Y83.724 E12.952
G1 X256.35 Y83.994 E12.95582
G1 X256.35 Y191.004 E14.4697
G1 X256.339 Y191.273 E14.47351
G1 X256.215 Y192.834 E14.49567
G1 X256.132 Y193.36 E14.5032
G1 X255.768 Y194.873 E14.52521
G1 X255.602 Y195.381 E14.53278
G1 X255.002 Y196.827 E14.55492
G1 X254.759 Y197.303 E14.56248
G1 X253.941 Y198.635 E14.5846
G1 X253.627 Y199.066 E14.59214
G1 X252.614 Y200.25 E14.61419
G1 X252.237 Y200.627 E14.62173
G1 X251.05 Y201.639 E14.6438
G1 X250.62 Y201.951 E14.65131
G1 X249.288 Y202.767 E14.67341
G1 X248.811 Y203.01 E14.68098
G1 X247.364 Y203.608 E14.70313
G1 X246.857 Y203.773 E14.71068
G1 X245.341 Y204.136 E14.73273
G1 X244.814 Y204.219 E14.74028
G1 X243.269 Y204.34 E14.7622
G1 X243.004 Y204.35 E14.76595
G1 X46.996 Y204.35 E17.5389
G1 X46.727 Y204.339 E17.54271
G1 X45.166 Y204.215 E17.56486
G1 X44.639 Y204.131 E17.57241
G1 X43.124 Y203.766 E17.59446
G1 X42.617 Y203.601 E17.602
G1 X41.171 Y203.001 E17.62415
G1 X40.694 Y202.758 E17.63172
G1 X39.363 Y201.94 E17.65382
G1 X38.932 Y201.626 E17.66137
G1 X37.747 Y200.612 E17.68343
G1 X37.371 Y200.235 E17.69096
G1 X36.36 Y199.049 E17.71301
G1 X36.047 Y198.618 E17.72055
G1 X35.231 Y197.285 E17.74266
G1 X34.989 Y196.809 E17.75021
G1 X34.391 Y195.362 E17.77236
G1 X34.226 Y194.854 E17.77992
G1 X33.864 Y193.34 E17.80194
G1 X33.781 Y192.815 E17.80946
G1 X33.66 Y191.272 E17.83136
G1 X33.65 Y191.006 E17.83512
G1 X33.65 Y83.996 E19.349
G1 X33.661 Y83.727 E19.35281
G1 X33.785 Y82.166 E19.37497
G1 X33.868 Y81.64 E19.3825
G1 X34.232 Y80.127 E19.40451
G1 X34.398 Y79.619 E19.41208
G1 X34.998 Y78.173 E19.43422
G1 X35.241 Y77.697 E19.44178
G1 X36.059 Y76.365 E19.4639
G1 X36.373 Y75.934 E19.47144
G1 X37.386 Y74.75 E19.49349
G1 X37.763 Y74.373 E19.50103
G1 X38.951 Y73.36 E19.52312
G1 X39.382 Y73.047 E19.53065
G1 X40.713 Y72.232 E19.55273
G0 F1995 X40.921 Y72.574
G1 F228 X41.342 Y72.359 E19.55942
G1 X42.789 Y71.761 E19.58157
G1 X43.236 Y71.616 E19.58822
G1 X44.752 Y71.253 E19.61027
G1 X45.217 Y71.18 E19.61693
G1 X46.762 Y71.059 E19.63885
G1 X46.996 Y71.05 E19.64217
G1 X243.004 Y71.05 E22.41511
G1 X243.238 Y71.059 E22.41842
G1 X244.783 Y71.18 E22.44035
G1 X245.248 Y71.253 E22.44701
G1 X246.764 Y71.616 E22.46906
G1 X247.211 Y71.761 E22.47571
G1 X248.656 Y72.358 E22.49783
G1 X249.076 Y72.572 E22.5045
G1 X250.409 Y73.388 E22.52661
G1 X250.789 Y73.664 E22.53325
G1 X251.975 Y74.675 E22.5553
G1 X252.308 Y75.007 E22.56195
G1 X253.323 Y76.193 E22.58404
G1 X253.6 Y76.574 E22.5907
G1 X254.417 Y77.904 E22.61278
G1 X254.632 Y78.324 E22.61946
G1 X255.232 Y79.769 E22.64159
G1 X255.378 Y80.217 E22.64826
G1 X255.743 Y81.733 E22.67032
G1 X255.817 Y82.197 E22.67696
G1 X255.941 Y83.756 E22.69909
G1 X255.95 Y83.994 E22.70246
G1 X255.95 Y191.004 E24.21634
G1 X255.941 Y191.242 E24.21971
G1 X255.817 Y192.803 E24.24186
G1 X255.743 Y193.267 E24.24851
G1 X255.379 Y194.78 E24.27053
G1 X255.233 Y195.228 E24.27719
G1 X254.633 Y196.674 E24.29934
G1 X254.418 Y197.094 E24.30601
G1 X253.6 Y198.426 E24.32813
G1 X253.324 Y198.806 E24.33477
G1 X252.311 Y199.99 E24.35682
G1 X251.977 Y200.323 E24.36349
G1 X250.79 Y201.335 E24.38556
G1 X250.411 Y201.61 E24.39218
G1 X249.079 Y202.426 E24.41428
G1 X248.658 Y202.641 E24.42097
G1 X247.211 Y203.239 E24.44312
G1 X246.764 Y203.384 E24.44977
G1 X245.248 Y203.747 E24.47182
G1 X244.783 Y203.82 E24.47848
G1 X243.238 Y203.941 E24.5004
G1 X243.004 Y203.95 E24.50372
G1 X46.996 Y203.95 E27.27666
G1 X46.758 Y203.941 E27.28003
G1 X45.197 Y203.817 E27.30218
G1 X44.732 Y203.743 E27.30884
G1 X43.217 Y203.378 E27.33089
G1 X42.77 Y203.232 E27.33754
G1 X41.324 Y202.632 E27.35969
G1 X40.903 Y202.417 E27.36638
G1 X39.572 Y201.599 E27.38848
G1 X39.193 Y201.322 E27.39512
G1 X38.008 Y200.308 E27.41719
G1 X37.675 Y199.975 E27.42385
G1 X36.664 Y198.789 E27.4459
G1 X36.388 Y198.409 E27.45254
G1 X35.572 Y197.076 E27.47465
G1 X35.358 Y196.656 E27.48132
G1 X34.76 Y195.209 E27.50347
G1 X34.615 Y194.761 E27.51013
G1 X34.253 Y193.247 E27.53215
G1 X34.18 Y192.784 E27.53878
G1 X34.059 Y191.241 E27.56068
G1 X34.05 Y191.006 E27.56401
G1 X34.05 Y83.996 E29.07789
G1 X34.059 Y83.758 E29.08126
G1 X34.183 Y82.197 E29.10341
G1 X34.257 Y81.733 E29.11006
G1 X34.621 Y80.22 E29.13207
G1 X34.767 Y79.772 E29.13874
G1 X35.367 Y78.326 E29.16089
G1 X35.582 Y77.906 E29.16756
G1 X36.4 Y76.574 E29.18968
G1 X36.676 Y76.194 E29.19632
G1 X37.689 Y75.01 E29.21837
G1 X38.022 Y74.677 E29.22503
G1 X39.21 Y73.664 E29.24712
G1 X39.59 Y73.389 E29.25375
G1 X40.921 Y72.574 E29.27583
G0 F1995 X41.13 Y72.915
G1 F228 X41.495 Y72.729 E29.28163
G1 X42.942 Y72.131 E29.30378
G1 X43.33 Y72.005 E29.30955
G1 X44.846 Y71.642 E29.3316
G1 X45.248 Y71.579 E29.33736
G1 X46.793 Y71.458 E29.35928
G1 X46.996 Y71.45 E29.36216
G1 X243.004 Y71.45 E32.1351
G1 X243.207 Y71.458 E32.13798
G1 X244.752 Y71.579 E32.1599
G1 X245.154 Y71.642 E32.16566
G1 X246.67 Y72.005 E32.18771
G1 X247.058 Y72.131 E32.19348
G1 X248.503 Y72.728 E32.2156
G1 X248.867 Y72.913 E32.22138
G1 X250.2 Y73.729 E32.24349
G1 X250.53 Y73.968 E32.24925
G1 X251.716 Y74.979 E32.2713
G1 X252.004 Y75.267 E32.27706
G1 X253.019 Y76.453 E32.29914
G1 X253.259 Y76.783 E32.30492
G1 X254.076 Y78.113 E32.327
G1 X254.262 Y78.477 E32.33278
G1 X254.862 Y79.922 E32.35492
G1 X254.989 Y80.31 E32.36069
G1 X255.354 Y81.826 E32.38275
G1 X255.418 Y82.229 E32.38853
G1 X255.542 Y83.788 E32.41065
G1 X255.55 Y83.994 E32.41357
G1 X255.55 Y191.004 E33.92745
G1 X255.542 Y191.21 E33.93036
G1 X255.418 Y192.771 E33.95252
G1 X255.354 Y193.173 E33.95828
G1 X254.99 Y194.686 E33.98029
G1 X254.863 Y195.074 E33.98607
G1 X254.263 Y196.52 E34.00822
G1 X254.078 Y196.885 E34.014
G1 X253.26 Y198.217 E34.03612
G1 X253.02 Y198.546 E34.04188
G1 X252.007 Y199.73 E34.06392
G1 X251.718 Y200.019 E34.06971
G1 X250.531 Y201.031 E34.09177
G1 X250.202 Y201.269 E34.09752
G1 X248.87 Y202.085 E34.11962
G1 X248.505 Y202.271 E34.12541
G1 X247.058 Y202.869 E34.14756
G1 X246.67 Y202.995 E34.15333
G1 X245.154 Y203.358 E34.17539
G1 X244.752 Y203.421 E34.18114
G1 X243.207 Y203.542 E34.20307
G1 X243.004 Y203.55 E34.20594
G1 X46.996 Y203.55 E36.97889
G1 X46.79 Y203.542 E36.9818
G1 X45.229 Y203.418 E37.00396
G1 X44.826 Y203.354 E37.00973
G1 X43.311 Y202.989 E37.03178
G1 X42.924 Y202.862 E37.03754
G1 X41.478 Y202.262 E37.05969
G1 X41.113 Y202.076 E37.06548
G1 X39.782 Y201.258 E37.08758
G1 X39.453 Y201.018 E37.09334
G1 X38.268 Y200.004 E37.11541
G1 X37.979 Y199.716 E37.12118
G1 X36.968 Y198.53 E37.14323
G1 X36.729 Y198.2 E37.14899
G1 X35.913 Y196.867 E37.1711
G1 X35.728 Y196.503 E37.17688
G1 X35.13 Y195.056 E37.19903
G1 X35.004 Y194.668 E37.2048
G1 X34.642 Y193.154 E37.22682
G1 X34.579 Y192.752 E37.23258
G1 X34.458 Y191.209 E37.25448
G1 X34.45 Y191.006 E37.25735
G1 X34.45 Y83.996 E38.77123
G1 X34.458 Y83.79 E38.77415
G1 X34.582 Y82.229 E38.7963
G1 X34.646 Y81.827 E38.80206
G1 X35.01 Y80.314 E38.82408
G1 X35.137 Y79.926 E38.82985
G1 X35.737 Y78.48 E38.852
G1 X35.922 Y78.115 E38.85779
G1 X36.74 Y76.783 E38.8799
G1 X36.98 Y76.454 E38.88566
G1 X37.993 Y75.27 E38.90771
G1 X38.282 Y74.982 E38.91348
G1 X39.47 Y73.969 E38.93557
G1 X39.799 Y73.73 E38.94132
G1 X41.13 Y72.915 E38.9634
G0 F1995 X41.339 Y73.256
G1 F228 X41.648 Y73.099 E38.9683
G1 X43.095 Y72.501 E38.99045
G1 X43.423 Y72.394 E38.99533
G1 X44.939 Y72.031 E39.01739
G1 X45.279 Y71.978 E39.02225
G1 X46.824 Y71.857 E39.04418
G1 X46.996 Y71.85 E39.04661
G1 X243.004 Y71.85 E41.81956
G1 X243.176 Y71.857 E41.822
G1 X244.721 Y71.978 E41.84392
G1 X245.061 Y72.031 E41.84879
G1 X246.577 Y72.394 E41.87084
G1 X246.905 Y72.501 E41.87572
G1 X248.35 Y73.098 E41.89784
G1 X248.659 Y73.255 E41.90274
G1 X249.992 Y74.071 E41.92485
G1 X250.27 Y74.273 E41.92972
G1 X251.456 Y75.284 E41.95176
G1 X251.7 Y75.528 E41.95665
G1 X252.715 Y76.714 E41.97873
G1 X252.919 Y76.992 E41.98361
G1 X253.736 Y78.322 E42.00569
G1 X253.893 Y78.63 E42.01058
G1 X254.493 Y80.075 E42.03272
G1 X254.6 Y80.404 E42.03761
G1 X254.965 Y81.92 E42.05967
G1 X255.019 Y82.261 E42.06455
G1 X255.143 Y83.82 E42.08668
G1 X255.15 Y83.994 E42.08914
G1 X255.15 Y191.004 E43.60302
G1 X255.143 Y191.178 E43.60549
G1 X255.019 Y192.739 E43.62764
G1 X254.965 Y193.08 E43.63253
G1 X254.601 Y194.593 E43.65454
G1 X254.494 Y194.921 E43.65942
G1 X253.894 Y196.367 E43.68157
G1 X253.737 Y196.675 E43.68646
G1 X252.919 Y198.007 E43.70857
G1 X252.716 Y198.286 E43.71345
G1 X251.703 Y199.47 E43.7355
G1 X251.458 Y199.714 E43.74039
G1 X250.271 Y200.726 E43.76246
G1 X249.993 Y200.928 E43.76732
G1 X248.661 Y201.744 E43.78942
G1 X248.352 Y201.901 E43.79432
G1 X246.905 Y202.499 E43.81647
G1 X246.577 Y202.606 E43.82135
G1 X245.061 Y202.969 E43.84341
G1 X244.721 Y203.022 E43.84827
G1 X243.176 Y203.143 E43.8702
G1 X243.004 Y203.15 E43.87263
G1 X46.996 Y203.15 E46.64558
G1 X46.822 Y203.143 E46.64804
G1 X45.261 Y203.019 E46.6702
G1 X44.92 Y202.965 E46.67508
G1 X43.405 Y202.6 E46.69713
G1 X43.077 Y202.493 E46.70201
G1 X41.631 Y201.893 E46.72416
G1 X41.322 Y201.735 E46.72907
G1 X39.991 Y200.917 E46.75117
G1 X39.713 Y200.715 E46.75603
G1 X38.528 Y199.701 E46.77809
G1 X38.284 Y199.456 E46.78298
G1 X37.273 Y198.27 E46.80503
G1 X37.071 Y197.992 E46.80989
G1 X36.255 Y196.659 E46.832
G1 X36.098 Y196.35 E46.83691
G1 X35.5 Y194.903 E46.85906
G1 X35.393 Y194.575 E46.86394
G1 X35.031 Y193.061 E46.88596
G1 X34.978 Y192.721 E46.89083
G1 X34.857 Y191.178 E46.91273
G1 X34.85 Y191.006 E46.91516
G1 X34.85 Y83.996 E48.42904
G1 X34.857 Y83.822 E48.43151
G1 X34.981 Y82.261 E48.45366
G1 X35.035 Y81.92 E48.45854
G1 X35.399 Y80.407 E48.48056
G1 X35.506 Y80.079 E48.48544
G1 X36.106 Y78.633 E48.50759
G1 X36.263 Y78.325 E48.51248
G1 X37.081 Y76.993 E48.53459
G1 X37.284 Y76.714 E48.53947
G1 X38.297 Y75.53 E48.56152
G1 X38.542 Y75.286 E48.56641
G1 X39.73 Y74.273 E48.5885
G1 X40.008 Y74.071 E48.59336
G1 X41.339 Y73.256 E48.61544
G0 F1995 X41.548 Y73.597
G1 F228 X41.801 Y73.468 E48.61945
G1 X43.248 Y72.87 E48.6416
G1 X43.516 Y72.783 E48.64559
G1 X45.032 Y72.42 E48.66764
G1 X45.31 Y72.376 E48.67163
G1 X46.855 Y72.255 E48.69355
G1 X46.996 Y72.25 E48.69555
G1 X243.004 Y72.25 E51.46849
G1 X243.145 Y72.255 E51.47049
G1 X244.69 Y72.376 E51.49241
G1 X244.968 Y72.42 E51.49639
G1 X246.484 Y72.783 E51.51845
G1 X246.752 Y72.87 E51.52243
G1 X248.197 Y73.467 E51.54455
G1 X248.45 Y73.596 E51.54857
G1 X249.783 Y74.412 E51.57068
G1 X250.011 Y74.577 E51.57466
G1 X251.197 Y75.588 E51.59671
G1 X251.397 Y75.788 E51.60071
G1 X252.412 Y76.974 E51.6228
G1 X252.578 Y77.202 E51.62679
G1 X253.395 Y78.532 E51.64887
G1 X253.523 Y78.784 E51.65287
G1 X254.123 Y80.229 E51.675
G1 X254.211 Y80.498 E51.679
G1 X254.576 Y82.014 E51.70106
G1 X254.62 Y82.292 E51.70505
G1 X254.744 Y83.851 E51.72717
G1 X254.75 Y83.994 E51.7292
G1 X254.75 Y191.004 E53.24308
G1 X254.744 Y191.147 E53.2451
G1 X254.62 Y192.708 E53.26726
G1 X254.576 Y192.986 E53.27124
G1 X254.212 Y194.499 E53.29325
G1 X254.125 Y194.768 E53.29725
G1 X253.525 Y196.214 E53.3194
G1 X253.396 Y196.466 E53.32341
G1 X252.578 Y197.798 E53.34552
G1 X252.412 Y198.026 E53.34951
G1 X251.399 Y199.21 E53.37155
G1 X251.199 Y199.41 E53.37555
G1 X250.012 Y200.422 E53.39762
G1 X249.784 Y200.587 E53.4016
G1 X248.452 Y201.403 E53.4237
G1 X248.199 Y201.532 E53.42772
G1 X246.752 Y202.13 E53.44987
G1 X246.484 Y202.217 E53.45386
G1 X244.968 Y202.58 E53.47591
G1 X244.69 Y202.624 E53.47989
G1 X243.145 Y202.745 E53.50182
G1 X243.004 Y202.75 E53.50381
G1 X46.996 Y202.75 E56.27676
G1 X46.853 Y202.744 E56.27878
G1 X45.292 Y202.62 E56.30094
G1 X45.013 Y202.576 E56.30493
G1 X43.498 Y202.211 E56.32698
G1 X43.23 Y202.124 E56.33096
G1 X41.784 Y201.524 E56.35311
