;Generated by Cura LulzBot Edition GCodeWriter Version: 3.6.8
;FLAVOR:Marlin
;TIME:22376
;Filament used: 13.1493m
;Layer height: 0.2
;Generated with Cura_SteamEngine 3.6.8
M82 ;absolute extrusion mode
M221 S100
;This G-Code has been generated specifically for the LulzBot TAZ 5 with standard extruder
M75			 ; start GLCD timer
M140 S70    ; start bed heating up
G90                      ; absolute positioning
M107                     ; disable fans
M82                      ; set extruder to absolute mode
G28 X0 Y0                ; home X and Y
G28 Z0                   ; home Z
G1 Z15.0 F175 ; move extruder up
M117 Heating...                     ; progress indicator message on LCD
M109 R205  ; wait for extruder to reach printing temp
M190 S70    ; wait for bed to reach printing temp
G92 E0                   ; set extruder position to 0
G1 F200 E0               ; prime the nozzle with filament
G92 E0                   ; re-set extruder position to 0
G1 F175       ; set travel speed
M203 X192 Y208 Z3        ; set limits on travel speed
M117 TAZ 5 Printing...   ; progress indicator message on LCD

G92 E0
G1 F600 E-1
;LAYER_COUNT:37
;LAYER:0
M107
G0 F2625 X40.69 Y71.263 Z0.425
;TYPE:SKIRT
G1 F600 E0
G1 F900 X41.331 Y70.96 E0.02362
G1 X42.738 Y70.433 E0.07366
G1 X43.374 Y70.25 E0.09571
G1 X44.908 Y69.935 E0.14787
G1 X45.478 Y69.858 E0.16703
G1 X46.877 Y69.764 E0.21374
G1 X47.162 Y69.754 E0.22324
G1 X243.139 Y69.766 E6.7513
G1 X243.489 Y69.78 E6.76297
G1 X244.917 Y69.898 E6.8107
G1 X245.506 Y69.989 E6.83055
G1 X246.349 Y70.18 E6.85935
G1 X246.755 Y70.293 E6.87338
G1 X248.206 Y70.777 E6.92433
G1 X248.812 Y71.033 E6.94625
G1 X250.211 Y71.756 E6.9987
G1 X250.873 Y72.18 E7.02489
G1 X252.677 Y73.586 E7.10108
G1 X253.111 Y73.975 E7.12049
G1 X253.356 Y74.251 E7.13279
G1 X254.564 Y75.731 E7.19642
G1 X254.918 Y76.233 E7.21688
G1 X255.555 Y77.296 E7.25816
G1 X255.836 Y77.857 E7.27906
G1 X256.422 Y79.274 E7.33014
G1 X256.612 Y79.844 E7.35016
G1 X256.828 Y80.688 E7.37918
G1 X256.913 Y81.103 E7.39329
G1 X257.144 Y82.622 E7.44447
G1 X257.184 Y83.007 E7.45736
G1 X257.238 Y83.908 E7.48743
G1 X257.246 Y84.162 E7.49589
G1 X257.234 Y191.139 E11.05933
G1 X257.22 Y191.487 E11.07094
G1 X257.103 Y192.911 E11.11853
G1 X257 Y193.554 E11.14022
G1 X256.637 Y195.068 E11.19208
G1 X256.431 Y195.702 E11.21429
G1 X255.826 Y197.164 E11.26699
G1 X255.522 Y197.761 E11.28931
G1 X254.703 Y199.096 E11.34148
G1 X254.243 Y199.713 E11.36711
G1 X252.955 Y201.148 E11.43135
G1 X252.439 Y201.634 E11.45496
G1 X251.233 Y202.594 E11.5063
G1 X250.781 Y202.908 E11.52464
G1 X249.745 Y203.533 E11.56494
G1 X249.078 Y203.86 E11.58968
G1 X247.243 Y204.567 E11.65519
G1 X246.546 Y204.769 E11.67936
G1 X245.006 Y205.076 E11.73167
G1 X244.402 Y205.152 E11.75195
G1 X242.68 Y205.244 E11.80939
G1 X242.452 Y205.25 E11.81699
G1 X46.401 Y205.203 E18.34752
G1 X45.884 Y205.171 E18.36477
G1 X44.549 Y205.007 E18.40957
G1 X43.938 Y204.886 E18.43032
G1 X42.494 Y204.488 E18.48022
G1 X41.872 Y204.263 E18.50225
G1 X40.437 Y203.614 E18.55471
G1 X39.943 Y203.351 E18.57335
G1 X38.882 Y202.691 E18.61497
G1 X38.362 Y202.31 E18.63645
G1 X37.171 Y201.29 E18.68868
G1 X36.644 Y200.749 E18.71384
G1 X35.436 Y199.269 E18.77748
G1 X35.082 Y198.767 E18.79794
G1 X34.445 Y197.704 E18.83922
G1 X34.164 Y197.145 E18.86006
G1 X33.572 Y195.715 E18.91161
G1 X33.337 Y194.949 E18.9383
G1 X32.923 Y192.945 E19.00646
G1 X32.841 Y192.306 E19.02792
G1 X32.756 Y190.674 E19.08236
G1 X32.75 Y190.451 E19.08979
G1 X32.797 Y83.4 E22.6557
G1 X32.829 Y82.884 E22.67292
G1 X32.993 Y81.549 E22.71772
G1 X33.128 Y80.888 E22.7402
G1 X33.591 Y79.284 E22.79581
G1 X33.825 Y78.662 E22.81794
G1 X34.467 Y77.29 E22.8684
G1 X34.77 Y76.749 E22.88906
G1 X35.564 Y75.547 E22.93704
G1 X35.902 Y75.101 E22.95568
G1 X36.737 Y74.14 E22.99809
G1 X37.187 Y73.695 E23.01917
G1 X38.358 Y72.696 E23.07044
G1 X38.984 Y72.252 E23.09601
G1 X40.69 Y71.263 E23.16169
G0 F2625 X40.941 Y71.696
G1 F900 X41.507 Y71.428 E23.18256
G1 X42.914 Y70.901 E23.2326
G1 X43.475 Y70.74 E23.25204
G1 X45.009 Y70.425 E23.30421
G1 X45.512 Y70.356 E23.32112
G1 X46.911 Y70.262 E23.36783
G1 X47.162 Y70.254 E23.37619
G1 X243.139 Y70.266 E29.90426
G1 X243.448 Y70.279 E29.91456
G1 X244.876 Y70.397 E29.96229
G1 X245.396 Y70.477 E29.97981
G1 X246.239 Y70.668 E30.00861
G1 X246.597 Y70.768 E30.02099
G1 X248.048 Y71.252 E30.07194
G1 X248.583 Y71.478 E30.09128
G1 X249.982 Y72.201 E30.14374
G1 X250.565 Y72.574 E30.1668
G1 X252.369 Y73.98 E30.24298
G1 X252.775 Y74.347 E30.26121
G1 X252.969 Y74.567 E30.27098
G1 X254.177 Y76.047 E30.33462
G1 X254.489 Y76.49 E30.35267
G1 X255.126 Y77.553 E30.39395
G1 X255.374 Y78.048 E30.41239
G1 X255.96 Y79.465 E30.46347
G1 X256.128 Y79.968 E30.48113
G1 X256.344 Y80.812 E30.51015
G1 X256.418 Y81.178 E30.52259
G1 X256.649 Y82.697 E30.57377
G1 X256.685 Y83.037 E30.58516
G1 X256.739 Y83.938 E30.61523
G1 X256.746 Y84.162 E30.62269
G1 X256.734 Y191.139 E34.18613
G1 X256.721 Y191.446 E34.19637
G1 X256.604 Y192.87 E34.24396
G1 X256.514 Y193.437 E34.26309
G1 X256.151 Y194.951 E34.31495
G1 X255.969 Y195.511 E34.33456
G1 X255.364 Y196.973 E34.38727
G1 X255.095 Y197.5 E34.40698
G1 X254.276 Y198.835 E34.45915
G1 X253.871 Y199.379 E34.48174
G1 X252.583 Y200.814 E34.54597
G1 X252.127 Y201.243 E34.56682
G1 X250.921 Y202.203 E34.61817
G1 X250.523 Y202.48 E34.63432
G1 X249.487 Y203.105 E34.67463
G1 X248.898 Y203.393 E34.69647
G1 X247.063 Y204.1 E34.76197
G1 X246.448 Y204.279 E34.78331
G1 X244.908 Y204.586 E34.83561
G1 X244.375 Y204.653 E34.85351
G1 X242.653 Y204.745 E34.91095
G1 X242.452 Y204.75 E34.91765
G1 X46.401 Y204.703 E41.44818
G1 X45.945 Y204.675 E41.4634
G1 X44.61 Y204.511 E41.5082
G1 X44.071 Y204.404 E41.5265
G1 X42.627 Y204.006 E41.5764
G1 X42.078 Y203.808 E41.59584
G1 X40.643 Y203.159 E41.6483
G1 X40.207 Y202.926 E41.66477
G1 X39.146 Y202.266 E41.70639
G1 X38.688 Y201.93 E41.72531
G1 X37.497 Y200.91 E41.77754
G1 X37.031 Y200.433 E41.79976
G1 X35.823 Y198.953 E41.86339
G1 X35.511 Y198.51 E41.88144
G1 X34.874 Y197.447 E41.92272
G1 X34.626 Y196.953 E41.94113
G1 X34.034 Y195.523 E41.99269
G1 X33.827 Y194.848 E42.01621
G1 X33.413 Y192.844 E42.08437
G1 X33.34 Y192.28 E42.10331
G1 X33.255 Y190.648 E42.15775
G1 X33.25 Y190.451 E42.16431
G1 X33.297 Y83.4 E45.73022
G1 X33.325 Y82.945 E45.74541
G1 X33.489 Y81.61 E45.79021
G1 X33.608 Y81.027 E45.81003
G1 X34.071 Y79.423 E45.86564
G1 X34.277 Y78.874 E45.88517
G1 X34.919 Y77.502 E45.93563
G1 X35.187 Y77.024 E45.95389
G1 X35.981 Y75.822 E46.00187
G1 X36.279 Y75.429 E46.0183
G1 X37.114 Y74.468 E46.06071
G1 X37.511 Y74.075 E46.07932
G1 X38.682 Y73.076 E46.13059
G1 X39.235 Y72.685 E46.15315
G1 X40.941 Y71.696 E46.21883
G0 F2625 X41.192 Y72.128
G1 F900 X41.682 Y71.896 E46.23689
G1 X43.089 Y71.369 E46.28694
G1 X43.575 Y71.229 E46.30379
G1 X45.109 Y70.914 E46.35595
G1 X45.545 Y70.855 E46.37061
G1 X46.944 Y70.761 E46.41731
G1 X47.162 Y70.754 E46.42458
G1 X243.139 Y70.766 E52.95264
G1 X243.407 Y70.777 E52.96158
G1 X244.835 Y70.895 E53.00931
G1 X245.285 Y70.964 E53.02447
G1 X246.128 Y71.155 E53.05327
G1 X246.438 Y71.242 E53.06399
G1 X247.889 Y71.726 E53.11494
G1 X248.353 Y71.922 E53.13172
G1 X249.752 Y72.645 E53.18418
G1 X250.258 Y72.969 E53.20419
G1 X252.062 Y74.375 E53.28038
G1 X252.582 Y74.883 E53.30459
G1 X253.79 Y76.363 E53.36823
G1 X254.06 Y76.747 E53.38387
G1 X254.697 Y77.81 E53.42515
G1 X254.912 Y78.239 E53.44113
G1 X255.498 Y79.656 E53.49221
G1 X255.644 Y80.092 E53.50752
G1 X255.86 Y80.936 E53.53654
G1 X255.924 Y81.253 E53.54732
G1 X256.155 Y82.772 E53.5985
G1 X256.186 Y83.067 E53.60838
G1 X256.24 Y83.968 E53.63844
G1 X256.246 Y84.162 E53.64491
G1 X256.234 Y191.139 E57.20835
G1 X256.223 Y191.405 E57.21722
G1 X256.106 Y192.829 E57.26481
G1 X256.027 Y193.321 E57.28141
G1 X255.664 Y194.835 E57.33327
G1 X255.507 Y195.32 E57.35025
G1 X254.902 Y196.782 E57.40296
G1 X254.669 Y197.238 E57.42002
G1 X253.85 Y198.573 E57.47219
G1 X253.499 Y199.045 E57.49178
G1 X252.211 Y200.48 E57.55601
G1 X251.816 Y200.852 E57.57409
G1 X250.61 Y201.812 E57.62543
G1 X250.265 Y202.052 E57.63943
G1 X249.229 Y202.677 E57.67973
G1 X248.718 Y202.927 E57.69868
G1 X246.883 Y203.634 E57.76419
G1 X246.35 Y203.788 E57.78267
G1 X244.81 Y204.095 E57.83498
G1 X244.348 Y204.153 E57.85049
G1 X242.626 Y204.245 E57.90793
G1 X242.452 Y204.25 E57.91373
G1 X46.401 Y204.203 E64.44426
G1 X46.006 Y204.179 E64.45744
G1 X44.671 Y204.015 E64.50224
G1 X44.203 Y203.922 E64.51814
G1 X42.759 Y203.524 E64.56803
G1 X42.284 Y203.352 E64.58486
G1 X40.849 Y202.703 E64.63732
G1 X40.471 Y202.502 E64.65158
G1 X39.41 Y201.842 E64.6932
G1 X39.013 Y201.55 E64.70962
G1 X37.822 Y200.53 E64.76185
G1 X37.418 Y200.117 E64.7811
G1 X36.21 Y198.637 E64.84473
G1 X35.94 Y198.253 E64.86037
G1 X35.303 Y197.19 E64.90165
G1 X35.088 Y196.762 E64.9176
G1 X34.496 Y195.332 E64.96916
G1 X34.316 Y194.747 E64.98955
G1 X33.902 Y192.743 E65.05771
G1 X33.839 Y192.254 E65.07413
G1 X33.754 Y190.622 E65.12857
G1 X33.75 Y190.452 E65.13423
G1 X33.797 Y83.401 E68.70014
G1 X33.821 Y83.006 E68.71332
G1 X33.985 Y81.671 E68.75813
G1 X34.088 Y81.166 E68.7753
G1 X34.551 Y79.562 E68.83091
G1 X34.73 Y79.086 E68.84785
G1 X35.372 Y77.714 E68.8983
G1 X35.604 Y77.3 E68.91411
G1 X36.398 Y76.098 E68.9621
G1 X36.657 Y75.757 E68.97636
G1 X37.492 Y74.796 E69.01877
G1 X37.836 Y74.456 E69.03488
G1 X39.007 Y73.457 E69.08615
G1 X39.486 Y73.117 E69.10572
G1 X41.192 Y72.128 E69.1714
G1 F600 E68.1714
;MESH:
G0 F2625 X43.603 Y73.9
G0 X44.15 Y75.223
G0 X58.893 Y86.975
G0 X58.922 Y87.07
;TYPE:WALL-INNER
G1 F600 E69.1714
G1 F900 X58.257 Y87.344 E69.19536
G1 X57.644 Y87.723 E69.21937
G1 X57.104 Y88.203 E69.24344
G1 X56.655 Y88.767 E69.26745
G1 X56.306 Y89.397 E69.29144
G1 X56.069 Y90.077 E69.31543
G1 X55.954 Y90.754 E69.3383
G1 X55.937 Y91.141 E69.35121
G1 X55.957 Y91.528 E69.36411
G1 X56.079 Y92.221 E69.38755
G1 X56.323 Y92.901 E69.41162
G1 X56.679 Y93.528 E69.43564
G1 X57.133 Y94.086 E69.4596
G1 X57.677 Y94.561 E69.48365
G1 X58.293 Y94.934 E69.50764
G1 X58.961 Y95.201 E69.5316
G1 X59.67 Y95.35 E69.55574
G1 X60.39 Y95.377 E69.57974
G1 X61.105 Y95.281 E69.60377
G1 X61.792 Y95.067 E69.62774
G1 X62.434 Y94.739 E69.65175
G1 X63.013 Y94.308 E69.6758
G1 X63.508 Y93.785 E69.69978
G1 X63.91 Y93.186 E69.72381
G1 X64.203 Y92.526 E69.74787
G1 X64.381 Y91.829 E69.77183
G1 X64.44 Y91.11 E69.79586
G1 X64.375 Y90.39 E69.81994
G1 X64.189 Y89.694 E69.84394
G1 X63.89 Y89.039 E69.86792
G1 X63.482 Y88.443 E69.89198
G1 X62.982 Y87.926 E69.91594
G1 X62.4 Y87.5 E69.93996
G1 X61.754 Y87.177 E69.96402
G1 X61.064 Y86.97 E69.98802
G1 X60.349 Y86.882 E70.01201
G1 X59.629 Y86.916 E70.03603
G1 X58.922 Y87.07 E70.06013
G0 F2625 X58.893 Y86.975
G0 X57.621 Y87.691
G0 X57.075 Y88.176
G0 X56.622 Y88.745
G0 X56.27 Y89.381
G0 X56.031 Y90.068
G0 X55.897 Y91.141
G0 X56.041 Y92.231
G0 X63.859 Y115.11
G0 X63.968 Y115.753
G0 X63.967 Y116.387
G0 X63.859 Y117.021
G0 X63.644 Y117.627
G0 X63.331 Y118.189
G0 X62.925 Y118.689
G0 X62.442 Y119.114
G0 X62.001 Y119.386
G0 X60.677 Y119.887
G0 X60.665 Y119.788
G1 F900 X61.287 Y119.653 E70.08133
G1 X61.878 Y119.416 E70.10254
G1 X62.419 Y119.082 E70.12372
G1 X62.897 Y118.662 E70.14491
G1 X63.298 Y118.167 E70.16613
G1 X63.608 Y117.611 E70.18734
G1 X63.821 Y117.011 E70.20855
G1 X63.928 Y116.384 E70.22973
G1 X63.929 Y115.756 E70.25065
G1 X63.821 Y115.12 E70.27214
G1 X63.608 Y114.519 E70.29338
G1 X63.298 Y113.963 E70.31459
G1 X62.897 Y113.468 E70.33581
G1 X62.419 Y113.048 E70.357
G1 X61.878 Y112.714 E70.37818
G1 X61.287 Y112.476 E70.3994
G1 X60.664 Y112.342 E70.42063
G1 X60.029 Y112.316 E70.4418
G1 X59.397 Y112.396 E70.46302
G1 X58.789 Y112.582 E70.4842
G1 X58.22 Y112.869 E70.50543
G1 X57.708 Y113.249 E70.52667
G1 X57.269 Y113.707 E70.5478
G1 X56.912 Y114.235 E70.56903
G1 X56.65 Y114.815 E70.59023
G1 X56.489 Y115.43 E70.61141
G1 X56.435 Y116.065 E70.63263
G1 X56.489 Y116.7 E70.65386
G1 X56.65 Y117.315 E70.67504
G1 X56.912 Y117.895 E70.69624
G1 X57.269 Y118.423 E70.71747
G1 X57.708 Y118.881 E70.7386
G1 X58.22 Y119.261 E70.75984
G1 X58.789 Y119.548 E70.78107
G1 X59.397 Y119.734 E70.80225
G1 X60.029 Y119.814 E70.82347
G1 X60.665 Y119.788 E70.84467
G0 F2625 X60.677 Y119.887
G0 X80.677 Y119.887
G0 X80.665 Y119.788
G1 F900 X81.287 Y119.653 E70.86587
G1 X81.878 Y119.416 E70.88708
G1 X82.419 Y119.082 E70.90826
G1 X82.897 Y118.662 E70.92946
G1 X83.298 Y118.167 E70.95068
G1 X83.608 Y117.611 E70.97188
G1 X83.821 Y117.011 E70.99309
G1 X83.928 Y116.384 E71.01428
G1 X83.929 Y115.756 E71.0352
G1 X83.821 Y115.12 E71.05669
G1 X83.608 Y114.519 E71.07793
G1 X83.298 Y113.963 E71.09913
G1 X82.897 Y113.468 E71.12035
G1 X82.419 Y113.048 E71.14155
G1 X81.878 Y112.714 E71.16273
G1 X81.287 Y112.476 E71.18395
G1 X80.664 Y112.342 E71.20517
G1 X80.029 Y112.316 E71.22634
G1 X79.397 Y112.396 E71.24756
G1 X78.789 Y112.582 E71.26874
G1 X78.22 Y112.869 E71.28997
G1 X77.708 Y113.249 E71.31121
G1 X77.269 Y113.707 E71.33234
G1 X76.912 Y114.235 E71.35357
G1 X76.65 Y114.815 E71.37477
G1 X76.489 Y115.43 E71.39595
G1 X76.435 Y116.065 E71.41718
G1 X76.489 Y116.7 E71.43841
G1 X76.65 Y117.315 E71.45958
G1 X76.912 Y117.895 E71.48078
G1 X77.269 Y118.423 E71.50201
G1 X77.708 Y118.881 E71.52315
G1 X78.22 Y119.261 E71.54439
G1 X78.789 Y119.548 E71.56561
G1 X79.397 Y119.734 E71.58679
G1 X80.029 Y119.814 E71.60801
G1 X80.665 Y119.788 E71.62922
G0 F2625 X80.677 Y119.887
G0 X80.677 Y155.113
G0 X80.665 Y155.212
G1 F900 X80.029 Y155.186 E71.65042
G1 X79.397 Y155.266 E71.67164
G1 X78.789 Y155.452 E71.69282
G1 X78.22 Y155.739 E71.71405
G1 X77.708 Y156.119 E71.73529
G1 X77.269 Y156.577 E71.75642
G1 X76.912 Y157.105 E71.77765
G1 X76.65 Y157.685 E71.79885
G1 X76.489 Y158.3 E71.82003
G1 X76.435 Y158.935 E71.84125
G1 X76.489 Y159.57 E71.86248
G1 X76.65 Y160.185 E71.88366
G1 X76.912 Y160.765 E71.90486
G1 X77.269 Y161.293 E71.92609
G1 X77.708 Y161.751 E71.94722
G1 X78.22 Y162.131 E71.96846
G1 X78.789 Y162.418 E71.98969
G1 X79.397 Y162.604 E72.01087
G1 X80.029 Y162.684 E72.03209
G1 X80.664 Y162.658 E72.05326
G1 X81.287 Y162.524 E72.07448
G1 X81.878 Y162.286 E72.09571
G1 X82.419 Y161.952 E72.11689
G1 X82.897 Y161.532 E72.13808
G1 X83.298 Y161.037 E72.1593
G1 X83.608 Y160.481 E72.18051
G1 X83.821 Y159.88 E72.20175
G1 X83.928 Y159.252 E72.22297
G1 X83.928 Y158.618 E72.24409
G1 X83.821 Y157.99 E72.26531
G1 X83.608 Y157.389 E72.28655
G1 X83.298 Y156.833 E72.30775
G1 X82.897 Y156.338 E72.32897
G1 X82.419 Y155.918 E72.35017
G1 X81.878 Y155.584 E72.37134
G1 X81.287 Y155.347 E72.39255
G1 X80.665 Y155.212 E72.41376
G0 F2625 X80.677 Y155.113
G0 X60.677 Y155.113
G0 X60.665 Y155.212
G1 F900 X60.029 Y155.186 E72.43496
G1 X59.397 Y155.266 E72.45618
G1 X58.789 Y155.452 E72.47736
G1 X58.22 Y155.739 E72.49859
G1 X57.708 Y156.119 E72.51983
G1 X57.269 Y156.577 E72.54096
G1 X56.912 Y157.105 E72.56219
G1 X56.65 Y157.685 E72.58339
G1 X56.489 Y158.3 E72.60457
G1 X56.435 Y158.935 E72.62579
G1 X56.489 Y159.57 E72.64702
G1 X56.65 Y160.185 E72.6682
G1 X56.912 Y160.765 E72.6894
G1 X57.269 Y161.293 E72.71063
G1 X57.708 Y161.751 E72.73176
G1 X58.22 Y162.131 E72.753
G1 X58.789 Y162.418 E72.77423
G1 X59.397 Y162.604 E72.79541
G1 X60.029 Y162.684 E72.81663
G1 X60.664 Y162.658 E72.8378
G1 X61.287 Y162.524 E72.85902
G1 X61.878 Y162.286 E72.88025
G1 X62.419 Y161.952 E72.90143
G1 X62.897 Y161.532 E72.92262
G1 X63.298 Y161.037 E72.94384
G1 X63.608 Y160.481 E72.96505
G1 X63.821 Y159.88 E72.98629
G1 X63.928 Y159.252 E73.00751
G1 X63.928 Y158.618 E73.02863
G1 X63.821 Y157.99 E73.04985
G1 X63.608 Y157.389 E73.07109
G1 X63.298 Y156.833 E73.09229
G1 X62.897 Y156.338 E73.11351
G1 X62.419 Y155.918 E73.13471
G1 X61.878 Y155.584 E73.15588
G1 X61.287 Y155.347 E73.17709
G1 X60.665 Y155.212 E73.1983
G0 F2625 X60.677 Y155.113
G0 X61.896 Y155.549
G0 X62.442 Y155.886
G0 X62.925 Y156.311
G0 X63.331 Y156.811
G0 X63.644 Y157.373
G0 X63.859 Y157.98
G0 X63.967 Y158.615
G0 X63.967 Y159.255
G0 X63.937 Y159.434
G0 X58.893 Y179.715
G0 X58.922 Y179.81
G1 F900 X58.257 Y180.084 E73.22225
G1 X57.644 Y180.463 E73.24626
G1 X57.104 Y180.943 E73.27033
G1 X56.655 Y181.507 E73.29434
G1 X56.306 Y182.137 E73.31833
G1 X56.069 Y182.817 E73.34232
G1 X55.954 Y183.494 E73.36519
