;Generated by Cura LulzBot Edition GCodeWriter Version: 3.6.8
;FLAVOR:Marlin
;TIME:13869
;Filament used: 10.1145m
;Layer height: 0.3
;Generated with Cura_SteamEngine 3.6.8
M82 ;absolute extrusion mode
M221 S100
;This G-Code has been generated specifically for the LulzBot TAZ 5 with standard extruder
M75			 ; start GLCD timer
M140 S70    ; start bed heating up
G90                      ; absolute positioning
M107                     ; disable fans
M82                      ; set extruder to absolute mode
G28 X0 Y0                ; home X and Y
G28 Z0                   ; home Z
G1 Z15.0 F175 ; move extruder up
M117 Heating...                     ; progress indicator message on LCD
M109 R210  ; wait for extruder to reach printing temp
M190 S70    ; wait for bed to reach printing temp
G92 E0                   ; set extruder position to 0
G1 F200 E0               ; prime the nozzle with filament
G92 E0                   ; re-set extruder position to 0
G1 F175       ; set travel speed
M203 X192 Y208 Z3        ; set limits on travel speed
M117 TAZ 5 Printing...   ; progress indicator message on LCD

G92 E0
G1 F600 E-1
;LAYER_COUNT:59
;LAYER:-5
M107
G0 F10500 X101.436 Y96.978 Z0.51
;TYPE:SUPPORT-INTERFACE
G1 F600 E0
G1 F1350 X102.091 Y96.309 E0.07485
G1 X102.21 Y96.195 E0.08802
G1 X102.894 Y95.589 E0.16108
G1 X103.733 Y94.945 E0.24563
G1 X104.438 Y94.479 E0.3132
G1 X104.981 Y94.073 E0.3674
G1 X105.477 Y93.595 E0.42247
G1 X105.716 Y93.314 E0.45196
G1 X106.313 Y92.572 E0.52809
G1 X107.032 Y91.799 E0.61249
G1 X107.809 Y91.077 E0.69729
G1 X108.502 Y90.512 E0.76877
G1 X109.577 Y89.695 E0.87671
G1 X110.382 Y89.13 E0.95534
G1 X110.531 Y89.034 E0.96951
G1 X111.299 Y88.573 E1.04112
G1 X111.437 Y88.497 E1.05371
G1 X112.367 Y88.036 E1.13669
G1 X113.034 Y87.759 E1.19443
G1 X113.644 Y87.459 E1.24878
G1 X114.218 Y87.08 E1.30377
G1 X114.504 Y86.85 E1.33311
G1 X115.254 Y86.207 E1.41208
G1 X115.98 Y85.668 E1.48437
G1 X116.116 Y85.575 E1.49754
G1 X116.874 Y85.093 E1.56935
G1 X117.01 Y85.013 E1.58197
G1 X117.815 Y84.578 E1.65512
G1 X119.005 Y83.984 E1.76145
G1 X119.861 Y83.593 E1.83668
G1 X120.004 Y83.534 E1.84905
G1 X120.867 Y83.214 E1.92263
G1 X121.023 Y83.163 E1.93575
G1 X121.851 Y82.923 E2.00467
G1 X122.029 Y82.878 E2.01935
G1 X122.711 Y82.734 E2.07507
G1 X123.366 Y82.551 E2.12944
G1 X123.999 Y82.285 E2.18433
G1 X124.321 Y82.111 E2.21359
G1 X125.045 Y81.689 E2.28059
G1 X125.193 Y81.61 E2.294
G1 X125.981 Y81.225 E2.36411
G1 X126.166 Y81.143 E2.38029
G1 X126.97 Y80.82 E2.44956
G1 X127.123 Y80.765 E2.46256
G1 X128.014 Y80.479 E2.53737
G1 X129.213 Y80.135 E2.63709
G1 X130.219 Y79.885 E2.71996
G1 X131.243 Y79.705 E2.80308
G1 X131.43 Y79.68 E2.81816
G1 X132.314 Y79.595 E2.88916
G1 X132.465 Y79.586 E2.90125
G1 X133.16 Y79.569 E2.95683
G1 X133.837 Y79.51 E3.01116
G1 X134.51 Y79.364 E3.06621
G1 X134.878 Y79.246 E3.09711
G1 X135.585 Y78.99 E3.15722
G1 X135.726 Y78.945 E3.16905
G1 X136.739 Y78.665 E3.25307
G1 X137.771 Y78.459 E3.3372
G1 X138.728 Y78.334 E3.41436
G1 X140.097 Y78.206 E3.52428
G1 X141.037 Y78.151 E3.59956
G1 X141.211 Y78.147 E3.61347
G1 X142.254 Y78.168 E3.69687
G1 X143.311 Y78.267 E3.78174
G1 X144.019 Y78.381 E3.83907
G1 X144.696 Y78.447 E3.89345
G1 X145.383 Y78.427 E3.9484
G1 X145.763 Y78.378 E3.97903
G1 X146.478 Y78.26 E4.03696
G1 X146.667 Y78.237 E4.05218
G1 X147.549 Y78.158 E4.12298
G1 X147.713 Y78.149 E4.13611
G1 X148.603 Y78.135 E4.20727
G1 X148.786 Y78.138 E4.2219
G1 X149.729 Y78.192 E4.29741
G1 X151.054 Y78.312 E4.40377
G1 X152.165 Y78.459 E4.49336
G1 X153.201 Y78.674 E4.57795
G1 X154.057 Y78.913 E4.649
G1 X154.246 Y78.973 E4.66485
G1 X154.891 Y79.206 E4.71968
G1 X155.543 Y79.395 E4.77395
G1 X156.223 Y79.502 E4.82898
G1 X156.616 Y79.525 E4.86045
G1 X157.501 Y79.549 E4.93123
G1 X158.56 Y79.656 E5.01632
G1 X159.599 Y79.838 E5.10065
G1 X160.594 Y80.084 E5.18259
G1 X161.851 Y80.44 E5.28703
G1 X162.764 Y80.736 E5.36376
G1 X162.924 Y80.794 E5.37737
G1 X163.738 Y81.124 E5.44759
G1 X164.71 Y81.597 E5.53401
G1 X165.423 Y82.011 E5.59992
G1 X166.029 Y82.318 E5.65423
G1 X166.679 Y82.549 E5.70938
G1 X167.057 Y82.643 E5.74052
G1 X167.968 Y82.841 E5.81505
G1 X168.974 Y83.137 E5.89888
G1 X169.808 Y83.445 E5.96996
G1 X169.977 Y83.515 E5.98458
G1 X170.779 Y83.878 E6.05496
G1 X172.042 Y84.503 E6.16761
G1 X172.871 Y84.953 E6.24302
G1 X173.03 Y85.046 E6.25775
G1 X173.884 Y85.598 E6.33904
G1 X174.62 Y86.148 E6.4125
G1 X174.767 Y86.267 E6.42762
G1 X175.283 Y86.715 E6.48225
G1 X175.823 Y87.128 E6.5366
G1 X176.419 Y87.473 E6.59165
G1 X176.782 Y87.638 E6.62353
G1 X177.548 Y87.958 E6.68989
G1 X178.494 Y88.434 E6.77456
G1 X179.419 Y88.988 E6.86075
G1 X180.255 Y89.572 E6.94228
G1 X181.323 Y90.377 E7.0492
G1 X182.063 Y90.979 E7.12546
G1 X182.202 Y91.101 E7.14025
G1 X182.844 Y91.704 E7.21066
G1 X182.965 Y91.826 E7.2244
G1 X183.555 Y92.469 E7.29416
G1 X183.674 Y92.609 E7.30885
G1 X184.09 Y93.135 E7.36246
G1 X184.545 Y93.64 E7.41681
G1 X185.066 Y94.09 E7.47184
G1 X185.371 Y94.304 E7.50163
G1 X186.039 Y94.741 E7.56544
G1 X186.19 Y94.849 E7.58029
G1 X186.88 Y95.377 E7.64974
G1 X187.043 Y95.511 E7.66661
G1 X187.808 Y96.197 E7.74876
G1 X188.464 Y96.87 E7.82389
G1 X189.359 Y97.851 E7.93005
G1 X190.071 Y98.695 E8.01833
G1 X190.688 Y99.546 E8.10236
G1 X191.253 Y100.46 E8.18827
G1 X191.576 Y101.073 E8.24366
G1 X191.931 Y101.653 E8.29802
G1 X192.361 Y102.19 E8.35302
G1 X192.617 Y102.455 E8.38248
G1 X193.311 Y103.127 E8.45971
G1 X193.924 Y103.808 E8.53296
G1 X194.043 Y103.951 E8.54783
G1 X194.667 Y104.764 E8.62976
G1 X195.189 Y105.548 E8.70506
G1 X195.897 Y106.69 E8.81248
G1 X196.359 Y107.496 E8.88675
G1 X196.442 Y107.654 E8.90102
G1 X196.834 Y108.472 E8.97353
G1 X196.894 Y108.611 E8.98564
G1 X197.215 Y109.428 E9.05581
G1 X197.275 Y109.598 E9.07023
G1 X197.48 Y110.259 E9.12555
G1 X197.723 Y110.894 E9.17991
G1 X198.046 Y111.501 E9.23488
G1 X198.242 Y111.795 E9.26313
G1 X198.832 Y112.635 E9.34519
G1 X199.37 Y113.529 E9.4286
G1 X199.782 Y114.334 E9.5009
G1 X199.852 Y114.484 E9.51413
G1 X200.201 Y115.304 E9.58538
G1 X200.677 Y116.524 E9.69007
G1 X200.997 Y117.441 E9.76771
G1 X201.045 Y117.596 E9.78069
G1 X201.277 Y118.461 E9.85228
G1 X201.318 Y118.635 E9.86657
G1 X201.488 Y119.519 E9.93854
G1 X201.59 Y120.364 E10.00658
G1 X201.712 Y121.033 E10.06095
G1 X201.918 Y121.688 E10.11584
G1 X202.067 Y122.039 E10.14633
G1 X202.456 Y122.876 E10.22011
G1 X202.829 Y123.868 E10.30484
G1 X203.13 Y124.884 E10.38955
G1 X203.338 Y125.811 E10.4655
G1 X203.598 Y127.207 E10.57903
G1 X203.73 Y128.085 E10.65001
G1 X203.751 Y128.26 E10.6641
G1 X203.819 Y129.133 E10.7341
G1 X203.825 Y129.305 E10.74786
G1 X203.825 Y130.342 E10.83076
G1 X203.775 Y131.051 E10.88758
G1 X203.771 Y131.73 E10.94187
G1 X203.853 Y132.415 E10.99702
G1 X203.94 Y132.804 E11.02889
G1 X204.128 Y133.523 E11.0883
G1 X204.323 Y134.554 E11.17219
G1 X204.345 Y134.706 E11.18446
G1 X204.443 Y135.591 E11.25565
G1 X204.456 Y135.762 E11.26936
G1 X204.492 Y136.769 E11.34991
G1 X204.495 Y138.041 E11.4516
G1 X204.461 Y139.026 E11.5304
G1 X204.448 Y139.211 E11.54522
G1 X204.357 Y140.058 E11.61333
G1 X204.328 Y140.263 E11.62988
G1 X204.174 Y141.113 E11.69894
G1 X204.135 Y141.29 E11.71343
G1 X203.96 Y141.965 E11.76917
G1 X203.831 Y142.632 E11.82348
G1 X203.786 Y143.319 E11.87852
G1 X203.799 Y143.688 E11.90804
G1 X203.852 Y144.5 E11.9731
G1 X203.858 Y144.695 E11.98869
G1 X203.846 Y145.719 E12.07056
G1 X203.774 Y146.614 E12.14234
G1 X203.751 Y146.811 E12.1582
G1 X203.627 Y147.627 E12.22418
G1 X203.374 Y149.002 E12.33595
G1 X203.17 Y149.919 E12.41105
G1 X203.124 Y150.095 E12.4256
G1 X202.875 Y150.926 E12.49495
G1 X202.806 Y151.126 E12.51186
G1 X202.439 Y152.072 E12.59298
G1 X202.132 Y152.729 E12.65096
G1 X201.884 Y153.362 E12.70531
G1 X201.715 Y154.029 E12.76032
G1 X201.661 Y154.385 E12.7891
G1 X201.542 Y155.348 E12.86667
G1 X201.373 Y156.222 E12.93784
G1 X201.1 Y157.256 E13.02334
G1 X201.048 Y157.424 E13.0374
G1 X200.735 Y158.319 E13.1132
G1 X200.297 Y159.46 E13.2109
G1 X199.823 Y160.558 E13.30651
G1 X199.404 Y161.369 E13.37949
G1 X198.872 Y162.246 E13.46149
G1 X198.758 Y162.418 E13.47799
G1 X198.362 Y162.969 E13.53224
G1 X198 Y163.545 E13.58662
G1 X197.712 Y164.171 E13.64171
G1 X197.59 Y164.522 E13.67142
G1 X197.303 Y165.423 E13.74701
G1 X196.979 Y166.247 E13.8178
G1 X196.905 Y166.416 E13.83255
G1 X196.445 Y167.36 E13.9165
G1 X195.995 Y168.149 E13.98911
G1 X195.27 Y169.322 E14.09935
G1 X194.654 Y170.237 E14.18754
G1 X194.099 Y170.949 E14.25971
G1 X193.997 Y171.071 E14.27242
G1 X193.412 Y171.718 E14.34215
G1 X193.288 Y171.845 E14.35634
G1 X192.782 Y172.329 E14.41232
G1 X192.322 Y172.828 E14.46658
G1 X191.923 Y173.388 E14.52155
G1 X191.745 Y173.697 E14.55006
G1 X191.338 Y174.46 E14.61919
G1 X191.247 Y174.616 E14.63363
G1 X190.68 Y175.503 E14.71779
G1 X190.042 Y176.356 E14.80295
G1 X189.535 Y176.951 E14.86544
G1 X188.624 Y177.958 E14.974
G1 X187.79 Y178.805 E15.06903
G1 X187.106 Y179.411 E15.14208
G1 X186.268 Y180.054 E15.22653
G1 X185.562 Y180.521 E15.2942
G1 X185.019 Y180.927 E15.3484
G1 X184.523 Y181.405 E15.40347
G1 X184.284 Y181.686 E15.43296
G1 X183.687 Y182.428 E15.5091
G1 X182.968 Y183.201 E15.59349
G1 X182.191 Y183.923 E15.67829
G1 X181.498 Y184.488 E15.74977
G1 X180.412 Y185.313 E15.8588
G1 X179.618 Y185.87 E15.93634
G1 X179.469 Y185.966 E15.95051
G1 X178.705 Y186.424 E16.02172
G1 X178.563 Y186.503 E16.03471
G1 X177.633 Y186.964 E16.11769
G1 X176.966 Y187.241 E16.17543
G1 X176.356 Y187.541 E16.22978
G1 X175.782 Y187.92 E16.28477
G1 X175.496 Y188.15 E16.31411
G1 X174.748 Y188.792 E16.39291
G1 X174.027 Y189.327 E16.46469
G1 X173.898 Y189.416 E16.47722
G1 X173.126 Y189.907 E16.55036
G1 X172.99 Y189.987 E16.56297
G1 X172.185 Y190.422 E16.63612
G1 X170.995 Y191.016 E16.74245
G1 X170.139 Y191.407 E16.81768
G1 X169.996 Y191.466 E16.83005
G1 X169.135 Y191.785 E16.90346
G1 X168.979 Y191.836 E16.91658
G1 X168.149 Y192.077 E16.98567
G1 X167.971 Y192.122 E17.00035
G1 X167.289 Y192.266 E17.05607
G1 X166.634 Y192.449 E17.11044
G1 X166.001 Y192.715 E17.16534
G1 X165.679 Y192.889 E17.1946
G1 X164.955 Y193.311 E17.26159
G1 X164.807 Y193.39 E17.275
G1 X164.019 Y193.775 E17.34512
G1 X163.838 Y193.855 E17.36094
G1 X163.041 Y194.175 E17.4296
G1 X162.863 Y194.239 E17.44472
G1 X161.986 Y194.521 E17.51837
G1 X160.787 Y194.865 E17.61809
G1 X159.781 Y195.115 E17.70096
G1 X158.757 Y195.295 E17.78408
G1 X158.57 Y195.32 E17.79916
G1 X157.686 Y195.405 E17.87016
G1 X157.535 Y195.414 E17.88225
G1 X156.84 Y195.431 E17.93783
G1 X156.163 Y195.49 E17.99215
G1 X155.49 Y195.636 E18.04721
G1 X155.122 Y195.754 E18.0781
G1 X154.426 Y196.006 E18.13728
G1 X154.266 Y196.057 E18.15071
G1 X153.393 Y196.303 E18.22322
G1 X153.261 Y196.335 E18.23407
G1 X152.229 Y196.541 E18.3182
G1 X151.273 Y196.666 E18.39528
G1 X149.903 Y196.794 E18.50528
G1 X148.963 Y196.849 E18.58056
G1 X148.789 Y196.853 E18.59448
G1 X147.746 Y196.832 E18.67787
G1 X146.689 Y196.733 E18.76275
G1 X145.981 Y196.619 E18.82008
G1 X145.304 Y196.553 E18.87446
G1 X144.617 Y196.573 E18.9294
G1 X144.237 Y196.622 E18.96003
G1 X143.522 Y196.74 E19.01796
G1 X143.333 Y196.763 E19.03319
G1 X142.451 Y196.842 E19.10398
G1 X142.287 Y196.851 E19.11711
G1 X141.397 Y196.865 E19.18827
G1 X141.214 Y196.862 E19.2029
G1 X140.271 Y196.808 E19.27841
G1 X138.953 Y196.689 E19.38421
G1 X137.835 Y196.541 E19.47437
G1 X136.799 Y196.326 E19.55896
G1 X135.943 Y196.087 E19.63001
G1 X135.754 Y196.027 E19.64586
G1 X135.109 Y195.794 E19.70068
G1 X134.457 Y195.605 E19.75495
G1 X133.777 Y195.498 E19.80998
G1 X133.384 Y195.475 E19.84146
G1 X132.499 Y195.451 E19.91223
G1 X131.44 Y195.344 E19.99733
G1 X130.401 Y195.162 E20.08165
G1 X129.406 Y194.916 E20.16359
G1 X128.149 Y194.56 E20.26804
G1 X127.232 Y194.263 E20.3451
G1 X127.07 Y194.204 E20.35888
G1 X126.262 Y193.876 E20.42859
G1 X126.09 Y193.798 E20.44369
G1 X125.304 Y193.41 E20.51377
G1 X125.165 Y193.335 E20.5264
G1 X124.577 Y192.989 E20.58094
G1 X123.971 Y192.682 E20.63525
G1 X123.321 Y192.451 E20.69039
G1 X122.943 Y192.357 E20.72153
G1 X122.032 Y192.159 E20.79606
G1 X121.026 Y191.863 E20.8799
G1 X120.192 Y191.555 E20.95097
G1 X120.023 Y191.485 E20.9656
G1 X119.221 Y191.122 E21.03597
G1 X117.958 Y190.497 E21.14863
G1 X117.129 Y190.047 E21.22404
G1 X116.97 Y189.954 E21.23877
G1 X116.116 Y189.402 E21.32006
G1 X115.379 Y188.851 E21.39362
G1 X115.233 Y188.733 E21.40863
G1 X114.717 Y188.285 E21.46326
G1 X114.177 Y187.872 E21.51761
G1 X113.581 Y187.527 E21.57266
G1 X113.218 Y187.362 E21.60454
G1 X112.452 Y187.042 E21.67091
G1 X111.506 Y186.566 E21.75557
G1 X110.719 Y186.1 E21.82869
G1 X110.579 Y186.01 E21.842
G1 X109.737 Y185.422 E21.9241
G1 X108.677 Y184.623 E22.03022
G1 X107.937 Y184.021 E22.10648
G1 X107.798 Y183.899 E22.12127
G1 X107.156 Y183.296 E22.19168
G1 X107.035 Y183.174 E22.20542
G1 X106.432 Y182.517 E22.27671
G1 X105.91 Y181.865 E22.34348
G1 X105.455 Y181.36 E22.39782
G1 X104.934 Y180.91 E22.45286
G1 X104.629 Y180.696 E22.48264
G1 X103.961 Y180.259 E22.54646
G1 X103.81 Y180.151 E22.5613
G1 X103.115 Y179.619 E22.63127
G1 X102.957 Y179.489 E22.64763
G1 X102.192 Y178.803 E22.72978
G1 X101.533 Y178.127 E22.80525
G1 X100.637 Y177.144 E22.91158
G1 X100.009 Y176.407 E22.98899
G1 X99.302 Y175.439 E23.08482
G1 X98.821 Y174.668 E23.15747
G1 X98.745 Y174.536 E23.16965
G1 X98.424 Y173.927 E23.22468
G1 X98.069 Y173.347 E23.27905
G1 X97.639 Y172.81 E23.33404
G1 X97.383 Y172.545 E23.3635
G1 X96.689 Y171.873 E23.44073
G1 X96.076 Y171.192 E23.51398
G1 X95.957 Y171.049 E23.52885
G1 X95.321 Y170.219 E23.61245
G1 X94.806 Y169.444 E23.68684
G1 X94.103 Y168.31 E23.7935
G1 X93.639 Y167.501 E23.86806
G1 X93.55 Y167.33 E23.88347
G1 X93.166 Y166.528 E23.95456
G1 X93.1 Y166.374 E23.96795
G1 X92.779 Y165.556 E24.0382
G1 X92.725 Y165.402 E24.05125
G1 X92.52 Y164.741 E24.10657
G1 X92.277 Y164.106 E24.16093
G1 X91.954 Y163.499 E24.2159
G1 X91.758 Y163.205 E24.24415
G1 X91.258 Y162.501 E24.31318
G1 X91.159 Y162.351 E24.32755
G1 X90.7 Y161.595 E24.39825
G1 X90.629 Y161.468 E24.40988
G1 X90.216 Y160.662 E24.48229
G1 X90.142 Y160.502 E24.49638
G1 X89.795 Y159.686 E24.56727
G1 X89.323 Y158.476 E24.6711
G1 X88.997 Y157.541 E24.75026
G1 X88.95 Y157.387 E24.76313
G1 X88.719 Y156.524 E24.83455
G1 X88.682 Y156.365 E24.84761
G1 X88.512 Y155.481 E24.91957
G1 X88.41 Y154.636 E24.98762
G1 X88.288 Y153.967 E25.04198
G1 X88.082 Y153.312 E25.09687
G1 X87.933 Y152.961 E25.12736
G1 X87.54 Y152.114 E25.202
G1 X87.216 Y151.264 E25.27473
G1 X87.166 Y151.116 E25.28722
G1 X86.901 Y150.235 E25.36076
G1 X86.662 Y149.189 E25.44654
G1 X86.428 Y147.948 E25.5475
G1 X86.268 Y146.901 E25.63218
G1 X86.249 Y146.74 E25.64514
G1 X86.182 Y145.868 E25.71505
G1 X86.175 Y145.679 E25.73017
G1 X86.176 Y144.655 E25.81204
G1 X86.225 Y143.949 E25.86861
G1 X86.229 Y143.27 E25.9229
G1 X86.147 Y142.585 E25.97805
G1 X86.06 Y142.196 E26.00992
G1 X85.872 Y141.477 E26.06933
G1 X85.677 Y140.446 E26.15321
G1 X85.654 Y140.285 E26.16622
G1 X85.557 Y139.409 E26.23668
G1 X85.543 Y139.22 E26.25183
G1 X85.508 Y138.219 E26.3319
G1 X85.505 Y136.959 E26.43263
G1 X85.539 Y135.974 E26.51142
G1 X85.552 Y135.785 E26.52657
G1 X85.643 Y134.942 E26.59435
G1 X85.672 Y134.737 E26.61091
G1 X85.826 Y133.887 E26.67997
G1 X85.865 Y133.71 E26.69446
G1 X86.04 Y133.035 E26.7502
G1 X86.169 Y132.368 E26.80451
G1 X86.214 Y131.681 E26.85955
G1 X86.201 Y131.312 E26.88907
G1 X86.147 Y130.482 E26.95557
G1 X86.142 Y130.305 E26.96972
G1 X86.154 Y129.281 E27.05159
G1 X86.226 Y128.386 E27.12337
G1 X86.249 Y128.189 E27.13923
G1 X86.373 Y127.373 E27.20521
G1 X86.626 Y125.998 E27.31698
G1 X86.872 Y124.917 E27.40561
G1 X87.125 Y124.074 E27.47598
G1 X87.194 Y123.874 E27.49289
G1 X87.561 Y122.928 E27.57401
G1 X87.868 Y122.271 E27.63198
G1 X88.116 Y121.638 E27.68633
G1 X88.285 Y120.971 E27.74134
G1 X88.339 Y120.615 E27.77013
G1 X88.458 Y119.652 E27.8477
G1 X88.627 Y118.778 E27.91887
G1 X88.9 Y117.744 E28.00436
G1 X88.952 Y117.576 E28.01842
G1 X89.267 Y116.675 E28.09473
G1 X89.704 Y115.54 E28.19196
G1 X90.099 Y114.612 E28.27259
G1 X90.192 Y114.414 E28.29008
G1 X90.597 Y113.63 E28.36062
G1 X91.128 Y112.754 E28.44251
G1 X91.243 Y112.581 E28.45912
G1 X91.638 Y112.031 E28.51326
G1 X92 Y111.455 E28.56764
