;FLAVOR:Marlin
;TIME:15557
;Filament used: 8.26576m
;Layer height: 0.2
;MINX:21.5
;MINY:57
;MINZ:0.3
;MAXX:178.5
;MAXY:143
;MAXZ:4.9
;Generated with Cura_SteamEngine 4.2.1
M140 S70
M105
M190 S70
M104 S210
M105
M109 S210
M82 ;absolute extrusion mode
G21 ;metric values
G90 ;absolute positioning
M82 ;set extruder to absolute mode
M107 ;start with the fan off
G28 X0 Y0 ;move X/Y to min endstops
G28 Z0 ;move Z to min endstops
G1 Z15.0 F225 ;move the platform down 15mm
G92 E0 ;zero the extruded length
G1 F140 E30 ;extrude 3mm of feed stock
G1 X20 Y0 F140 E30
G92 E0 ;zero the extruded length again
G1 F225
M117 ;Printing...
M141 S28
G92 E0
G92 E0
G1 F1500 E-6.5
;LAYER_COUNT:24
;LAYER:0
M107 P1
G0 F600 X28.087 Y58.715 Z0.3
;TYPE:SKIRT
G1 F1500 E0
G1 F1080 X29.659 Y57.956 E0.08709
G1 X30.15 Y57.77 E0.11329
G1 X31.822 Y57.299 E0.19995
G1 X32.334 Y57.202 E0.22595
G1 X34.069 Y57.027 E0.31295
G1 X34.362 Y57.012 E0.32758
G1 X38.824 Y57 E0.55019
G1 X165.499 Y57 E6.87003
G1 X165.759 Y57.011 E6.88302
G1 X167.366 Y57.151 E6.96349
G1 X167.844 Y57.232 E6.98768
G1 X169.531 Y57.66 E7.07451
G1 X170.025 Y57.833 E7.10063
G1 X171.612 Y58.548 E7.18747
G1 X172.069 Y58.803 E7.21358
G1 X173.511 Y59.785 E7.30062
G1 X173.916 Y60.117 E7.32674
G1 X175.16 Y61.33 E7.41343
G1 X175.501 Y61.725 E7.43946
G1 X176.518 Y63.138 E7.52632
G1 X176.785 Y63.587 E7.55238
G1 X177.544 Y65.159 E7.63947
G1 X177.73 Y65.65 E7.66566
G1 X178.201 Y67.322 E7.75233
G1 X178.298 Y67.834 E7.77832
G1 X178.473 Y69.567 E7.86522
G1 X178.488 Y69.864 E7.88006
G1 X178.5 Y79.546 E8.3631
G1 X178.5 Y129.999 E10.88021
G1 X178.489 Y130.259 E10.89319
G1 X178.349 Y131.866 E10.97367
G1 X178.268 Y132.343 E10.99781
G1 X177.841 Y134.029 E11.08458
G1 X177.668 Y134.525 E11.11078
G1 X176.952 Y136.113 E11.19769
G1 X176.697 Y136.569 E11.22376
G1 X175.715 Y138.011 E11.3108
G1 X175.383 Y138.416 E11.33692
G1 X174.17 Y139.66 E11.42361
G1 X173.775 Y140.001 E11.44964
G1 X172.362 Y141.018 E11.5365
G1 X171.913 Y141.285 E11.56256
G1 X170.34 Y142.044 E11.64969
G1 X169.85 Y142.229 E11.67582
G1 X168.179 Y142.7 E11.76244
G1 X167.666 Y142.798 E11.7885
G1 X165.931 Y142.973 E11.8755
G1 X165.64 Y142.988 E11.89003
G1 X162.033 Y143 E12.06999
G1 X34.501 Y143 E18.43258
G1 X34.241 Y142.989 E18.44557
G1 X32.634 Y142.849 E18.52604
G1 X32.156 Y142.768 E18.55023
G1 X30.469 Y142.34 E18.63706
G1 X29.975 Y142.167 E18.66318
G1 X28.388 Y141.452 E18.75002
G1 X27.931 Y141.197 E18.77613
G1 X26.489 Y140.215 E18.86317
G1 X26.084 Y139.883 E18.88929
G1 X24.84 Y138.67 E18.97598
G1 X24.499 Y138.274 E19.00205
G1 X23.482 Y136.86 E19.08894
G1 X23.216 Y136.413 E19.1149
G1 X22.457 Y134.842 E19.20194
G1 X22.27 Y134.35 E19.2282
G1 X21.799 Y132.678 E19.31486
G1 X21.702 Y132.166 E19.34086
G1 X21.527 Y130.433 E19.42776
G1 X21.512 Y130.135 E19.44265
G1 X21.5 Y118.719 E20.01219
G1 X21.5 Y70.001 E22.44274
G1 X21.511 Y69.741 E22.45573
G1 X21.651 Y68.134 E22.53621
G1 X21.732 Y67.657 E22.56034
G1 X22.159 Y65.971 E22.64711
G1 X22.332 Y65.475 E22.67332
G1 X23.048 Y63.887 E22.76023
G1 X23.303 Y63.431 E22.78629
G1 X24.285 Y61.989 E22.87333
G1 X24.617 Y61.584 E22.89946
G1 X25.83 Y60.34 E22.98614
G1 X26.225 Y59.999 E23.01218
G1 X27.638 Y58.982 E23.09903
G1 X28.087 Y58.715 E23.1251
G0 F600 X28.261 Y59.076
G1 F1080 X29.833 Y58.317 E23.21219
G1 X30.258 Y58.155 E23.23488
G1 X31.93 Y57.684 E23.32154
G1 X32.374 Y57.6 E23.34408
G1 X34.109 Y57.425 E23.43108
G1 X34.363 Y57.412 E23.44377
G1 X38.825 Y57.4 E23.66638
G1 X165.499 Y57.4 E29.98617
G1 X165.725 Y57.41 E29.99746
G1 X167.332 Y57.55 E30.07794
G1 X167.745 Y57.62 E30.09884
G1 X169.432 Y58.048 E30.18567
G1 X169.861 Y58.197 E30.20832
G1 X171.448 Y58.912 E30.29517
G1 X171.843 Y59.134 E30.31777
G1 X173.285 Y60.116 E30.40481
G1 X173.637 Y60.403 E30.42747
G1 X174.881 Y61.616 E30.51415
G1 X175.176 Y61.959 E30.53672
G1 X176.193 Y63.372 E30.62358
G1 X176.424 Y63.761 E30.64615
G1 X177.183 Y65.333 E30.73324
G1 X177.345 Y65.758 E30.75593
G1 X177.816 Y67.43 E30.8426
G1 X177.9 Y67.874 E30.86514
G1 X178.075 Y69.607 E30.95204
G1 X178.088 Y69.865 E30.96493
G1 X178.1 Y79.547 E31.44796
G1 X178.1 Y129.999 E33.96503
G1 X178.09 Y130.225 E33.97631
G1 X177.95 Y131.832 E34.05679
G1 X177.88 Y132.244 E34.07764
G1 X177.453 Y133.93 E34.16441
G1 X177.303 Y134.361 E34.18718
G1 X176.587 Y135.949 E34.27408
G1 X176.366 Y136.343 E34.29662
G1 X175.384 Y137.785 E34.38366
G1 X175.097 Y138.137 E34.40632
G1 X173.884 Y139.381 E34.493
G1 X173.541 Y139.676 E34.51557
G1 X172.128 Y140.693 E34.60243
G1 X171.739 Y140.925 E34.62503
G1 X170.166 Y141.684 E34.71216
G1 X169.741 Y141.844 E34.73482
G1 X168.07 Y142.315 E34.82143
G1 X167.626 Y142.4 E34.84399
G1 X165.891 Y142.575 E34.93098
G1 X165.639 Y142.588 E34.94357
G1 X162.032 Y142.6 E35.12353
G1 X34.501 Y142.6 E41.48608
G1 X34.275 Y142.59 E41.49736
G1 X32.668 Y142.45 E41.57784
G1 X32.255 Y142.38 E41.59874
G1 X30.568 Y141.952 E41.68557
G1 X30.139 Y141.803 E41.70823
G1 X28.552 Y141.088 E41.79507
G1 X28.157 Y140.866 E41.81767
G1 X26.715 Y139.884 E41.90471
G1 X26.363 Y139.597 E41.92737
G1 X25.119 Y138.384 E42.01405
G1 X24.823 Y138.04 E42.0367
G1 X23.806 Y136.626 E42.12359
G1 X23.576 Y136.239 E42.14605
G1 X22.817 Y134.668 E42.2331
G1 X22.655 Y134.242 E42.25584
G1 X22.184 Y132.57 E42.3425
G1 X22.1 Y132.126 E42.36504
G1 X21.925 Y130.393 E42.45194
G1 X21.912 Y130.135 E42.46483
G1 X21.9 Y118.719 E43.03438
G1 X21.9 Y70.001 E45.46493
G1 X21.91 Y69.775 E45.47621
G1 X22.05 Y68.168 E45.55669
G1 X22.12 Y67.756 E45.57754
G1 X22.547 Y66.07 E45.66431
G1 X22.697 Y65.639 E45.68708
G1 X23.413 Y64.051 E45.77399
G1 X23.634 Y63.657 E45.79652
G1 X24.616 Y62.215 E45.88356
G1 X24.903 Y61.863 E45.90622
G1 X26.116 Y60.619 E45.99291
G1 X26.459 Y60.324 E46.01548
G1 X27.872 Y59.307 E46.10233
G1 X28.261 Y59.076 E46.1249
G0 F600 X28.434 Y59.436
G1 F1080 X30.006 Y58.677 E46.21199
G1 X30.366 Y58.54 E46.23121
G1 X32.038 Y58.069 E46.31787
G1 X32.414 Y57.998 E46.33696
G1 X34.149 Y57.823 E46.42396
G1 X34.364 Y57.812 E46.4347
G1 X38.826 Y57.8 E46.65731
G1 X165.499 Y57.8 E52.97706
G1 X165.69 Y57.808 E52.98659
G1 X167.297 Y57.948 E53.06707
G1 X167.647 Y58.008 E53.08479
G1 X169.334 Y58.436 E53.17162
G1 X169.697 Y58.562 E53.19079
G1 X171.284 Y59.277 E53.27763
G1 X171.618 Y59.465 E53.29675
G1 X173.06 Y60.447 E53.38379
G1 X173.358 Y60.69 E53.40297
G1 X174.602 Y61.903 E53.48966
G1 X174.852 Y62.193 E53.50876
G1 X175.869 Y63.606 E53.59561
G1 X176.064 Y63.934 E53.61465
G1 X176.823 Y65.506 E53.70174
G1 X176.96 Y65.866 E53.72096
G1 X177.431 Y67.538 E53.80762
G1 X177.502 Y67.914 E53.82671
G1 X177.677 Y69.647 E53.91361
G1 X177.688 Y69.865 E53.9245
G1 X177.7 Y79.547 E54.40754
G1 X177.7 Y129.999 E56.9246
G1 X177.692 Y130.19 E56.93414
G1 X177.552 Y131.797 E57.01461
G1 X177.493 Y132.146 E57.03227
G1 X177.066 Y133.832 E57.11904
G1 X176.939 Y134.196 E57.13828
G1 X176.223 Y135.784 E57.22518
G1 X176.035 Y136.118 E57.24431
G1 X175.053 Y137.56 E57.33134
G1 X174.81 Y137.858 E57.35053
G1 X173.597 Y139.102 E57.43721
G1 X173.307 Y139.352 E57.45631
G1 X171.894 Y140.369 E57.54317
G1 X171.565 Y140.564 E57.56225
G1 X169.992 Y141.323 E57.64939
G1 X169.633 Y141.459 E57.66854
G1 X167.962 Y141.93 E57.75515
G1 X167.586 Y142.002 E57.77425
G1 X165.851 Y142.177 E57.86125
G1 X165.637 Y142.188 E57.87194
G1 X162.03 Y142.2 E58.0519
G1 X34.501 Y142.2 E64.41435
G1 X34.31 Y142.192 E64.42388
G1 X32.703 Y142.052 E64.50436
G1 X32.353 Y141.992 E64.52208
G1 X30.666 Y141.564 E64.60891
G1 X30.303 Y141.438 E64.62808
G1 X28.716 Y140.723 E64.71492
G1 X28.382 Y140.535 E64.73404
G1 X26.94 Y139.553 E64.82108
G1 X26.642 Y139.31 E64.84026
G1 X25.398 Y138.097 E64.92695
G1 X25.148 Y137.807 E64.94605
G1 X24.131 Y136.393 E65.03294
G1 X23.936 Y136.065 E65.05198
G1 X23.177 Y134.494 E65.13903
G1 X23.04 Y134.134 E65.15824
G1 X22.569 Y132.462 E65.24491
G1 X22.498 Y132.086 E65.264
G1 X22.323 Y130.353 E65.3509
G1 X22.312 Y130.134 E65.36184
G1 X22.3 Y118.718 E65.93138
G1 X22.3 Y70.001 E68.36189
G1 X22.308 Y69.81 E68.37142
G1 X22.448 Y68.203 E68.4519
G1 X22.507 Y67.854 E68.46956
G1 X22.934 Y66.168 E68.55633
G1 X23.061 Y65.804 E68.57556
G1 X23.777 Y64.216 E68.66247
G1 X23.965 Y63.882 E68.68159
G1 X24.947 Y62.44 E68.76863
G1 X25.19 Y62.142 E68.78781
G1 X26.403 Y60.898 E68.8745
G1 X26.693 Y60.648 E68.8936
G1 X28.106 Y59.631 E68.98046
G1 X28.434 Y59.436 E68.99949
G0 F600 X28.608 Y59.796
G1 F1080 X30.18 Y59.037 E69.08658
G1 X30.475 Y58.925 E69.10233
G1 X32.147 Y58.454 E69.18899
G1 X32.454 Y58.396 E69.20458
G1 X34.189 Y58.221 E69.29158
G1 X34.365 Y58.212 E69.30037
G1 X38.827 Y58.2 E69.52298
G1 X165.499 Y58.2 E75.84267
G1 X165.655 Y58.207 E75.85046
G1 X167.262 Y58.347 E75.93094
G1 X167.549 Y58.395 E75.94546
G1 X169.236 Y58.823 E76.03229
G1 X169.532 Y58.927 E76.04794
G1 X171.119 Y59.642 E76.13478
G1 X171.393 Y59.795 E76.15044
G1 X172.835 Y60.777 E76.23748
G1 X173.079 Y60.976 E76.25318
G1 X174.323 Y62.189 E76.33987
G1 X174.527 Y62.426 E76.35547
G1 X175.544 Y63.839 E76.44232
G1 X175.704 Y64.108 E76.45794
G1 X176.463 Y65.68 E76.54503
G1 X176.575 Y65.975 E76.56077
G1 X177.046 Y67.647 E76.64744
G1 X177.104 Y67.954 E76.66302
G1 X177.279 Y69.687 E76.74992
G1 X177.288 Y69.866 E76.75886
G1 X177.3 Y79.548 E77.2419
G1 X177.3 Y129.999 E79.75891
G1 X177.293 Y130.155 E79.7667
G1 X177.153 Y131.762 E79.84718
G1 X177.105 Y132.048 E79.86165
G1 X176.678 Y133.734 E79.94842
G1 X176.574 Y134.032 E79.96417
G1 X175.858 Y135.62 E80.05107
G1 X175.705 Y135.893 E80.06668
G1 X174.723 Y137.335 E80.15372
G1 X174.524 Y137.579 E80.16943
G1 X173.311 Y138.823 E80.25612
G1 X173.074 Y139.027 E80.27172
G1 X171.661 Y140.044 E80.35857
G1 X171.391 Y140.204 E80.37423
G1 X169.818 Y140.963 E80.46137
G1 X169.524 Y141.074 E80.47704
G1 X167.853 Y141.545 E80.56366
G1 X167.546 Y141.604 E80.57926
G1 X165.811 Y141.779 E80.66626
G1 X165.636 Y141.788 E80.675
G1 X162.029 Y141.8 E80.85495
G1 X34.501 Y141.8 E87.21735
G1 X34.345 Y141.793 E87.22514
G1 X32.738 Y141.653 E87.30562
G1 X32.451 Y141.605 E87.32014
G1 X30.764 Y141.177 E87.40697
G1 X30.468 Y141.073 E87.42262
G1 X28.881 Y140.358 E87.50946
G1 X28.607 Y140.205 E87.52512
G1 X27.165 Y139.223 E87.61216
G1 X26.921 Y139.024 E87.62786
G1 X25.677 Y137.811 E87.71455
G1 X25.473 Y137.573 E87.73019
G1 X24.456 Y136.159 E87.81708
G1 X24.296 Y135.891 E87.83266
G1 X23.537 Y134.32 E87.9197
G1 X23.425 Y134.025 E87.93544
G1 X22.954 Y132.353 E88.02211
G1 X22.896 Y132.046 E88.03769
G1 X22.721 Y130.313 E88.12459
G1 X22.712 Y130.134 E88.13353
G1 X22.7 Y118.718 E88.70308
G1 X22.7 Y70.001 E91.13358
G1 X22.707 Y69.845 E91.14137
G1 X22.847 Y68.238 E91.22185
G1 X22.895 Y67.952 E91.23632
G1 X23.322 Y66.266 E91.32309
G1 X23.426 Y65.968 E91.33884
G1 X24.142 Y64.38 E91.42574
G1 X24.295 Y64.107 E91.44136
G1 X25.277 Y62.665 E91.52839
G1 X25.476 Y62.421 E91.5441
G1 X26.689 Y61.177 E91.63079
G1 X26.926 Y60.973 E91.64639
G1 X28.339 Y59.956 E91.73324
G1 X28.608 Y59.796 E91.74886
G0 F600 X28.782 Y60.156
G1 F1080 X30.354 Y59.397 E91.83595
G1 X30.583 Y59.31 E91.84817
G1 X32.255 Y58.839 E91.93483
G1 X32.495 Y58.794 E91.94702
G1 X34.23 Y58.619 E92.03401
G1 X34.366 Y58.612 E92.04081
G1 X38.828 Y58.6 E92.26342
G1 X165.499 Y58.6 E98.58306
G1 X165.621 Y58.605 E98.58915
G1 X167.228 Y58.745 E98.66963
G1 X167.45 Y58.783 E98.68087
G1 X169.137 Y59.211 E98.7677
G1 X169.368 Y59.292 E98.77991
G1 X170.955 Y60.007 E98.86675
G1 X171.168 Y60.126 E98.87892
G1 X172.61 Y61.108 E98.96596
G1 X172.799 Y61.263 E98.97816
G1 X174.043 Y62.476 E99.06484
G1 X174.202 Y62.66 E99.07697
G1 X175.219 Y64.073 E99.16383
G1 X175.344 Y64.282 E99.17598
G1 X176.103 Y65.854 E99.26307
G1 X176.19 Y66.083 E99.27529
G1 X176.661 Y67.755 E99.36195
G1 X176.706 Y67.994 E99.37409
G1 X176.881 Y69.727 E99.46099
G1 X176.888 Y69.866 E99.46793
G1 X176.9 Y79.548 E99.95097
G1 X176.9 Y129.999 E102.46798
G1 X176.895 Y130.121 E102.47407
G1 X176.755 Y131.728 E102.55455
G1 X176.717 Y131.95 E102.56578
G1 X176.29 Y133.636 E102.65256
G1 X176.209 Y133.867 E102.66477
G1 X175.493 Y135.455 E102.75167
G1 X175.374 Y135.668 E102.76385
G1 X174.392 Y137.11 E102.85089
G1 X174.237 Y137.299 E102.86308
G1 X173.024 Y138.543 E102.94976
G1 X172.84 Y138.702 E102.9619
G1 X171.427 Y139.719 E103.04875
G1 X171.217 Y139.844 E103.06095
G1 X169.644 Y140.603 E103.14808
G1 X169.416 Y140.689 E103.16024
G1 X167.745 Y141.16 E103.24685
G1 X167.505 Y141.206 E103.25904
G1 X165.77 Y141.381 E103.34604
G1 X165.635 Y141.388 E103.35279
G1 X162.028 Y141.4 E103.53274
G1 X34.501 Y141.4 E109.89509
G1 X34.379 Y141.395 E109.90118
G1 X32.772 Y141.255 E109.98166
G1 X32.55 Y141.217 E109.9929
G1 X30.863 Y140.789 E110.07973
G1 X30.632 Y140.708 E110.09194
G1 X29.045 Y139.993 E110.17878
G1 X28.832 Y139.874 E110.19095
G1 X27.39 Y138.892 E110.27799
G1 X27.201 Y138.737 E110.29019
G1 X25.957 Y137.524 E110.37687
G1 X25.797 Y137.339 E110.38907
G1 X24.78 Y135.925 E110.47597
G1 X24.656 Y135.717 E110.48805
G1 X23.897 Y134.146 E110.5751
G1 X23.81 Y133.917 E110.58732
G1 X23.339 Y132.245 E110.67398
G1 X23.294 Y132.006 E110.68611
G1 X23.119 Y130.273 E110.77301
G1 X23.112 Y130.133 E110.78001
G1 X23.1 Y118.717 E111.34955
G1 X23.1 Y70.001 E113.78001
G1 X23.105 Y69.879 E113.7861
G1 X23.245 Y68.272 E113.86657
G1 X23.283 Y68.05 E113.87781
G1 X23.71 Y66.364 E113.96458
G1 X23.791 Y66.133 E113.97679
G1 X24.507 Y64.545 E114.0637
G1 X24.626 Y64.332 E114.07587
G1 X25.608 Y62.89 E114.16291
G1 X25.763 Y62.701 E114.17511
G1 X26.976 Y61.457 E114.26179
G1 X27.16 Y61.298 E114.27392
G1 X28.573 Y60.281 E114.36078
G1 X28.782 Y60.156 E114.37293
G0 F600 X28.956 Y60.516
G1 F1080 X30.528 Y59.757 E114.46002
G1 X30.692 Y59.695 E114.46877
G1 X32.364 Y59.224 E114.55543
G1 X32.535 Y59.192 E114.56411
G1 X34.27 Y59.017 E114.65111
G1 X34.367 Y59.012 E114.65595
G1 X38.829 Y59 E114.87856
G1 X165.499 Y59 E121.19816
G1 X165.586 Y59.004 E121.2025
G1 X167.193 Y59.144 E121.28298
G1 X167.352 Y59.171 E121.29102
G1 X169.039 Y59.599 E121.37786
G1 X169.204 Y59.656 E121.38656
G1 X170.791 Y60.371 E121.47341
G1 X170.943 Y60.456 E121.48209
G1 X172.385 Y61.438 E121.56913
G1 X172.52 Y61.549 E121.57785
G1 X173.764 Y62.762 E121.66454
G1 X173.878 Y62.894 E121.67324
G1 X174.895 Y64.307 E121.76009
G1 X174.984 Y64.456 E121.76875
G1 X175.743 Y66.028 E121.85584
G1 X175.805 Y66.192 E121.86459
G1 X176.276 Y67.864 E121.95125
G1 X176.308 Y68.035 E121.95993
G1 X176.483 Y69.768 E122.04683
G1 X176.488 Y69.867 E122.05178
G1 X176.5 Y79.549 E122.53481
G1 X176.5 Y129.999 E125.05178
G1 X176.496 Y130.086 E125.05612
G1 X176.356 Y131.693 E125.1366
G1 X176.329 Y131.852 E125.14464
G1 X175.902 Y133.538 E125.23141
G1 X175.845 Y133.703 E125.24012
G1 X175.129 Y135.291 E125.32703
G1 X175.044 Y135.443 E125.33572
G1 X174.062 Y136.885 E125.42276
G1 X173.951 Y137.02 E125.43148
G1 X172.738 Y138.264 E125.51816
G1 X172.606 Y138.378 E125.52686
G1 X171.193 Y139.395 E125.61372
G1 X171.044 Y139.484 E125.62238
G1 X169.471 Y140.243 E125.70951
G1 X169.307 Y140.304 E125.71824
G1 X167.636 Y140.775 E125.80486
G1 X167.465 Y140.808 E125.81355
G1 X165.73 Y140.983 E125.90054
G1 X165.633 Y140.988 E125.90539
G1 X162.026 Y141 E126.08535
G1 X34.501 Y141 E132.44759
G1 X34.414 Y140.996 E132.45194
G1 X32.807 Y140.856 E132.53242
G1 X32.648 Y140.829 E132.54046
G1 X30.961 Y140.401 E132.62729
G1 X30.796 Y140.344 E132.636
G1 X29.209 Y139.629 E132.72284
G1 X29.057 Y139.544 E132.73153
G1 X27.615 Y138.562 E132.81857
G1 X27.48 Y138.451 E132.82729
G1 X26.236 Y137.238 E132.91397
G1 X26.122 Y137.106 E132.92268
G1 X25.105 Y135.692 E133.00957
G1 X25.017 Y135.543 E133.01821
G1 X24.258 Y133.972 E133.10525
G1 X24.195 Y133.808 E133.11402
G1 X23.724 Y132.136 E133.20068
G1 X23.692 Y131.965 E133.20936
G1 X23.517 Y130.232 E133.29626
G1 X23.512 Y130.133 E133.3012
G1 X23.5 Y118.717 E133.87075
G1 X23.5 Y70.001 E136.3012
G1 X23.504 Y69.914 E136.30555
G1 X23.644 Y68.307 E136.38602
G1 X23.671 Y68.148 E136.39407
G1 X24.098 Y66.462 E136.48084
G1 X24.155 Y66.297 E136.48955
G1 X24.871 Y64.709 E136.57646
G1 X24.956 Y64.557 E136.58514
G1 X25.938 Y63.115 E136.67218
G1 X26.049 Y62.98 E136.6809
G1 X27.262 Y61.736 E136.76759
G1 X27.394 Y61.622 E136.77629
G1 X28.807 Y60.605 E136.86314
G1 X28.956 Y60.516 E136.8718
G0 F600 X29.13 Y60.877
G1 F1080 X30.702 Y60.118 E136.95889
G1 X30.8 Y60.08 E136.96414
G1 X32.472 Y59.609 E137.0508
