;FLAVOR:Marlin
;TIME:10547
;Filament used: 6.1081m
;Layer height: 0.2
;MINX:53.351
;MINY:72.875
;MINZ:0.36
;MAXX:133.157
;MAXY:117.678
;MAXZ:22.11
;Generated with Cura_SteamEngine 4.2.1
M140 S70
M105
M190 S70
M104 S210
M105
M109 S210
M82 ;absolute extrusion mode
G21 ;metric values
G90 ;absolute positioning
M82 ;set extruder to absolute mode
M107 ;start with the fan off
G28 X0 Y0 ;move X/Y to min endstops
G28 Z0 ;move Z to min endstops
G1 Z15.0 F225 ;move the platform down 15mm
G92 E0 ;zero the extruded length
G1 F140 E30 ;extrude 3mm of feed stock
G1 X20 Y0 F140 E30
G92 E0 ;zero the extruded length again
G1 F225
M117 ;Printing...
M141 S28
G92 E0
G92 E0
G1 F1500 E-6.5
;LAYER_COUNT:104
;LAYER:-6
M107 P1
G0 F7200 X57.205 Y74.808 Z0.36
;TYPE:SUPPORT-INTERFACE
G1 F1500 E0
G1 F675 X57.591 Y74.534 E0.05668
G1 X57.746 Y74.434 E0.07877
G1 X58.309 Y74.105 E0.15684
G1 X58.455 Y74.028 E0.17661
G1 X58.89 Y73.822 E0.23424
G1 X59.105 Y73.732 E0.26215
G1 X59.66 Y73.526 E0.33303
G1 X59.856 Y73.463 E0.35768
G1 X60.328 Y73.333 E0.4163
G1 X60.492 Y73.296 E0.43643
G1 X61.143 Y73.178 E0.51565
G1 X61.327 Y73.152 E0.5379
G1 X61.985 Y73.095 E0.61698
G1 X62.382 Y73.078 E0.66456
G1 X63.446 Y73.076 E0.79196
G1 X124.242 Y73.076 E8.07146
G1 X124.33 Y73.078 E8.082
G1 X124.698 Y73.094 E8.1261
G1 X125.287 Y73.141 E8.19685
G1 X125.474 Y73.163 E8.2194
G1 X126.091 Y73.268 E8.29434
G1 X126.324 Y73.318 E8.32287
G1 X126.747 Y73.429 E8.37523
G1 X126.933 Y73.486 E8.39853
G1 X127.527 Y73.697 E8.474
G1 X127.711 Y73.772 E8.4978
G1 X128.163 Y73.979 E8.55732
G1 X128.323 Y74.061 E8.57885
G1 X128.904 Y74.393 E8.65897
G1 X129.058 Y74.49 E8.68077
G1 X129.434 Y74.751 E8.73557
G1 X129.592 Y74.872 E8.7594
G1 X130.072 Y75.271 E8.83414
G1 X130.225 Y75.409 E8.85881
G1 X130.566 Y75.746 E8.91621
G1 X130.68 Y75.869 E8.93629
G1 X131.114 Y76.38 E9.01657
G1 X131.234 Y76.536 E9.04013
G1 X131.486 Y76.891 E9.09226
G1 X131.595 Y77.058 E9.11614
G1 X131.923 Y77.619 E9.19395
G1 X132.009 Y77.779 E9.2157
G1 X132.212 Y78.21 E9.27274
G1 X132.295 Y78.408 E9.29845
G1 X132.505 Y78.977 E9.37107
G1 X132.575 Y79.195 E9.39849
G1 X132.691 Y79.618 E9.45101
G1 X132.74 Y79.833 E9.47741
G1 X132.854 Y80.459 E9.5536
G1 X132.883 Y80.665 E9.57851
G1 X132.937 Y81.294 E9.6541
G1 X132.955 Y81.703 E9.70312
G1 X132.957 Y93.2 E11.07973
G1 X132.951 Y93.39 E11.10249
G1 X132.929 Y93.735 E11.14388
G1 X132.892 Y94.03 E11.17948
G1 X132.834 Y94.328 E11.21583
G1 X132.764 Y94.599 E11.24935
G1 X132.678 Y94.863 E11.28259
G1 X132.547 Y95.194 E11.32521
G1 X132.338 Y95.831 E11.40549
G1 X132.209 Y96.502 E11.4873
G1 X132.166 Y97.183 E11.569
G1 X132.21 Y97.866 E11.65095
G1 X132.358 Y98.605 E11.7412
G1 X132.528 Y99.242 E11.82014
G1 X132.65 Y99.918 E11.90239
G1 X132.675 Y100.093 E11.92355
G1 X132.731 Y100.729 E12
G1 X132.75 Y101.155 E12.05106
G1 X132.752 Y112.652 E13.42767
G1 X132.746 Y112.842 E13.45043
G1 X132.724 Y113.187 E13.49182
G1 X132.687 Y113.482 E13.52742
G1 X132.629 Y113.78 E13.56377
G1 X132.559 Y114.052 E13.5974
G1 X132.472 Y114.319 E13.63103
G1 X132.366 Y114.585 E13.66531
G1 X132.238 Y114.856 E13.7012
G1 X132.093 Y115.117 E13.73695
G1 X131.95 Y115.34 E13.76867
G1 X131.763 Y115.594 E13.80644
G1 X131.443 Y115.969 E13.86546
G1 X131.351 Y116.068 E13.88164
G1 X131.243 Y116.169 E13.89935
G1 X130.95 Y116.426 E13.94602
G1 X130.733 Y116.595 E13.97895
G1 X130.502 Y116.751 E14.01232
G1 X130.234 Y116.909 E14.04958
G1 X129.977 Y117.039 E14.08406
G1 X129.708 Y117.154 E14.11909
G1 X129.451 Y117.247 E14.15181
G1 X129.159 Y117.331 E14.1882
G1 X128.898 Y117.387 E14.22016
G1 X128.578 Y117.435 E14.2589
G1 X128.11 Y117.471 E14.3151
G1 X127.918 Y117.478 E14.33811
G1 X117.719 Y117.474 E15.5593
G1 X117.342 Y117.45 E15.60453
G1 X117.044 Y117.413 E15.64049
G1 X116.76 Y117.358 E15.67513
G1 X116.469 Y117.282 E15.71114
G1 X116.209 Y117.197 E15.74389
G1 X115.932 Y117.087 E15.77958
G1 X115.673 Y116.964 E15.81391
G1 X115.415 Y116.821 E15.84923
G1 X115.196 Y116.682 E15.88029
G1 X114.93 Y116.484 E15.91999
G1 X114.576 Y116.18 E15.97586
G1 X114.448 Y116.063 E15.99663
G1 X114.361 Y115.969 E16.01196
G1 X114.102 Y115.674 E16.05897
G1 X113.935 Y115.459 E16.09156
G1 X113.776 Y115.223 E16.12564
G1 X113.621 Y114.96 E16.16219
G1 X113.491 Y114.703 E16.19667
G1 X113.375 Y114.433 E16.23186
G1 X113.283 Y114.177 E16.26443
G1 X113.199 Y113.885 E16.30081
G1 X113.143 Y113.624 E16.33278
G1 X113.095 Y113.304 E16.37152
G1 X113.059 Y112.836 E16.42772
G1 X113.052 Y112.658 E16.44905
G1 X113.052 Y110.115 E16.75354
G1 X113.01 Y109.447 E16.83368
G1 X112.881 Y108.776 E16.9155
G1 X112.668 Y108.127 E16.99729
G1 X112.376 Y107.51 E17.07902
G1 X112.008 Y106.935 E17.16076
G1 X111.57 Y106.411 E17.24253
G1 X111.07 Y105.947 E17.32421
G1 X110.514 Y105.548 E17.40615
G1 X109.914 Y105.224 E17.4878
G1 X109.278 Y104.978 E17.56945
G1 X108.609 Y104.812 E17.65198
G1 X107.67 Y104.728 E17.76486
G1 X78.639 Y104.728 E21.24093
G1 X77.971 Y104.77 E21.32108
G1 X77.3 Y104.899 E21.40289
G1 X76.651 Y105.112 E21.48468
G1 X76.034 Y105.404 E21.56641
G1 X75.459 Y105.772 E21.64815
G1 X74.935 Y106.21 E21.72993
G1 X74.471 Y106.71 E21.8116
G1 X74.072 Y107.266 E21.89354
G1 X73.748 Y107.866 E21.97519
G1 X73.502 Y108.502 E22.05684
G1 X73.336 Y109.171 E22.13937
G1 X73.252 Y110.11 E22.25226
G1 X73.248 Y112.811 E22.57566
G1 X73.224 Y113.188 E22.6209
G1 X73.187 Y113.486 E22.65685
G1 X73.134 Y113.763 E22.69062
G1 X73.057 Y114.059 E22.72724
G1 X72.972 Y114.319 E22.75999
G1 X72.861 Y114.598 E22.79595
G1 X72.739 Y114.856 E22.83012
G1 X72.595 Y115.115 E22.8656
G1 X72.458 Y115.331 E22.89623
G1 X72.258 Y115.6 E22.93636
G1 X71.954 Y115.954 E22.99224
G1 X71.84 Y116.079 E23.01249
G1 X71.743 Y116.169 E23.02834
G1 X71.45 Y116.426 E23.075
G1 X71.233 Y116.595 E23.10794
G1 X71.002 Y116.751 E23.14131
G1 X70.734 Y116.909 E23.17856
G1 X70.477 Y117.039 E23.21305
G1 X70.208 Y117.154 E23.24808
G1 X69.951 Y117.247 E23.2808
G1 X69.659 Y117.331 E23.31718
G1 X69.398 Y117.387 E23.34914
G1 X69.078 Y117.435 E23.38789
G1 X68.61 Y117.471 E23.44409
G1 X68.418 Y117.478 E23.4671
G1 X58.219 Y117.474 E24.68829
G1 X57.842 Y117.45 E24.73352
G1 X57.544 Y117.413 E24.76948
G1 X57.26 Y117.358 E24.80411
G1 X56.969 Y117.282 E24.84012
G1 X56.709 Y117.197 E24.87288
G1 X56.432 Y117.087 E24.90856
G1 X56.173 Y116.964 E24.9429
G1 X55.915 Y116.821 E24.97822
G1 X55.696 Y116.682 E25.00927
G1 X55.43 Y116.484 E25.04898
G1 X55.076 Y116.18 E25.10485
G1 X54.948 Y116.063 E25.12561
G1 X54.861 Y115.969 E25.14095
G1 X54.602 Y115.674 E25.18795
G1 X54.435 Y115.459 E25.22055
G1 X54.276 Y115.223 E25.25462
G1 X54.121 Y114.96 E25.29118
G1 X53.991 Y114.703 E25.32566
G1 X53.875 Y114.433 E25.36085
G1 X53.783 Y114.177 E25.39342
G1 X53.699 Y113.885 E25.4298
G1 X53.643 Y113.624 E25.46176
G1 X53.595 Y113.304 E25.50051
G1 X53.559 Y112.836 E25.55671
G1 X53.552 Y112.658 E25.57804
G1 X53.555 Y101.059 E26.96686
G1 X53.576 Y100.65 E27.0159
G1 X53.616 Y100.181 E27.07226
G1 X53.643 Y99.974 E27.09725
G1 X53.748 Y99.365 E27.17125
G1 X53.791 Y99.173 E27.19481
G1 X53.91 Y98.719 E27.25101
G1 X53.958 Y98.562 E27.27066
G1 X54.012 Y98.414 E27.28953
G1 X54.198 Y97.77 E27.36979
G1 X54.303 Y97.095 E27.45158
G1 X54.323 Y96.413 E27.53328
G1 X54.255 Y95.727 E27.61582
G1 X54.016 Y94.801 E27.73033
G1 X53.983 Y94.708 E27.74215
G1 X53.906 Y94.443 E27.77519
G1 X53.848 Y94.172 E27.80837
G1 X53.8 Y93.852 E27.84712
G1 X53.764 Y93.384 E27.90332
G1 X53.757 Y93.206 E27.92465
G1 X53.76 Y81.614 E29.31263
G1 X53.782 Y81.178 E29.3649
G1 X53.822 Y80.722 E29.41971
G1 X53.853 Y80.493 E29.44738
G1 X53.951 Y79.928 E29.51605
G1 X53.991 Y79.741 E29.53894
G1 X54.114 Y79.271 E29.59711
G1 X54.168 Y79.097 E29.61893
G1 X54.379 Y78.505 E29.69418
G1 X54.451 Y78.326 E29.71728
G1 X54.66 Y77.87 E29.77734
G1 X54.744 Y77.705 E29.79951
G1 X55.074 Y77.129 E29.879
G1 X55.167 Y76.98 E29.90003
G1 X55.432 Y76.599 E29.9556
G1 X55.553 Y76.441 E29.97943
G1 X55.955 Y75.957 E30.05476
G1 X56.09 Y75.808 E30.07884
G1 X56.427 Y75.467 E30.13624
G1 X56.55 Y75.353 E30.15632
G1 X57.056 Y74.924 E30.23575
G1 X57.205 Y74.808 E30.25836
G0 F7200 X57.6 Y74.528
G1 F675 X57.6 Y117.419 E35.39398
G0 F7200 X59.2 Y117.474
G1 F675 X59.2 Y73.696 E40.6358
G0 F7200 X60.8 Y73.24
G1 F675 X60.8 Y117.475 E45.93235
G0 F7200 X62.4 Y117.475
G1 F675 X62.4 Y73.077 E51.24841
G0 F7200 X64 Y73.076
G1 F675 X64 Y117.476 E56.56471
G0 F7200 X65.6 Y117.476
G1 F675 X65.6 Y73.076 E61.88101
G0 F7200 X67.2 Y73.076
G1 F675 X67.2 Y117.477 E67.19743
G0 F7200 X68.8 Y117.457
G1 F675 X68.8 Y73.076 E72.51145
G0 F7200 X70.4 Y73.076
G1 F675 X70.4 Y117.072 E77.77938
G0 F7200 X72 Y115.901
G1 F675 X72 Y73.076 E82.90709
G0 F7200 X73.6 Y73.076
G1 F675 X73.6 Y108.249 E87.11859
G0 F7200 X75.2 Y105.989
G1 F675 X75.2 Y73.076 E91.05947
G0 F7200 X76.8 Y73.076
G1 F675 X76.8 Y105.064 E94.8896
G0 F7200 X78.4 Y104.744
G1 F675 X78.4 Y73.076 E98.68142
G0 F7200 X80 Y73.076
G1 F675 X80 Y104.728 E102.47132
G0 F7200 X81.6 Y104.728
G1 F675 X81.6 Y73.076 E106.26122
G0 F7200 X83.2 Y73.076
G1 F675 X83.2 Y104.728 E110.05112
G0 F7200 X84.8 Y104.728
G1 F675 X84.8 Y73.076 E113.84102
G0 F7200 X86.4 Y73.076
G1 F675 X86.4 Y104.728 E117.63091
G0 F7200 X88 Y104.728
G1 F675 X88 Y73.076 E121.42081
G0 F7200 X89.6 Y73.076
G1 F675 X89.6 Y104.728 E125.21071
G0 F7200 X91.2 Y104.728
G1 F675 X91.2 Y73.076 E129.00061
G0 F7200 X92.8 Y73.076
G1 F675 X92.8 Y104.728 E132.79051
G0 F7200 X94.4 Y104.728
G1 F675 X94.4 Y73.076 E136.58041
G0 F7200 X96 Y73.076
G1 F675 X96 Y104.728 E140.37031
G0 F7200 X97.6 Y104.728
G1 F675 X97.6 Y73.076 E144.16021
G0 F7200 X99.2 Y73.076
G1 F675 X99.2 Y104.728 E147.95011
G0 F7200 X100.8 Y104.728
G1 F675 X100.8 Y73.076 E151.74001
G0 F7200 X102.4 Y73.076
G1 F675 X102.4 Y104.728 E155.52991
G0 F7200 X104 Y104.728
G1 F675 X104 Y73.076 E159.31981
G0 F7200 X105.6 Y73.076
G1 F675 X105.6 Y104.728 E163.10971
G0 F7200 X107.2 Y104.728
G1 F675 X107.2 Y73.076 E166.89961
G0 F7200 X108.8 Y73.076
G1 F675 X108.8 Y104.859 E170.70519
G0 F7200 X110.4 Y105.486
G1 F675 X110.4 Y73.076 E174.58585
G0 F7200 X112 Y73.076
G1 F675 X112 Y106.925 E178.63881
G0 F7200 X113.6 Y114.918
G1 F675 X113.6 Y73.076 E183.64882
G0 F7200 X115.2 Y73.076
G1 F675 X115.2 Y116.684 E188.87029
G0 F7200 X116.8 Y117.365
G1 F675 X116.8 Y73.076 E194.1733
G0 F7200 X118.4 Y73.076
G1 F675 X118.4 Y117.474 E199.48936
G0 F7200 X120 Y117.474
G1 F675 X120 Y73.076 E204.80542
G0 F7200 X121.6 Y73.076
G1 F675 X121.6 Y117.475 E210.1216
G0 F7200 X123.2 Y117.476
G1 F675 X123.2 Y73.076 E215.4379
G0 F7200 X124.8 Y73.103
G1 F675 X124.8 Y117.476 E220.75097
G0 F7200 X126.4 Y117.477
G1 F675 X126.4 Y73.338 E226.03602
G0 F7200 X128 Y73.905
G1 F675 X128 Y117.476 E231.25306
G0 F7200 X129.6 Y117.194
G1 F675 X129.6 Y74.879 E236.31971
G0 F7200 X131.2 Y76.492
G1 F675 X131.2 Y116.207 E241.07504
G0 F7200 X132.8 Y94.46
G1 F675 X132.8 Y80.163 E242.78691
G0 F7200 X56 Y75.907
G1 F675 X56 Y116.868 E247.69144
G0 F7200 X54.4 Y115.407
G1 F675 X54.4 Y78.452 E252.1163
G0 F600 X54.4 Y78.452 Z0.66
G0 F7200 X54.093 Y114.904
;TIME_ELAPSED:193.465098
;LAYER:-5
M140 S70
;TYPE:SUPPORT
G1 F675 X56.125 Y116.937 E252.40311
G1 X55.914 Y116.82 E252.42718
G1 X55.695 Y116.681 E252.45307
G1 X55.43 Y116.483 E252.48607
G1 X55.075 Y116.179 E252.53271
G1 X54.948 Y116.062 E252.54994
G1 X54.861 Y115.968 E252.56272
G1 X54.602 Y115.673 E252.60189
G1 X54.435 Y115.458 E252.62905
G1 X54.275 Y115.222 E252.6575
G1 X54.121 Y114.959 E252.68791
G0 F7200 X56.125 Y116.937
G1 F675 X56.173 Y116.963 E252.69336
G1 X56.432 Y117.086 E252.72197
G1 X56.709 Y117.196 E252.75171
G1 X56.969 Y117.281 E252.779
G1 X57.26 Y117.357 E252.80901
G1 X57.544 Y117.412 E252.83788
G1 X57.842 Y117.449 E252.86784
G1 X58.066 Y117.463 E252.89023
G1 X53.568 Y112.965 E253.52495
G1 X53.559 Y112.835 E253.53795
G1 X53.552 Y112.657 E253.55573
G1 X53.552 Y111.534 E253.66778
G1 X59.49 Y117.473 E254.50577
G1 X60.905 Y117.473 E254.64696
G1 X53.552 Y110.12 E255.68454
G1 X53.552 Y108.707 E255.82553
G1 X62.32 Y117.474 E257.06272
G1 X63.735 Y117.475 E257.20391
G1 X53.552 Y107.292 E258.64084
G1 X53.553 Y105.879 E258.78183
G1 X65.149 Y117.475 E260.41815
G1 X66.564 Y117.475 E260.55934
G1 X53.553 Y104.465 E262.39526
G1 X53.554 Y103.051 E262.53635
G1 X67.979 Y117.476 E264.57188
G1 X68.418 Y117.477 E264.61568
G1 X68.61 Y117.47 E264.63485
G1 X69.077 Y117.434 E264.68159
G1 X69.314 Y117.398 E264.70551
G1 X53.554 Y101.637 E266.92948
G1 X53.554 Y101.058 E266.98726
G1 X53.576 Y100.649 E267.02812
G1 X53.607 Y100.276 E267.06547
G1 X70.4 Y117.07 E269.43522
G1 X70.476 Y117.038 E269.44344
G1 X70.734 Y116.908 E269.47227
G1 X71.002 Y116.75 E269.50331
G1 X71.233 Y116.594 E269.53113
G1 X71.292 Y116.547 E269.53865
G1 X53.817 Y99.072 E272.00456
G1 X53.91 Y98.718 E272.04108
G1 X53.957 Y98.56 E272.05753
G1 X54.012 Y98.413 E272.07319
G1 X54.137 Y97.978 E272.11835
G1 X72.028 Y115.868 E274.6429
G1 X72.257 Y115.599 E274.67815
G1 X72.457 Y115.329 E274.71167
G1 X72.595 Y115.114 E274.73717
G1 X72.629 Y115.055 E274.74396
G1 X54.312 Y96.739 E277.32862
G1 X54.322 Y96.412 E277.36126
G1 X54.254 Y95.726 E277.43004
G1 X54.094 Y95.106 E277.49393
G1 X73.054 Y114.066 E280.1694
G1 X73.056 Y114.057 E280.17032
G1 X73.133 Y113.762 E280.20074
G1 X73.186 Y113.484 E280.22898
G1 X73.224 Y113.187 E280.25885
G1 X73.246 Y112.844 E280.29315
G1 X53.762 Y93.36 E283.04255
G1 X53.757 Y93.205 E283.05802
G1 X53.757 Y91.94 E283.18425
G1 X73.25 Y111.434 E285.93499
G1 X73.252 Y110.109 E286.0672
G1 X73.259 Y110.029 E286.07521
G1 X53.757 Y90.526 E288.82722
G1 X53.757 Y89.113 E288.96821
G1 X73.431 Y108.786 E291.74436
G1 X73.502 Y108.501 E291.77366
G1 X73.747 Y107.865 E291.84167
G1 X73.809 Y107.751 E291.85462
G1 X53.757 Y87.698 E294.68424
G1 X53.758 Y86.285 E294.82523
G1 X74.35 Y106.877 E297.73099
G1 X74.471 Y106.709 E297.75165
G1 X74.934 Y106.208 E297.81971
G1 X75.022 Y106.135 E297.83112
G1 X53.758 Y84.871 E300.8317
G1 X53.759 Y83.457 E300.97279
G1 X75.832 Y105.531 E304.0876
G1 X76.034 Y105.403 E304.11146
G1 X76.651 Y105.11 E304.17962
G1 X76.782 Y105.066 E304.19341
G1 X53.759 Y82.043 E307.4422
G1 X53.759 Y81.612 E307.4852
G1 X53.782 Y81.177 E307.52867
G1 X53.821 Y80.721 E307.57434
G1 X53.824 Y80.695 E307.57695
G1 X77.91 Y104.78 E310.97567
G1 X77.971 Y104.769 E310.98186
G1 X78.639 Y104.727 E311.04864
G1 X79.271 Y104.727 E311.1117
G1 X54.051 Y79.507 E314.67052
G1 X54.114 Y79.27 E314.69499
G1 X54.167 Y79.096 E314.71314
G1 X54.379 Y78.504 E314.77588
G1 X54.402 Y78.444 E314.78229
G1 X80.685 Y104.727 E318.49111
G1 X82.1 Y104.727 E318.63229
G1 X54.865 Y77.492 E322.47545
G1 X55.073 Y77.128 E322.51728
G1 X55.167 Y76.979 E322.53486
G1 X55.412 Y76.625 E322.57781
G1 X83.514 Y104.727 E326.54331
G1 X84.928 Y104.727 E326.6844
G1 X56.05 Y75.849 E330.7594
G1 X56.089 Y75.806 E330.76519
G1 X56.427 Y75.466 E330.81303
G1 X56.55 Y75.352 E330.82976
G1 X56.776 Y75.161 E330.85929
G1 X86.342 Y104.727 E335.03137
G1 X87.756 Y104.727 E335.17246
G1 X57.574 Y74.545 E339.43146
G1 X57.591 Y74.533 E339.43354
G1 X57.745 Y74.433 E339.45186
G1 X58.308 Y74.104 E339.51693
G1 X58.455 Y74.027 E339.53348
G1 X58.465 Y74.022 E339.5346
G1 X89.171 Y104.727 E343.86748
G1 X90.585 Y104.727 E344.00857
G1 X59.458 Y73.6 E348.40092
G1 X59.66 Y73.524 E348.42246
G1 X59.855 Y73.462 E348.44287
G1 X60.328 Y73.331 E348.49185
G1 X60.492 Y73.295 E348.5086
G1 X60.555 Y73.283 E348.515
G1 X91.999 Y104.727 E352.95209
G1 X93.413 Y104.727 E353.09318
G1 X61.796 Y73.11 E357.55468
G1 X61.984 Y73.093 E357.57351
G1 X62.381 Y73.077 E357.61316
G1 X63.176 Y73.075 E357.69248
G1 X94.827 Y104.727 E362.15885
G1 X96.242 Y104.727 E362.30004
G1 X64.59 Y73.075 E366.76648
G1 X66.004 Y73.075 E366.90757
G1 X97.656 Y104.727 E371.37401
G1 X99.07 Y104.727 E371.5151
G1 X67.419 Y73.075 E375.98147
G1 X68.833 Y73.075 E376.12256
G1 X100.484 Y104.727 E380.58893
G1 X101.899 Y104.727 E380.73011
G1 X70.247 Y73.075 E385.19655
G1 X71.661 Y73.075 E385.33764
G1 X103.313 Y104.727 E389.80408
G1 X104.727 Y104.727 E389.94517
G1 X73.075 Y73.075 E394.41161
G1 X74.49 Y73.075 E394.5528
G1 X106.141 Y104.727 E399.01917
G1 X107.555 Y104.727 E399.16026
G1 X75.904 Y73.075 E403.62663
G1 X77.318 Y73.075 E403.76772
G1 X109.201 Y104.958 E408.26675
G0 F7200 X109.276 Y104.977
G1 F675 X109.913 Y105.223 E408.33489
G1 X110.513 Y105.547 E408.40293
