;FLAVOR:Marlin
;TIME:16223
;Filament used: 9.09513m
;Layer height: 0.2
;MINX:21.5
;MINY:57
;MINZ:0.3
;MAXX:178.5
;MAXY:143
;MAXZ:8.5
;Generated with Cura_SteamEngine 4.2.1
M140 S70
M105
M190 S70
M104 S210
M105
M109 S210
M82 ;absolute extrusion mode
G21 ;metric values
G90 ;absolute positioning
M82 ;set extruder to absolute mode
M107 ;start with the fan off
G28 X0 Y0 ;move X/Y to min endstops
G28 Z0 ;move Z to min endstops
G1 Z15.0 F225 ;move the platform down 15mm
G92 E0 ;zero the extruded length
G1 F140 E30 ;extrude 3mm of feed stock
G1 X20 Y0 F140 E30
G92 E0 ;zero the extruded length again
G1 F225
M117 ;Printing...
M141 S28
G92 E0
G92 E0
G1 F1500 E-6.5
;LAYER_COUNT:42
;LAYER:0
M107 P1
G0 F600 X28.195 Y58.646 Z0.3
;TYPE:SKIRT
G1 F1500 E0
G1 F1080 X29.775 Y57.902 E0.08713
G1 X30.268 Y57.721 E0.11333
G1 X31.946 Y57.266 E0.20007
G1 X32.461 Y57.173 E0.22618
G1 X34.199 Y57.016 E0.31324
G1 X34.469 Y57.004 E0.32672
G1 X90.191 Y57 E3.10671
G1 X165.499 Y57 E6.86384
G1 X165.758 Y57.011 E6.87677
G1 X167.464 Y57.159 E6.9622
G1 X167.971 Y57.248 E6.98788
G1 X169.655 Y57.693 E7.07478
G1 X170.15 Y57.871 E7.10103
G1 X171.734 Y58.605 E7.18812
G1 X172.186 Y58.864 E7.21411
G1 X173.614 Y59.857 E7.30089
G1 X174.016 Y60.193 E7.32703
G1 X175.251 Y61.421 E7.41392
G1 X175.588 Y61.82 E7.43997
G1 X176.592 Y63.245 E7.52694
G1 X176.854 Y63.695 E7.55292
G1 X177.598 Y65.275 E7.64005
G1 X177.779 Y65.768 E7.66625
G1 X178.234 Y67.446 E7.75299
G1 X178.327 Y67.961 E7.7791
G1 X178.484 Y69.697 E7.86606
G1 X178.496 Y69.966 E7.87949
G1 X178.5 Y82.658 E8.5127
G1 X178.5 Y129.998 E10.8745
G1 X178.489 Y130.258 E10.88749
G1 X178.341 Y131.964 E10.97292
G1 X178.252 Y132.472 E10.99865
G1 X177.807 Y134.155 E11.0855
G1 X177.629 Y134.649 E11.1117
G1 X176.895 Y136.234 E11.19884
G1 X176.636 Y136.686 E11.22483
G1 X175.643 Y138.114 E11.3116
G1 X175.307 Y138.516 E11.33774
G1 X174.079 Y139.751 E11.42463
G1 X173.68 Y140.088 E11.45069
G1 X172.255 Y141.092 E11.53766
G1 X171.805 Y141.354 E11.56363
G1 X170.225 Y142.098 E11.65076
G1 X169.732 Y142.279 E11.67696
G1 X168.054 Y142.734 E11.7637
G1 X167.539 Y142.827 E11.78981
G1 X165.801 Y142.984 E11.87687
G1 X165.533 Y142.996 E11.89026
G1 X159.177 Y143 E12.20736
G1 X34.501 Y143 E18.42747
G1 X34.242 Y142.989 E18.4404
G1 X32.536 Y142.841 E18.52584
G1 X32.029 Y142.752 E18.55152
G1 X30.345 Y142.307 E18.63842
G1 X29.85 Y142.129 E18.66466
G1 X28.266 Y141.395 E18.75176
G1 X27.814 Y141.136 E18.77775
G1 X26.386 Y140.143 E18.86452
G1 X25.984 Y139.807 E18.89066
G1 X24.749 Y138.579 E18.97755
G1 X24.412 Y138.18 E19.00361
G1 X23.408 Y136.755 E19.09058
G1 X23.146 Y136.305 E19.11655
G1 X22.402 Y134.725 E19.20368
G1 X22.221 Y134.232 E19.22988
G1 X21.766 Y132.554 E19.31662
G1 X21.673 Y132.039 E19.34273
G1 X21.516 Y130.303 E19.42969
G1 X21.504 Y130.034 E19.44313
G1 X21.5 Y117.342 E20.07634
G1 X21.5 Y70.002 E22.43814
G1 X21.511 Y69.742 E22.45112
G1 X21.659 Y68.036 E22.53655
G1 X21.748 Y67.528 E22.56228
G1 X22.193 Y65.845 E22.64913
G1 X22.371 Y65.351 E22.67533
G1 X23.105 Y63.766 E22.76247
G1 X23.364 Y63.314 E22.78846
G1 X24.357 Y61.886 E22.87524
G1 X24.693 Y61.484 E22.90138
G1 X25.921 Y60.249 E22.98827
G1 X26.32 Y59.912 E23.01432
G1 X27.745 Y58.908 E23.10129
G1 X28.195 Y58.646 E23.12727
G0 F600 X28.365 Y59.008
G1 F1080 X29.945 Y58.264 E23.2144
G1 X30.373 Y58.107 E23.23714
G1 X32.051 Y57.652 E23.32388
G1 X32.497 Y57.572 E23.34649
G1 X34.235 Y57.415 E23.43355
G1 X34.469 Y57.404 E23.44524
G1 X90.191 Y57.4 E26.22522
G1 X165.499 Y57.4 E29.98235
G1 X165.724 Y57.41 E29.99359
G1 X167.43 Y57.558 E30.07902
G1 X167.869 Y57.634 E30.10125
G1 X169.553 Y58.079 E30.18815
G1 X169.982 Y58.234 E30.2109
G1 X171.566 Y58.968 E30.298
G1 X171.957 Y59.192 E30.32048
G1 X173.385 Y60.185 E30.40726
G1 X173.734 Y60.476 E30.42993
G1 X174.969 Y61.704 E30.51682
G1 X175.261 Y62.05 E30.5394
G1 X176.265 Y63.475 E30.62637
G1 X176.492 Y63.865 E30.64888
G1 X177.236 Y65.445 E30.73601
G1 X177.393 Y65.873 E30.75876
G1 X177.848 Y67.551 E30.8455
G1 X177.928 Y67.997 E30.8681
G1 X178.085 Y69.733 E30.95507
G1 X178.096 Y69.966 E30.9667
G1 X178.1 Y82.658 E31.59991
G1 X178.1 Y129.998 E33.96171
G1 X178.09 Y130.224 E33.973
G1 X177.942 Y131.93 E34.05843
G1 X177.866 Y132.37 E34.08071
G1 X177.421 Y134.053 E34.16756
G1 X177.266 Y134.481 E34.19027
G1 X176.532 Y136.066 E34.27741
G1 X176.308 Y136.457 E34.29989
G1 X175.315 Y137.885 E34.38667
G1 X175.024 Y138.234 E34.40934
G1 X173.796 Y139.469 E34.49623
G1 X173.45 Y139.761 E34.51881
G1 X172.025 Y140.765 E34.60578
G1 X171.635 Y140.992 E34.62829
G1 X170.055 Y141.736 E34.71542
G1 X169.627 Y141.893 E34.73817
G1 X167.949 Y142.348 E34.82491
G1 X167.503 Y142.428 E34.84751
G1 X165.765 Y142.585 E34.93457
G1 X165.533 Y142.596 E34.94616
G1 X159.177 Y142.6 E35.26326
G1 X34.501 Y142.6 E41.48338
G1 X34.276 Y142.59 E41.49461
G1 X32.57 Y142.442 E41.58004
G1 X32.131 Y142.366 E41.60227
G1 X30.447 Y141.921 E41.68917
G1 X30.018 Y141.766 E41.71193
G1 X28.434 Y141.032 E41.79903
G1 X28.043 Y140.808 E41.82151
G1 X26.615 Y139.815 E41.90828
G1 X26.266 Y139.524 E41.93095
G1 X25.031 Y138.296 E42.01784
G1 X24.739 Y137.95 E42.04043
G1 X23.735 Y136.525 E42.1274
G1 X23.508 Y136.135 E42.14991
G1 X22.764 Y134.555 E42.23704
G1 X22.607 Y134.127 E42.25978
G1 X22.152 Y132.449 E42.34652
G1 X22.072 Y132.003 E42.36913
G1 X21.915 Y130.267 E42.45609
G1 X21.904 Y130.034 E42.46773
G1 X21.9 Y117.342 E43.10093
G1 X21.9 Y70.002 E45.46274
G1 X21.91 Y69.776 E45.47402
G1 X22.058 Y68.07 E45.55946
G1 X22.134 Y67.63 E45.58173
G1 X22.579 Y65.947 E45.66858
G1 X22.734 Y65.519 E45.69129
G1 X23.468 Y63.934 E45.77844
G1 X23.692 Y63.543 E45.80092
G1 X24.685 Y62.115 E45.88769
G1 X24.976 Y61.766 E45.91036
G1 X26.204 Y60.531 E45.99725
G1 X26.55 Y60.239 E46.01984
G1 X27.975 Y59.235 E46.10681
G1 X28.365 Y59.008 E46.12932
G0 F600 X28.536 Y59.37
G1 F1080 X30.116 Y58.626 E46.21645
G1 X30.477 Y58.493 E46.23564
G1 X32.155 Y58.038 E46.32238
G1 X32.533 Y57.97 E46.34154
G1 X34.271 Y57.813 E46.4286
G1 X34.469 Y57.804 E46.43849
G1 X90.191 Y57.8 E49.21848
G1 X165.499 Y57.8 E52.97561
G1 X165.689 Y57.808 E52.98509
G1 X167.395 Y57.956 E53.07053
G1 X167.767 Y58.021 E53.08937
G1 X169.451 Y58.466 E53.17627
G1 X169.814 Y58.597 E53.19552
G1 X171.398 Y59.331 E53.28262
G1 X171.729 Y59.521 E53.30166
G1 X173.157 Y60.514 E53.38843
G1 X173.452 Y60.76 E53.4076
G1 X174.687 Y61.988 E53.49449
G1 X174.934 Y62.281 E53.5136
G1 X175.938 Y63.706 E53.60057
G1 X176.13 Y64.036 E53.61962
G1 X176.874 Y65.616 E53.70675
G1 X177.007 Y65.977 E53.72594
G1 X177.462 Y67.655 E53.81268
G1 X177.53 Y68.033 E53.83184
G1 X177.687 Y69.769 E53.9188
G1 X177.696 Y69.966 E53.92864
G1 X177.7 Y82.658 E54.56185
G1 X177.7 Y129.998 E56.92365
G1 X177.692 Y130.189 E56.93319
G1 X177.544 Y131.895 E57.01862
G1 X177.479 Y132.267 E57.03746
G1 X177.034 Y133.95 E57.12431
G1 X176.903 Y134.312 E57.14352
G1 X176.169 Y135.897 E57.23066
G1 X175.979 Y136.229 E57.24975
G1 X174.986 Y137.657 E57.33652
G1 X174.74 Y137.952 E57.35569
G1 X173.512 Y139.187 E57.44257
G1 X173.219 Y139.434 E57.46169
G1 X171.794 Y140.438 E57.54866
G1 X171.464 Y140.63 E57.56771
G1 X169.884 Y141.374 E57.65484
G1 X169.523 Y141.507 E57.67403
G1 X167.845 Y141.962 E57.76077
G1 X167.467 Y142.03 E57.77993
G1 X165.729 Y142.187 E57.86699
G1 X165.532 Y142.196 E57.87683
G1 X159.176 Y142.2 E58.19393
G1 X34.501 Y142.2 E64.41399
G1 X34.311 Y142.192 E64.42348
G1 X32.605 Y142.044 E64.50891
G1 X32.233 Y141.979 E64.52775
G1 X30.549 Y141.534 E64.61465
G1 X30.186 Y141.403 E64.63391
G1 X28.602 Y140.669 E64.72101
G1 X28.271 Y140.479 E64.74005
G1 X26.843 Y139.486 E64.82682
G1 X26.548 Y139.24 E64.84598
G1 X25.313 Y138.012 E64.93287
G1 X25.066 Y137.719 E64.95199
G1 X24.062 Y136.294 E65.03896
G1 X23.87 Y135.964 E65.05801
G1 X23.126 Y134.384 E65.14514
G1 X22.993 Y134.023 E65.16433
G1 X22.538 Y132.345 E65.25107
G1 X22.47 Y131.967 E65.27023
G1 X22.313 Y130.231 E65.35719
G1 X22.304 Y130.034 E65.36703
G1 X22.3 Y117.342 E66.00024
G1 X22.3 Y70.002 E68.36204
G1 X22.308 Y69.811 E68.37158
G1 X22.456 Y68.105 E68.45701
G1 X22.521 Y67.733 E68.47585
G1 X22.966 Y66.05 E68.5627
G1 X23.097 Y65.688 E68.58191
G1 X23.831 Y64.103 E68.66905
G1 X24.021 Y63.771 E68.68814
G1 X25.014 Y62.343 E68.77491
G1 X25.26 Y62.048 E68.79407
G1 X26.488 Y60.813 E68.88096
G1 X26.781 Y60.566 E68.90008
G1 X28.206 Y59.562 E68.98705
G1 X28.536 Y59.37 E69.0061
G0 F600 X28.706 Y59.732
G1 F1080 X30.286 Y58.988 E69.09323
G1 X30.582 Y58.879 E69.10896
G1 X32.26 Y58.424 E69.1957
G1 X32.569 Y58.368 E69.21137
G1 X34.307 Y58.211 E69.29843
G1 X34.469 Y58.204 E69.30652
G1 X90.191 Y58.2 E72.0865
G1 X165.499 Y58.2 E75.84363
G1 X165.655 Y58.207 E75.85142
G1 X167.361 Y58.355 E75.93686
G1 X167.665 Y58.408 E75.95225
G1 X169.349 Y58.853 E76.03915
G1 X169.646 Y58.96 E76.0549
G1 X171.23 Y59.694 E76.142
G1 X171.501 Y59.849 E76.15757
G1 X172.929 Y60.842 E76.24435
G1 X173.17 Y61.044 E76.26004
G1 X174.405 Y62.272 E76.34693
G1 X174.607 Y62.511 E76.36254
G1 X175.611 Y63.936 E76.44951
G1 X175.768 Y64.206 E76.46509
G1 X176.512 Y65.786 E76.55222
G1 X176.621 Y66.082 E76.56795
G1 X177.076 Y67.76 E76.65469
G1 X177.132 Y68.069 E76.67036
G1 X177.289 Y69.805 E76.75732
G1 X177.296 Y69.966 E76.76536
G1 X177.3 Y82.658 E77.39857
G1 X177.3 Y129.998 E79.76037
G1 X177.293 Y130.155 E79.76821
G1 X177.145 Y131.861 E79.85364
G1 X177.092 Y132.165 E79.86904
G1 X176.647 Y133.848 E79.95589
G1 X176.54 Y134.144 E79.97159
G1 X175.806 Y135.729 E80.05874
G1 X175.651 Y136.001 E80.07436
G1 X174.658 Y137.429 E80.16113
G1 X174.456 Y137.67 E80.17682
G1 X173.228 Y138.905 E80.26371
G1 X172.989 Y139.107 E80.27932
G1 X171.564 Y140.111 E80.36629
G1 X171.294 Y140.268 E80.38187
G1 X169.714 Y141.012 E80.469
G1 X169.418 Y141.121 E80.48473
G1 X167.74 Y141.576 E80.57147
G1 X167.431 Y141.632 E80.58714
G1 X165.693 Y141.789 E80.6742
G1 X165.532 Y141.796 E80.68224
G1 X159.176 Y141.8 E80.99935
G1 X34.501 Y141.8 E87.21941
G1 X34.345 Y141.793 E87.2272
G1 X32.639 Y141.645 E87.31263
G1 X32.335 Y141.592 E87.32802
G1 X30.651 Y141.147 E87.41492
G1 X30.354 Y141.04 E87.43067
G1 X28.77 Y140.306 E87.51777
G1 X28.499 Y140.151 E87.53335
G1 X27.071 Y139.158 E87.62012
G1 X26.83 Y138.956 E87.63581
G1 X25.595 Y137.728 E87.7227
G1 X25.393 Y137.489 E87.73831
G1 X24.389 Y136.064 E87.82528
G1 X24.232 Y135.794 E87.84086
G1 X23.488 Y134.214 E87.92799
G1 X23.379 Y133.918 E87.94373
G1 X22.924 Y132.24 E88.03047
G1 X22.868 Y131.931 E88.04613
G1 X22.711 Y130.195 E88.1331
G1 X22.704 Y130.034 E88.14114
G1 X22.7 Y117.342 E88.77434
G1 X22.7 Y70.002 E91.13614
G1 X22.707 Y69.845 E91.14398
G1 X22.855 Y68.139 E91.22942
G1 X22.908 Y67.835 E91.24481
G1 X23.353 Y66.152 E91.33166
G1 X23.46 Y65.856 E91.34737
G1 X24.194 Y64.271 E91.43451
G1 X24.349 Y63.999 E91.45013
G1 X25.342 Y62.571 E91.5369
G1 X25.544 Y62.33 E91.55259
G1 X26.772 Y61.095 E91.63948
G1 X27.011 Y60.893 E91.65509
G1 X28.436 Y59.889 E91.74206
G1 X28.706 Y59.732 E91.75764
G0 F600 X28.877 Y60.093
G1 F1080 X30.457 Y59.349 E91.84477
G1 X30.687 Y59.265 E91.85699
G1 X32.365 Y58.81 E91.94373
G1 X32.605 Y58.767 E91.95589
G1 X34.343 Y58.61 E92.04295
G1 X34.469 Y58.604 E92.04925
G1 X90.191 Y58.6 E94.82923
G1 X165.499 Y58.6 E98.58636
G1 X165.62 Y58.605 E98.5924
G1 X167.326 Y58.753 E98.67783
G1 X167.563 Y58.794 E98.68983
G1 X169.247 Y59.239 E98.77673
G1 X169.478 Y59.323 E98.78899
G1 X171.062 Y60.057 E98.87609
G1 X171.272 Y60.178 E98.88818
G1 X172.7 Y61.171 E98.97496
G1 X172.888 Y61.327 E98.98715
G1 X174.123 Y62.555 E99.07404
G1 X174.28 Y62.742 E99.08622
G1 X175.284 Y64.167 E99.17319
G1 X175.407 Y64.377 E99.18533
G1 X176.151 Y65.957 E99.27246
G1 X176.235 Y66.187 E99.28467
G1 X176.69 Y67.865 E99.37141
G1 X176.733 Y68.105 E99.38358
G1 X176.89 Y69.841 E99.47054
G1 X176.896 Y69.967 E99.47683
G1 X176.9 Y82.659 E100.11004
G1 X176.9 Y129.999 E102.47184
G1 X176.895 Y130.12 E102.47788
G1 X176.747 Y131.826 E102.56331
G1 X176.705 Y132.063 E102.57532
G1 X176.26 Y133.746 E102.66217
G1 X176.177 Y133.976 E102.67437
G1 X175.443 Y135.561 E102.76152
G1 X175.322 Y135.772 E102.77365
G1 X174.329 Y137.2 E102.86043
G1 X174.173 Y137.388 E102.87261
G1 X172.945 Y138.623 E102.9595
G1 X172.758 Y138.78 E102.97168
G1 X171.333 Y139.784 E103.05865
G1 X171.123 Y139.907 E103.07079
G1 X169.543 Y140.651 E103.15792
G1 X169.313 Y140.735 E103.17014
G1 X167.635 Y141.19 E103.25688
G1 X167.395 Y141.233 E103.26904
G1 X165.657 Y141.39 E103.3561
G1 X165.532 Y141.396 E103.36235
G1 X159.176 Y141.4 E103.67945
G1 X34.502 Y141.4 E109.89946
G1 X34.38 Y141.395 E109.90555
G1 X32.674 Y141.247 E109.99098
G1 X32.437 Y141.206 E110.00298
G1 X30.753 Y140.761 E110.08988
G1 X30.522 Y140.677 E110.10215
G1 X28.938 Y139.943 E110.18924
G1 X28.728 Y139.822 E110.20134
G1 X27.3 Y138.829 E110.28811
G1 X27.112 Y138.673 E110.3003
G1 X25.877 Y137.445 E110.38719
G1 X25.72 Y137.258 E110.39937
G1 X24.716 Y135.833 E110.48634
G1 X24.593 Y135.623 E110.49848
G1 X23.849 Y134.043 E110.58561
G1 X23.765 Y133.813 E110.59782
G1 X23.31 Y132.135 E110.68456
G1 X23.267 Y131.895 E110.69673
G1 X23.11 Y130.159 E110.78369
G1 X23.104 Y130.033 E110.78998
G1 X23.1 Y117.341 E111.42319
G1 X23.1 Y70.001 E113.78499
G1 X23.105 Y69.88 E113.79103
G1 X23.253 Y68.174 E113.87647
G1 X23.295 Y67.937 E113.88847
G1 X23.74 Y66.254 E113.97532
G1 X23.823 Y66.024 E113.98752
G1 X24.557 Y64.439 E114.07467
G1 X24.678 Y64.228 E114.0868
G1 X25.671 Y62.8 E114.17358
G1 X25.827 Y62.612 E114.18576
G1 X27.055 Y61.377 E114.27265
G1 X27.242 Y61.22 E114.28484
G1 X28.667 Y60.216 E114.3718
G1 X28.877 Y60.093 E114.38394
G0 F600 X29.047 Y60.455
G1 F1080 X30.627 Y59.711 E114.47107
G1 X30.791 Y59.651 E114.47979
G1 X32.469 Y59.196 E114.56652
G1 X32.641 Y59.165 E114.57524
G1 X34.379 Y59.008 E114.66231
G1 X34.469 Y59.004 E114.6668
G1 X90.191 Y59 E117.44678
G1 X165.499 Y59 E121.20391
G1 X165.585 Y59.004 E121.20821
G1 X167.291 Y59.152 E121.29364
G1 X167.46 Y59.181 E121.3022
G1 X169.144 Y59.626 E121.38909
G1 X169.309 Y59.686 E121.39785
G1 X170.893 Y60.42 E121.48495
G1 X171.044 Y60.506 E121.49362
G1 X172.472 Y61.499 E121.5804
G1 X172.606 Y61.611 E121.58911
G1 X173.841 Y62.839 E121.676
G1 X173.953 Y62.972 E121.68467
G1 X174.957 Y64.397 E121.77164
G1 X175.045 Y64.547 E121.78032
G1 X175.789 Y66.127 E121.86745
G1 X175.849 Y66.291 E121.87616
G1 X176.304 Y67.969 E121.9629
G1 X176.335 Y68.141 E121.97162
G1 X176.492 Y69.877 E122.05858
G1 X176.496 Y69.967 E122.06307
G1 X176.5 Y82.659 E122.69628
G1 X176.5 Y129.999 E125.05808
G1 X176.496 Y130.085 E125.06238
G1 X176.348 Y131.791 E125.14781
G1 X176.319 Y131.961 E125.15641
G1 X175.874 Y133.644 E125.24326
G1 X175.814 Y133.808 E125.25198
G1 X175.08 Y135.393 E125.33912
G1 X174.994 Y135.544 E125.34779
G1 X174.001 Y136.972 E125.43456
G1 X173.889 Y137.106 E125.44328
G1 X172.661 Y138.341 E125.53017
G1 X172.528 Y138.453 E125.53884
G1 X171.103 Y139.457 E125.62581
G1 X170.953 Y139.545 E125.63449
G1 X169.373 Y140.289 E125.72161
G1 X169.209 Y140.349 E125.73033
G1 X167.531 Y140.804 E125.81706
G1 X167.359 Y140.835 E125.82578
G1 X165.621 Y140.992 E125.91285
G1 X165.532 Y140.996 E125.91729
G1 X159.176 Y141 E126.23439
G1 X34.502 Y141 E132.4544
G1 X34.415 Y140.996 E132.45875
G1 X32.709 Y140.848 E132.54418
G1 X32.54 Y140.819 E132.55274
G1 X30.856 Y140.374 E132.63964
G1 X30.691 Y140.314 E132.64839
G1 X29.107 Y139.58 E132.73549
G1 X28.956 Y139.494 E132.74416
G1 X27.528 Y138.501 E132.83094
G1 X27.394 Y138.389 E132.83965
G1 X26.159 Y137.161 E132.92654
G1 X26.047 Y137.028 E132.93521
G1 X25.043 Y135.603 E133.02218
G1 X24.955 Y135.453 E133.03086
G1 X24.211 Y133.873 E133.11799
G1 X24.151 Y133.709 E133.1267
G1 X23.696 Y132.031 E133.21344
G1 X23.665 Y131.859 E133.22216
G1 X23.508 Y130.123 E133.30912
G1 X23.504 Y130.033 E133.31361
G1 X23.5 Y117.341 E133.94682
G1 X23.5 Y70.001 E136.30862
G1 X23.504 Y69.915 E136.31292
G1 X23.652 Y68.209 E136.39835
G1 X23.681 Y68.039 E136.40695
G1 X24.126 Y66.356 E136.49381
G1 X24.186 Y66.192 E136.50252
G1 X24.92 Y64.607 E136.58966
G1 X25.006 Y64.456 E136.59833
G1 X25.999 Y63.028 E136.68511
G1 X26.111 Y62.894 E136.69382
G1 X27.339 Y61.659 E136.78071
G1 X27.472 Y61.547 E136.78938
G1 X28.897 Y60.543 E136.87635
G1 X29.047 Y60.455 E136.88503
G0 F600 X29.217 Y60.817
G1 F1080 X30.797 Y60.073 E136.97215
G1 X30.896 Y60.037 E136.97741
