;FLAVOR:Marlin
;TIME:10269
;Filament used: 9.15039m
;Layer height: 0.2
;MINX:56.51
;MINY:56.492
;MINZ:0.36
;MAXX:143.485
;MAXY:143.509
;MAXZ:11.11
;Generated with Cura_SteamEngine 4.2.1
M140 S75
M105
M190 S75
M104 S210
M105
M109 S210
M82 ;absolute extrusion mode
G21 ;metric values
G90 ;absolute positioning
M82 ;set extruder to absolute mode
M107 ;start with the fan off
G28 X0 Y0 ;move X/Y to min endstops
G28 Z0 ;move Z to min endstops
G1 Z15.0 F225 ;move the platform down 15mm
G92 E0 ;zero the extruded length
G1 F140 E30 ;extrude 3mm of feed stock
G1 X20 Y0 F140 E30
G92 E0 ;zero the extruded length again
G1 F225
M117 ;Printing...
M141 S28
G92 E0
G92 E0
G1 F1500 E-6.5
;LAYER_COUNT:49
;LAYER:-6
M107 P1
G0 F7200 X68.799 Y69.959 Z0.36
;TYPE:SUPPORT-INTERFACE
G1 F1500 E0
G1 F855 X68.951 Y69.817 E0.02491
G1 X69.431 Y69.408 E0.10041
G1 X69.611 Y69.269 E0.12765
G1 X70.134 Y68.899 E0.20435
G1 X70.322 Y68.779 E0.23106
G1 X70.865 Y68.464 E0.30622
G1 X71.045 Y68.37 E0.33054
G1 X71.619 Y68.023 E0.41085
G1 X72.153 Y67.6 E0.49242
G1 X72.63 Y67.113 E0.57404
G1 X73.138 Y66.441 E0.67491
G1 X73.554 Y65.937 E0.75316
G1 X73.687 Y65.789 E0.77698
G1 X74.166 Y65.304 E0.8586
G1 X74.291 Y65.188 E0.87902
G1 X74.81 Y64.75 E0.96034
G1 X74.958 Y64.634 E0.98285
G1 X75.463 Y64.273 E1.05718
G1 X76.623 Y63.503 E1.22389
G1 X77.245 Y63.128 E1.31085
G1 X77.421 Y63.032 E1.33486
G1 X78.003 Y62.748 E1.4124
G1 X78.201 Y62.662 E1.43825
G1 X78.802 Y62.434 E1.51521
G1 X78.994 Y62.37 E1.53945
G1 X79.628 Y62.19 E1.61836
G1 X79.812 Y62.148 E1.64096
G1 X80.453 Y61.955 E1.72111
G1 X81.078 Y61.677 E1.80302
G1 X81.656 Y61.327 E1.88392
G1 X81.971 Y61.09 E1.93112
G1 X82.456 Y60.698 E2.00579
G1 X82.596 Y60.594 E2.02667
G1 X83.168 Y60.208 E2.1093
G1 X83.307 Y60.123 E2.12881
G1 X83.893 Y59.801 E2.20887
G1 X84.092 Y59.705 E2.23532
G1 X84.994 Y59.326 E2.35247
G1 X85.164 Y59.26 E2.37431
G1 X86.432 Y58.819 E2.53506
G1 X87.102 Y58.618 E2.61881
G1 X87.326 Y58.562 E2.64646
G1 X87.952 Y58.433 E2.72299
G1 X88.17 Y58.398 E2.74942
G1 X88.801 Y58.327 E2.82545
G1 X89.007 Y58.312 E2.85019
G1 X89.665 Y58.297 E2.92899
G1 X89.865 Y58.301 E2.95294
G1 X90.534 Y58.274 E3.03311
G1 X91.207 Y58.159 E3.11486
G1 X91.856 Y57.963 E3.19604
G1 X92.302 Y57.774 E3.25404
G1 X92.597 Y57.632 E3.29324
G1 X92.818 Y57.537 E3.32204
G1 X93.426 Y57.31 E3.39975
G1 X93.586 Y57.258 E3.4199
G1 X94.244 Y57.076 E3.50164
G1 X94.436 Y57.033 E3.5252
G1 X95.257 Y56.889 E3.625
G1 X95.665 Y56.844 E3.67415
G1 X97.112 Y56.722 E3.84803
G1 X97.829 Y56.693 E3.93395
G1 X98.02 Y56.694 E3.95682
G1 X98.676 Y56.725 E4.03545
G1 X98.895 Y56.746 E4.06179
G1 X99.528 Y56.833 E4.1383
G1 X99.72 Y56.868 E4.16167
G1 X100.386 Y57.022 E4.24352
G1 X100.571 Y57.074 E4.26653
G1 X101.226 Y57.213 E4.3467
G1 X101.906 Y57.269 E4.4284
G1 X102.586 Y57.239 E4.5099
G1 X103.097 Y57.158 E4.57185
G1 X103.281 Y57.12 E4.59434
G1 X103.515 Y57.081 E4.62275
G1 X104.142 Y57.009 E4.69832
G1 X104.353 Y56.994 E4.72364
G1 X105.005 Y56.977 E4.80174
G1 X105.216 Y56.981 E4.82701
G1 X105.878 Y57.022 E4.90643
G1 X106.051 Y57.04 E4.92725
G1 X106.53 Y57.107 E4.98516
G1 X107.929 Y57.341 E5.155
G1 X108.634 Y57.491 E5.24131
G1 X108.829 Y57.542 E5.26544
G1 X109.45 Y57.734 E5.34327
G1 X109.651 Y57.807 E5.36887
G1 X110.25 Y58.052 E5.44636
G1 X110.432 Y58.136 E5.47036
G1 X111.022 Y58.443 E5.55
G1 X111.211 Y58.551 E5.57607
G1 X111.811 Y58.847 E5.65617
G1 X112.457 Y59.069 E5.73796
G1 X113.123 Y59.208 E5.81943
G1 X113.651 Y59.257 E5.88292
G1 X113.787 Y59.263 E5.89922
G1 X114.01 Y59.282 E5.92602
G1 X114.653 Y59.367 E6.00368
G1 X114.871 Y59.407 E6.03022
G1 X115.492 Y59.545 E6.10639
G1 X115.678 Y59.595 E6.12945
G1 X116.476 Y59.856 E6.22998
G1 X116.988 Y60.064 E6.29615
G1 X118.274 Y60.634 E6.46458
G1 X118.939 Y60.965 E6.55352
G1 X119.084 Y61.046 E6.57341
G1 X119.664 Y61.402 E6.65489
G1 X119.838 Y61.52 E6.68007
G1 X120.367 Y61.914 E6.75904
G1 X120.512 Y62.033 E6.7815
G1 X121.001 Y62.47 E6.86003
G1 X121.156 Y62.622 E6.88602
G1 X121.664 Y63.059 E6.96626
G1 X122.233 Y63.436 E7.04799
G1 X122.842 Y63.738 E7.12938
G1 X123.343 Y63.917 E7.19308
G1 X123.544 Y63.978 E7.21823
G1 X123.71 Y64.038 E7.23937
G1 X124.327 Y64.288 E7.31908
G1 X124.52 Y64.378 E7.34458
G1 X125.086 Y64.669 E7.42078
G1 X125.283 Y64.781 E7.44791
G1 X125.828 Y65.126 E7.52515
G1 X126.004 Y65.248 E7.55079
G1 X126.388 Y65.535 E7.60819
G1 X127.48 Y66.4 E7.77499
G1 X128.056 Y66.898 E7.86616
G1 X128.189 Y67.025 E7.88818
G1 X128.644 Y67.495 E7.96651
G1 X128.773 Y67.642 E7.98993
G1 X129.197 Y68.169 E8.07092
G1 X129.313 Y68.326 E8.09429
G1 X129.666 Y68.854 E8.17034
G1 X129.77 Y69.026 E8.1944
G1 X130.152 Y69.577 E8.27468
G1 X130.609 Y70.085 E8.3565
G1 X131.125 Y70.529 E8.43801
G1 X131.169 Y70.558 E8.44432
G1 X131.164 Y70.566 E8.44545
G1 X131.77 Y70.96 E8.532
G1 X132.32 Y71.352 E8.61287
G1 X132.461 Y71.462 E8.63428
G1 X132.969 Y71.899 E8.71451
G1 X133.111 Y72.033 E8.73789
G1 X133.587 Y72.522 E8.8196
G1 X133.711 Y72.661 E8.84191
G1 X134.141 Y73.188 E8.92335
G1 X134.971 Y74.28 E9.08758
G1 X135.389 Y74.883 E9.17543
G1 X135.502 Y75.063 E9.20088
G1 X135.822 Y75.627 E9.27852
G1 X135.911 Y75.801 E9.30193
G1 X136.191 Y76.417 E9.38295
G1 X136.255 Y76.577 E9.40358
G1 X136.482 Y77.225 E9.48579
G1 X136.529 Y77.383 E9.50553
G1 X136.762 Y78.011 E9.58573
G1 X137.077 Y78.617 E9.66751
G1 X137.463 Y79.174 E9.74865
G1 X137.729 Y79.485 E9.79765
G1 X138.136 Y79.925 E9.86942
G1 X138.261 Y80.074 E9.89271
G1 X138.656 Y80.586 E9.97014
G1 X138.789 Y80.775 E9.99781
G1 X139.118 Y81.292 E10.07118
G1 X139.231 Y81.493 E10.09879
G1 X139.679 Y82.393 E10.21917
G1 X139.74 Y82.528 E10.23691
G1 X140.268 Y83.784 E10.40004
G1 X140.512 Y84.442 E10.48407
G1 X140.585 Y84.668 E10.51251
G1 X140.755 Y85.296 E10.59041
G1 X140.794 Y85.473 E10.61211
G1 X140.909 Y86.123 E10.69115
G1 X140.936 Y86.327 E10.71579
G1 X140.992 Y86.974 E10.79355
G1 X141.002 Y87.182 E10.81848
G1 X141.073 Y87.849 E10.8988
G1 X141.231 Y88.513 E10.98052
G1 X141.469 Y89.146 E11.0615
G1 X141.622 Y89.457 E11.103
G1 X141.935 Y90.047 E11.18297
G1 X142.03 Y90.248 E11.20959
G1 X142.287 Y90.857 E11.28873
G1 X142.36 Y91.052 E11.31366
G1 X142.552 Y91.65 E11.38887
G1 X142.609 Y91.866 E11.41562
G1 X142.829 Y92.932 E11.54594
G1 X143.029 Y94.293 E11.71066
G1 X143.104 Y95.012 E11.79721
G1 X143.115 Y95.204 E11.82024
G1 X143.124 Y95.859 E11.89868
G1 X143.118 Y96.065 E11.92335
G1 X143.067 Y96.74 E12.0044
G1 X143.048 Y96.899 E12.02358
G1 X142.933 Y97.59 E12.10745
G1 X142.896 Y97.763 E12.12864
G1 X142.798 Y98.426 E12.20888
G1 X142.785 Y99.109 E12.29068
G1 X142.857 Y99.785 E12.37208
G1 X142.979 Y100.33 E12.43895
G1 X143.015 Y100.456 E12.45464
G1 X143.056 Y100.63 E12.47605
G1 X143.178 Y101.279 E12.55512
G1 X143.205 Y101.468 E12.57798
G1 X143.27 Y102.135 E12.65822
G1 X143.281 Y102.329 E12.68148
G1 X143.285 Y103.004 E12.76231
G1 X143.279 Y103.194 E12.78507
G1 X143.239 Y103.745 E12.85122
G1 X143.095 Y105.129 E13.01783
G1 X142.988 Y105.855 E13.1057
G1 X142.946 Y106.07 E13.13193
G1 X142.8 Y106.676 E13.20656
G1 X142.731 Y106.915 E13.23635
G1 X142.535 Y107.498 E13.30999
G1 X142.454 Y107.707 E13.33683
G1 X142.195 Y108.293 E13.41354
G1 X142.098 Y108.49 E13.43984
G1 X141.838 Y109.108 E13.52012
G1 X141.656 Y109.765 E13.60175
G1 X141.558 Y110.439 E13.6833
G1 X141.541 Y111.001 E13.75062
G1 X141.544 Y111.109 E13.76356
G1 X141.54 Y111.304 E13.78691
G1 X141.499 Y111.952 E13.86465
G1 X141.476 Y112.161 E13.88983
G1 X141.378 Y112.796 E13.96676
G1 X141.339 Y112.991 E13.99057
G1 X141.171 Y113.663 E14.07351
G1 X141.127 Y113.815 E14.09246
G1 X140.938 Y114.382 E14.16402
G1 X140.444 Y115.708 E14.33345
G1 X140.17 Y116.358 E14.41792
G1 X140.083 Y116.541 E14.44218
G1 X139.779 Y117.114 E14.51984
G1 X139.673 Y117.294 E14.54486
G1 X139.313 Y117.844 E14.62356
G1 X139.186 Y118.022 E14.64975
G1 X138.801 Y118.512 E14.72436
G1 X138.657 Y118.678 E14.75067
G1 X138.252 Y119.213 E14.83102
G1 X137.912 Y119.805 E14.91276
G1 X137.649 Y120.433 E14.99428
G1 X137.417 Y121.263 E15.09747
G1 X137.221 Y121.868 E15.17362
G1 X137.143 Y122.077 E15.20033
G1 X136.902 Y122.641 E15.27377
G1 X136.796 Y122.861 E15.30301
G1 X136.489 Y123.43 E15.38042
G1 X136.384 Y123.61 E15.40537
G1 X136.059 Y124.112 E15.47698
G1 X135.244 Y125.281 E15.64761
G1 X134.837 Y125.817 E15.7282
G1 X134.714 Y125.965 E15.75124
G1 X134.279 Y126.441 E15.82845
G1 X134.099 Y126.621 E15.85893
G1 X133.652 Y127.031 E15.93155
G1 X133.464 Y127.187 E15.9608
G1 X132.963 Y127.57 E16.03631
G1 X132.803 Y127.68 E16.05956
G1 X132.277 Y128.097 E16.13993
G1 X131.799 Y128.585 E16.22173
G1 X131.387 Y129.129 E16.30344
G1 X131.346 Y129.2 E16.31325
G1 X131.339 Y129.196 E16.31422
G1 X130.984 Y129.824 E16.40059
G1 X130.65 Y130.36 E16.47621
G1 X130.528 Y130.537 E16.50195
G1 X130.139 Y131.052 E16.57923
G1 X130.009 Y131.21 E16.60373
G1 X129.565 Y131.698 E16.68273
G1 X129.418 Y131.847 E16.70779
G1 X128.919 Y132.31 E16.7893
G1 X127.857 Y133.225 E16.95714
G1 X127.307 Y133.659 E17.04103
G1 X127.148 Y133.774 E17.06453
G1 X126.601 Y134.132 E17.1428
G1 X126.416 Y134.241 E17.16851
G1 X125.848 Y134.543 E17.24554
G1 X125.647 Y134.639 E17.27221
G1 X125.077 Y134.881 E17.34636
G1 X124.882 Y134.953 E17.37125
G1 X124.269 Y135.226 E17.4516
G1 X123.686 Y135.58 E17.53326
G1 X123.154 Y136.003 E17.61464
G1 X122.309 Y136.849 E17.75782
G1 X122.127 Y137.015 E17.78731
G1 X121.655 Y137.41 E17.86101
G1 X121.48 Y137.544 E17.8874
G1 X120.943 Y137.916 E17.96562
G1 X120.772 Y138.023 E17.98977
G1 X119.959 Y138.478 E18.10132
G1 X118.726 Y139.087 E18.26598
G1 X118.074 Y139.377 E18.35143
G1 X117.883 Y139.45 E18.37591
G1 X117.259 Y139.663 E18.45486
G1 X117.079 Y139.715 E18.47729
G1 X116.43 Y139.873 E18.55727
G1 X116.23 Y139.912 E18.58167
G1 X115.585 Y140.008 E18.65975
G1 X115.404 Y140.027 E18.68154
G1 X114.743 Y140.139 E18.76182
G1 X114.09 Y140.336 E18.84348
G1 X113.471 Y140.613 E18.92468
G1 X113.163 Y140.787 E18.96704
G1 X112.552 Y141.161 E19.05282
G1 X112.375 Y141.259 E19.07704
G1 X111.802 Y141.543 E19.15362
G1 X111.594 Y141.635 E19.18085
G1 X111.004 Y141.865 E19.25667
G1 X110.794 Y141.934 E19.28314
G1 X109.894 Y142.182 E19.39492
G1 X109.73 Y142.222 E19.41513
G1 X108.424 Y142.499 E19.57498
G1 X107.688 Y142.622 E19.66433
G1 X107.522 Y142.642 E19.68435
G1 X106.851 Y142.694 E19.76494
G1 X106.657 Y142.701 E19.78818
G1 X105.974 Y142.691 E19.86997
G1 X105.813 Y142.682 E19.88928
G1 X105.165 Y142.616 E19.96727
G1 X104.947 Y142.584 E19.99365
G1 X104.278 Y142.527 E20.07404
G1 X103.597 Y142.556 E20.15566
G1 X102.928 Y142.67 E20.23692
G1 X102.478 Y142.798 E20.29294
G1 X102.1 Y142.922 E20.34057
G1 X101.907 Y142.976 E20.36457
G1 X101.269 Y143.124 E20.44299
G1 X101.06 Y143.164 E20.46846
G1 X100.414 Y143.255 E20.54658
G1 X100.219 Y143.274 E20.57004
G1 X99.393 Y143.311 E20.66904
G1 X98.994 Y143.302 E20.71683
G1 X97.585 Y143.246 E20.88567
G1 X96.884 Y143.185 E20.96992
G1 X96.657 Y143.156 E20.99732
G1 X96.04 Y143.049 E21.0723
G1 X95.822 Y143.001 E21.09903
G1 X95.204 Y142.835 E21.17565
G1 X94.995 Y142.768 E21.20193
G1 X94.391 Y142.546 E21.27898
G1 X94.184 Y142.459 E21.30587
G1 X93.551 Y142.24 E21.38607
G1 X92.882 Y142.099 E21.46793
G1 X92.206 Y142.045 E21.54913
G1 X91.742 Y142.056 E21.6047
G1 X91.385 Y142.081 E21.64755
G1 X91.194 Y142.086 E21.67043
G1 X90.539 Y142.073 E21.74887
G1 X90.313 Y142.059 E21.77599
G1 X89.68 Y141.99 E21.85223
G1 X89.466 Y141.956 E21.87817
G1 X88.672 Y141.793 E21.97523
G1 X88.257 Y141.68 E22.02673
G1 X86.877 Y141.262 E22.19938
G1 X86.214 Y141.03 E22.28348
G1 X86.031 Y140.957 E22.30707
G1 X85.437 Y140.686 E22.38525
G1 X85.239 Y140.586 E22.41181
G1 X84.681 Y140.271 E22.48853
G1 X84.508 Y140.162 E22.51302
G1 X83.969 Y139.79 E22.59143
G1 X83.817 Y139.674 E22.61433
G1 X83.258 Y139.303 E22.69466
G1 X82.647 Y138.999 E22.77637
G1 X82.002 Y138.776 E22.85809
G1 X81.941 Y138.763 E22.86556
G1 X81.943 Y138.753 E22.86678
G1 X81.227 Y138.61 E22.9542
G1 X80.587 Y138.45 E23.03319
G1 X80.409 Y138.396 E23.05546
G1 X79.793 Y138.183 E23.13351
G1 X79.589 Y138.103 E23.15974
G1 X78.981 Y137.829 E23.23959
G1 X78.809 Y137.742 E23.26267
G1 X78.198 Y137.4 E23.34651
G1 X77.044 Y136.703 E23.50794
G1 X76.435 Y136.297 E23.59558
G1 X76.291 Y136.192 E23.61692
G1 X75.763 Y135.767 E23.69807
G1 X75.612 Y135.634 E23.72217
G1 X75.151 Y135.191 E23.79872
G1 X74.996 Y135.028 E23.82565
G1 X74.577 Y134.544 E23.9023
G1 X74.457 Y134.393 E23.9254
G1 X74.01 Y133.895 E24.00552
G1 X73.492 Y133.449 E24.08737
G1 X72.928 Y133.073 E24.16853
G1 X72.549 Y132.875 E24.21973
G1 X72.29 Y132.752 E24.25406
G1 X71.695 Y132.437 E24.33467
G1 X71.533 Y132.341 E24.35722
G1 X70.987 Y131.988 E24.43507
G1 X70.804 Y131.856 E24.46209
G1 X70.308 Y131.466 E24.53764
G1 X70.141 Y131.322 E24.56404
G1 X69.609 Y130.821 E24.65154
G1 X68.634 Y129.826 E24.81834
G1 X68.144 Y129.281 E24.9061
G1 X68.019 Y129.129 E24.92966
G1 X67.622 Y128.598 E25.00905
G1 X67.511 Y128.435 E25.03266
G1 X67.168 Y127.88 E25.11078
G1 X67.074 Y127.711 E25.13393
G1 X66.772 Y127.106 E25.2149
G1 X66.697 Y126.938 E25.23693
G1 X66.387 Y126.345 E25.31705
G1 X65.997 Y125.785 E25.39876
G1 X65.541 Y125.28 E25.48023
G1 X64.64 Y124.488 E25.62387
G1 X64.491 Y124.346 E25.64851
G1 X64.044 Y123.874 E25.72635
G1 X63.91 Y123.719 E25.75088
G1 X63.509 Y123.214 E25.82809
G1 X63.382 Y123.037 E25.85418
G1 X62.867 Y122.236 E25.9682
G1 X62.188 Y121.059 E26.1309
G1 X61.846 Y120.402 E26.21959
G1 X61.779 Y120.257 E26.23871
G1 X61.522 Y119.633 E26.31952
G1 X61.454 Y119.445 E26.34345
G1 X61.265 Y118.837 E26.41969
G1 X61.2 Y118.588 E26.4505
G1 X61.07 Y117.981 E26.52483
G1 X61.036 Y117.78 E26.54924
G1 X60.881 Y117.128 E26.62948
G1 X60.642 Y116.489 E26.71117
G1 X60.327 Y115.89 E26.79221
G1 X60.117 Y115.573 E26.83774
G1 X59.763 Y115.076 E26.9108
G1 X59.654 Y114.909 E26.93468
G1 X59.33 Y114.355 E27.01152
G1 X59.216 Y114.139 E27.04077
G1 X58.965 Y113.604 E27.11152
G1 X58.866 Y113.362 E27.14283
G1 X58.497 Y112.285 E27.27915
G1 X58.123 Y110.938 E27.44653
G1 X57.971 Y110.284 E27.52693
G1 X57.932 Y110.079 E27.55191
G1 X57.839 Y109.414 E27.63231
G1 X57.823 Y109.242 E27.653
G1 X57.79 Y108.555 E27.73535
G1 X57.789 Y108.38 E27.75631
G1 X57.816 Y107.718 E27.83564
G1 X57.832 Y107.526 E27.85871
G1 X57.846 Y106.856 E27.93895
G1 X57.774 Y106.177 E28.0207
G1 X57.618 Y105.517 E28.10191
G1 X57.477 Y105.113 E28.15314
G1 X57.299 Y104.661 E28.21131
G1 X57.233 Y104.466 E28.23596
G1 X57.044 Y103.829 E28.31552
G1 X56.997 Y103.634 E28.33953
G1 X56.875 Y103.018 E28.41472
G1 X56.839 Y102.767 E28.44509
G1 X56.745 Y101.702 E28.5731
G1 X56.74 Y101.581 E28.5876
G1 X56.711 Y100.223 E28.75024
G1 X56.728 Y99.486 E28.83851
G1 X56.742 Y99.291 E28.86192
G1 X56.818 Y98.613 E28.94361
G1 X56.842 Y98.46 E28.96215
G1 X56.982 Y97.774 E29.04598
G1 X57.026 Y97.6 E29.06747
G1 X57.207 Y96.993 E29.14332
G1 X57.278 Y96.794 E29.16862
G1 X57.459 Y96.148 E29.24894
G1 X57.558 Y95.473 E29.33063
G1 X57.573 Y94.793 E29.41207
G1 X57.529 Y94.295 E29.47193
G1 X57.483 Y93.964 E29.51195
G1 X57.468 Y93.796 E29.53214
G1 X57.437 Y93.117 E29.61353
G1 X57.437 Y92.929 E29.63604
G1 X57.465 Y92.289 E29.71274
G1 X57.486 Y92.044 E29.74219
G1 X57.57 Y91.412 E29.81852
G1 X57.603 Y91.22 E29.84185
G1 X57.69 Y90.795 E29.89379
G1 X58.014 Y89.417 E30.06329
G1 X58.206 Y88.729 E30.14882
G1 X58.263 Y88.555 E30.17074
G1 X58.504 Y87.921 E30.25195
G1 X58.574 Y87.759 E30.27308
G1 X58.867 Y87.156 E30.35336
G1 X58.961 Y86.983 E30.37693
G1 X59.293 Y86.431 E30.45406
G1 X59.423 Y86.234 E30.48232
G1 X59.757 Y85.653 E30.56256
G1 X60.019 Y85.022 E30.64437
G1 X60.199 Y84.368 E30.72559
G1 X60.279 Y83.867 E30.78634
G1 X60.306 Y83.619 E30.81621
G1 X60.334 Y83.442 E30.83767
G1 X60.466 Y82.79 E30.91732
G1 X60.517 Y82.588 E30.94226
G1 X60.698 Y81.978 E31.01845
G1 X60.773 Y81.759 E31.04617
G1 X61.079 Y81.006 E31.14349
G1 X61.286 Y80.58 E31.2002
G1 X61.957 Y79.296 E31.37367
G1 X62.304 Y78.697 E31.45656
G1 X62.425 Y78.508 E31.48343
G1 X62.811 Y77.961 E31.56359
G1 X62.916 Y77.824 E31.58426
G1 X63.354 Y77.308 E31.6653
G1 X63.493 Y77.158 E31.68978
G1 X63.954 Y76.706 E31.76709
G1 X64.095 Y76.579 E31.78981
G1 X64.563 Y76.101 E31.86991
G1 X64.976 Y75.556 E31.95179
G1 X65.324 Y74.946 E32.03588
G1 X65.337 Y74.952 E32.03759
G1 X65.617 Y74.258 E32.1272
G1 X65.878 Y73.686 E32.20248
