;FLAVOR:Marlin
;TIME:15984
;Filament used: 8.9m
;Layer height: 0.2
;MINX:21.5
;MINY:57
;MINZ:0.3
;MAXX:178.5
;MAXY:143
;MAXZ:8.5
;Generated with Cura_SteamEngine 4.2.1
M140 S70
M105
M190 S70
M104 S210
M105
M109 S210
M82 ;absolute extrusion mode
G21 ;metric values
G90 ;absolute positioning
M82 ;set extruder to absolute mode
M107 ;start with the fan off
G28 X0 Y0 ;move X/Y to min endstops
G28 Z0 ;move Z to min endstops
G1 Z15.0 F225 ;move the platform down 15mm
G92 E0 ;zero the extruded length
G1 F140 E30 ;extrude 3mm of feed stock
G1 X20 Y0 F140 E30
G92 E0 ;zero the extruded length again
G1 F225
M117 ;Printing...
M141 S28
G92 E0
G92 E0
G1 F1500 E-6.5
;LAYER_COUNT:42
;LAYER:0
M107 P1
G0 F600 X28.177 Y58.656 Z0.3
;TYPE:SKIRT
G1 F1500 E0
G1 F1080 X29.756 Y57.91 E0.08713
G1 X30.248 Y57.729 E0.11328
G1 X31.925 Y57.271 E0.20001
G1 X32.44 Y57.178 E0.22612
G1 X34.178 Y57.018 E0.3132
G1 X34.452 Y57.005 E0.32688
G1 X60.032 Y57 E1.60307
G1 X165.498 Y57 E6.86479
G1 X165.759 Y57.011 E6.87782
G1 X167.449 Y57.158 E6.96246
G1 X167.951 Y57.245 E6.98788
G1 X169.635 Y57.687 E7.07474
G1 X170.129 Y57.865 E7.10093
G1 X171.714 Y58.596 E7.18801
G1 X172.168 Y58.855 E7.21409
G1 X173.597 Y59.846 E7.30085
G1 X173.998 Y60.179 E7.32685
G1 X175.235 Y61.404 E7.41371
G1 X175.573 Y61.803 E7.4398
G1 X176.58 Y63.226 E7.52677
G1 X176.844 Y63.677 E7.55284
G1 X177.59 Y65.256 E7.63997
G1 X177.771 Y65.748 E7.66612
G1 X178.229 Y67.425 E7.75285
G1 X178.322 Y67.94 E7.77896
G1 X178.482 Y69.676 E7.86594
G1 X178.495 Y69.95 E7.87962
G1 X178.5 Y83.332 E8.54725
G1 X178.5 Y129.999 E10.87548
G1 X178.489 Y130.259 E10.88846
G1 X178.342 Y131.949 E10.9731
G1 X178.255 Y132.451 E10.99851
G1 X177.813 Y134.134 E11.08533
G1 X177.636 Y134.628 E11.11151
G1 X176.905 Y136.214 E11.19863
G1 X176.645 Y136.668 E11.22473
G1 X175.654 Y138.097 E11.31149
G1 X175.321 Y138.498 E11.3375
G1 X174.096 Y139.735 E11.42435
G1 X173.697 Y140.073 E11.45044
G1 X172.274 Y141.08 E11.53741
G1 X171.823 Y141.344 E11.56349
G1 X170.244 Y142.09 E11.65061
G1 X169.752 Y142.271 E11.67677
G1 X168.075 Y142.729 E11.7635
G1 X167.56 Y142.822 E11.7896
G1 X165.822 Y142.982 E11.87668
G1 X165.548 Y142.995 E11.89037
G1 X143.803 Y143 E12.97523
G1 X34.502 Y143 E18.42828
G1 X34.241 Y142.989 E18.44131
G1 X32.551 Y142.842 E18.52594
G1 X32.049 Y142.755 E18.55136
G1 X30.365 Y142.313 E18.63822
G1 X29.871 Y142.135 E18.66442
G1 X28.286 Y141.404 E18.7515
G1 X27.832 Y141.145 E18.77758
G1 X26.403 Y140.154 E18.86434
G1 X26.002 Y139.821 E18.89034
G1 X24.765 Y138.596 E18.97719
G1 X24.427 Y138.196 E19.00332
G1 X23.42 Y136.772 E19.09033
G1 X23.157 Y136.322 E19.11634
G1 X22.411 Y134.744 E19.20342
G1 X22.229 Y134.252 E19.22959
G1 X21.771 Y132.575 E19.31632
G1 X21.678 Y132.06 E19.34243
G1 X21.518 Y130.324 E19.42941
G1 X21.505 Y130.05 E19.44309
G1 X21.5 Y116.668 E20.11072
G1 X21.5 Y70.001 E22.43895
G1 X21.511 Y69.741 E22.45193
G1 X21.658 Y68.051 E22.53656
G1 X21.745 Y67.549 E22.56198
G1 X22.187 Y65.866 E22.64879
G1 X22.364 Y65.372 E22.67497
G1 X23.095 Y63.786 E22.7621
G1 X23.355 Y63.332 E22.7882
G1 X24.346 Y61.903 E22.87496
G1 X24.679 Y61.502 E22.90097
G1 X25.904 Y60.265 E22.98782
G1 X26.303 Y59.927 E23.01391
G1 X27.726 Y58.92 E23.10088
G1 X28.177 Y58.656 E23.12695
G0 F600 X28.348 Y59.018
G1 F1080 X29.927 Y58.272 E23.21408
G1 X30.353 Y58.115 E23.23673
G1 X32.03 Y57.657 E23.32346
G1 X32.477 Y57.576 E23.34612
G1 X34.215 Y57.416 E23.4332
G1 X34.452 Y57.405 E23.44504
G1 X60.032 Y57.4 E24.72123
G1 X165.498 Y57.4 E29.98295
G1 X165.724 Y57.41 E29.99423
G1 X167.414 Y57.557 E30.07887
G1 X167.849 Y57.632 E30.10089
G1 X169.533 Y58.074 E30.18775
G1 X169.962 Y58.228 E30.21049
G1 X171.547 Y58.959 E30.29757
G1 X171.94 Y59.183 E30.32014
G1 X173.369 Y60.174 E30.4069
G1 X173.716 Y60.464 E30.42946
G1 X174.953 Y61.689 E30.51631
G1 X175.246 Y62.034 E30.5389
G1 X176.253 Y63.457 E30.62587
G1 X176.482 Y63.848 E30.64847
G1 X177.228 Y65.427 E30.7356
G1 X177.385 Y65.853 E30.75825
G1 X177.843 Y67.53 E30.84498
G1 X177.924 Y67.976 E30.8676
G1 X178.084 Y69.712 E30.95457
G1 X178.095 Y69.95 E30.96646
G1 X178.1 Y83.332 E31.63409
G1 X178.1 Y129.998 E33.96227
G1 X178.09 Y130.224 E33.97355
G1 X177.943 Y131.914 E34.05819
G1 X177.868 Y132.349 E34.08021
G1 X177.426 Y134.032 E34.16702
G1 X177.272 Y134.46 E34.18971
G1 X176.541 Y136.046 E34.27684
G1 X176.317 Y136.44 E34.29945
G1 X175.326 Y137.869 E34.38621
G1 X175.036 Y138.216 E34.40877
G1 X173.811 Y139.453 E34.49563
G1 X173.466 Y139.746 E34.51821
G1 X172.043 Y140.753 E34.60518
G1 X171.652 Y140.982 E34.62779
G1 X170.073 Y141.728 E34.71491
G1 X169.647 Y141.885 E34.73756
G1 X167.97 Y142.343 E34.82429
G1 X167.523 Y142.424 E34.84696
G1 X165.785 Y142.584 E34.93403
G1 X165.548 Y142.595 E34.94587
G1 X143.803 Y142.6 E36.03073
G1 X34.502 Y142.6 E41.48378
G1 X34.276 Y142.59 E41.49507
G1 X32.586 Y142.443 E41.5797
G1 X32.151 Y142.368 E41.60172
G1 X30.467 Y141.926 E41.68858
G1 X30.038 Y141.772 E41.71132
G1 X28.453 Y141.041 E41.7984
G1 X28.06 Y140.817 E41.82097
G1 X26.631 Y139.826 E41.90773
G1 X26.284 Y139.536 E41.93029
G1 X25.047 Y138.311 E42.01715
G1 X24.753 Y137.965 E42.0398
G1 X23.746 Y136.541 E42.12681
G1 X23.518 Y136.151 E42.14935
G1 X22.772 Y134.573 E42.23643
G1 X22.615 Y134.147 E42.25908
G1 X22.157 Y132.47 E42.34581
G1 X22.076 Y132.024 E42.36843
G1 X21.916 Y130.288 E42.4554
G1 X21.905 Y130.05 E42.46729
G1 X21.9 Y116.668 E43.13492
G1 X21.9 Y70.002 E45.4631
G1 X21.91 Y69.776 E45.47438
G1 X22.057 Y68.086 E45.55902
G1 X22.132 Y67.651 E45.58104
G1 X22.574 Y65.968 E45.66785
G1 X22.728 Y65.54 E45.69054
G1 X23.459 Y63.954 E45.77767
G1 X23.683 Y63.56 E45.80028
G1 X24.674 Y62.131 E45.88704
G1 X24.964 Y61.784 E45.9096
G1 X26.189 Y60.547 E45.99646
G1 X26.534 Y60.254 E46.01904
G1 X27.957 Y59.247 E46.10601
G1 X28.348 Y59.018 E46.12862
G0 F600 X28.519 Y59.38
G1 F1080 X30.098 Y58.634 E46.21574
G1 X30.458 Y58.501 E46.23489
G1 X32.135 Y58.043 E46.32162
G1 X32.513 Y57.974 E46.34079
G1 X34.251 Y57.814 E46.42787
G1 X34.453 Y57.805 E46.43795
G1 X60.033 Y57.8 E47.71415
G1 X165.499 Y57.8 E52.97587
G1 X165.69 Y57.808 E52.9854
G1 X167.38 Y57.955 E53.07004
G1 X167.748 Y58.019 E53.08867
G1 X169.432 Y58.461 E53.17553
G1 X169.794 Y58.591 E53.19472
G1 X171.379 Y59.322 E53.2818
G1 X171.712 Y59.512 E53.30093
G1 X173.141 Y60.503 E53.38769
G1 X173.435 Y60.748 E53.40678
G1 X174.672 Y61.973 E53.49364
G1 X174.92 Y62.265 E53.51275
G1 X175.927 Y63.688 E53.59972
G1 X176.12 Y64.019 E53.61884
G1 X176.866 Y65.598 E53.70596
G1 X176.999 Y65.958 E53.72511
G1 X177.457 Y67.635 E53.81184
G1 X177.526 Y68.013 E53.83101
G1 X177.686 Y69.749 E53.91799
G1 X177.695 Y69.95 E53.92803
G1 X177.7 Y83.332 E54.59566
G1 X177.7 Y129.998 E56.92383
G1 X177.692 Y130.19 E56.93342
G1 X177.545 Y131.88 E57.01805
G1 X177.481 Y132.248 E57.03669
G1 X177.039 Y133.931 E57.1235
G1 X176.909 Y134.293 E57.14269
G1 X176.178 Y135.879 E57.22982
G1 X175.988 Y136.212 E57.24894
G1 X174.997 Y137.641 E57.3357
G1 X174.752 Y137.935 E57.3548
G1 X173.527 Y139.172 E57.44165
G1 X173.235 Y139.42 E57.46076
G1 X171.812 Y140.427 E57.54773
G1 X171.481 Y140.62 E57.56685
G1 X169.902 Y141.366 E57.65398
G1 X169.542 Y141.499 E57.67312
G1 X167.865 Y141.957 E57.75985
G1 X167.487 Y142.026 E57.77902
G1 X165.749 Y142.186 E57.8661
G1 X165.548 Y142.195 E57.87614
G1 X143.803 Y142.2 E58.961
G1 X34.502 Y142.2 E64.41405
G1 X34.31 Y142.192 E64.42364
G1 X32.62 Y142.045 E64.50827
G1 X32.252 Y141.981 E64.5269
G1 X30.568 Y141.539 E64.61377
G1 X30.206 Y141.409 E64.63295
G1 X28.621 Y140.678 E64.72004
G1 X28.288 Y140.488 E64.73916
G1 X26.859 Y139.497 E64.82592
G1 X26.565 Y139.252 E64.84502
G1 X25.328 Y138.027 E64.93187
G1 X25.08 Y137.734 E64.95102
G1 X24.073 Y136.31 E65.03803
G1 X23.88 Y135.98 E65.05711
G1 X23.134 Y134.402 E65.14419
G1 X23.001 Y134.042 E65.16333
G1 X22.543 Y132.365 E65.25006
G1 X22.474 Y131.987 E65.26923
G1 X22.314 Y130.251 E65.35621
G1 X22.305 Y130.05 E65.36625
G1 X22.3 Y116.668 E66.03388
G1 X22.3 Y70.002 E68.36206
G1 X22.308 Y69.81 E68.37164
G1 X22.455 Y68.12 E68.45628
G1 X22.519 Y67.752 E68.47491
G1 X22.961 Y66.069 E68.56172
G1 X23.091 Y65.707 E68.58091
G1 X23.822 Y64.121 E68.66804
G1 X24.012 Y63.788 E68.68717
G1 X25.003 Y62.359 E68.77393
G1 X25.248 Y62.065 E68.79302
G1 X26.473 Y60.828 E68.87987
G1 X26.765 Y60.58 E68.89899
G1 X28.188 Y59.573 E68.98596
G1 X28.519 Y59.38 E69.00507
G0 F600 X28.69 Y59.741
G1 F1080 X30.269 Y58.995 E69.0922
G1 X30.564 Y58.887 E69.10787
G1 X32.241 Y58.429 E69.1946
G1 X32.55 Y58.373 E69.21027
G1 X34.288 Y58.213 E69.29735
G1 X34.453 Y58.205 E69.30559
G1 X60.033 Y58.2 E70.58178
G1 X165.499 Y58.2 E75.8435
G1 X165.655 Y58.207 E75.85129
G1 X167.345 Y58.354 E75.93592
G1 X167.646 Y58.406 E75.95116
G1 X169.33 Y58.848 E76.03802
G1 X169.627 Y58.954 E76.05376
G1 X171.212 Y59.685 E76.14084
G1 X171.484 Y59.841 E76.15648
G1 X172.913 Y60.832 E76.24324
G1 X173.154 Y61.032 E76.25886
G1 X174.391 Y62.257 E76.34572
G1 X174.593 Y62.496 E76.36133
G1 X175.6 Y63.919 E76.4483
G1 X175.759 Y64.19 E76.46398
G1 X176.505 Y65.769 E76.5511
G1 X176.613 Y66.064 E76.56678
G1 X177.071 Y67.741 E76.65351
G1 X177.127 Y68.05 E76.66917
G1 X177.287 Y69.786 E76.75615
G1 X177.295 Y69.95 E76.76434
G1 X177.3 Y83.332 E77.43197
G1 X177.3 Y129.998 E79.76015
G1 X177.293 Y130.155 E79.76799
G1 X177.146 Y131.845 E79.85262
G1 X177.094 Y132.146 E79.86786
G1 X176.652 Y133.829 E79.95467
G1 X176.546 Y134.125 E79.97036
G1 X175.815 Y135.711 E80.05749
G1 X175.659 Y135.984 E80.07317
G1 X174.668 Y137.413 E80.15993
G1 X174.468 Y137.654 E80.17556
G1 X173.243 Y138.891 E80.26241
G1 X173.004 Y139.093 E80.27802
G1 X171.581 Y140.1 E80.365
G1 X171.31 Y140.259 E80.38067
G1 X169.731 Y141.005 E80.4678
G1 X169.436 Y141.113 E80.48347
G1 X167.759 Y141.571 E80.5702
G1 X167.45 Y141.627 E80.58587
G1 X165.712 Y141.787 E80.67294
G1 X165.547 Y141.795 E80.68118
G1 X143.802 Y141.8 E81.76605
G1 X34.501 Y141.8 E87.2191
G1 X34.345 Y141.793 E87.22689
G1 X32.655 Y141.646 E87.31152
G1 X32.354 Y141.594 E87.32676
G1 X30.67 Y141.152 E87.41362
G1 X30.373 Y141.046 E87.42935
G1 X28.788 Y140.315 E87.51643
G1 X28.516 Y140.159 E87.53208
G1 X27.087 Y139.168 E87.61884
G1 X26.846 Y138.968 E87.63446
G1 X25.609 Y137.743 E87.72132
G1 X25.406 Y137.503 E87.737
G1 X24.399 Y136.079 E87.82401
G1 X24.242 Y135.809 E87.83959
G1 X23.496 Y134.231 E87.92667
G1 X23.387 Y133.936 E87.94236
G1 X22.929 Y132.259 E88.02909
G1 X22.873 Y131.95 E88.04476
G1 X22.713 Y130.214 E88.13174
G1 X22.705 Y130.05 E88.13993
G1 X22.7 Y116.668 E88.80756
G1 X22.7 Y70.002 E91.13574
G1 X22.707 Y69.845 E91.14358
G1 X22.854 Y68.155 E91.22821
G1 X22.906 Y67.854 E91.24345
G1 X23.348 Y66.171 E91.33026
G1 X23.454 Y65.875 E91.34595
G1 X24.185 Y64.289 E91.43307
G1 X24.341 Y64.016 E91.44876
G1 X25.332 Y62.587 E91.53552
G1 X25.532 Y62.346 E91.55114
G1 X26.757 Y61.109 E91.638
G1 X26.996 Y60.907 E91.65361
G1 X28.419 Y59.9 E91.74058
G1 X28.69 Y59.741 E91.75626
G0 F600 X28.861 Y60.103
G1 F1080 X30.44 Y59.357 E91.84338
G1 X30.669 Y59.272 E91.85557
G1 X32.346 Y58.814 E91.9423
G1 X32.587 Y58.771 E91.95451
G1 X34.325 Y58.611 E92.04159
G1 X34.453 Y58.605 E92.04798
G1 X60.033 Y58.6 E93.32417
G1 X165.499 Y58.6 E98.58589
G1 X165.62 Y58.605 E98.59194
G1 X167.31 Y58.752 E98.67657
G1 X167.544 Y58.793 E98.68842
G1 X169.228 Y59.235 E98.77528
G1 X169.459 Y59.318 E98.78753
G1 X171.044 Y60.049 E98.87461
G1 X171.256 Y60.17 E98.88679
G1 X172.685 Y61.161 E98.97355
G1 X172.872 Y61.316 E98.98566
G1 X174.109 Y62.541 E99.07252
G1 X174.267 Y62.727 E99.08469
G1 X175.274 Y64.15 E99.17167
G1 X175.397 Y64.361 E99.18385
G1 X176.143 Y65.94 E99.27098
G1 X176.228 Y66.169 E99.28316
G1 X176.686 Y67.846 E99.36989
G1 X176.729 Y68.087 E99.38211
G1 X176.889 Y69.823 E99.46908
G1 X176.895 Y69.95 E99.47543
G1 X176.9 Y83.332 E100.14306
G1 X176.9 Y129.998 E102.47123
G1 X176.895 Y130.12 E102.47732
G1 X176.748 Y131.81 E102.56196
G1 X176.707 Y132.045 E102.57386
G1 X176.265 Y133.728 E102.66067
G1 X176.182 Y133.958 E102.67287
G1 X175.451 Y135.544 E102.76
G1 X175.33 Y135.756 E102.77217
G1 X174.339 Y137.185 E102.85893
G1 X174.184 Y137.372 E102.87105
G1 X172.959 Y138.609 E102.95791
G1 X172.773 Y138.767 E102.97008
G1 X171.35 Y139.774 E103.05705
G1 X171.139 Y139.897 E103.06924
G1 X169.56 Y140.643 E103.15636
G1 X169.331 Y140.728 E103.16855
G1 X167.654 Y141.186 E103.25528
G1 X167.413 Y141.229 E103.26749
G1 X165.675 Y141.389 E103.35457
G1 X165.547 Y141.395 E103.36096
G1 X143.802 Y141.4 E104.44583
G1 X34.501 Y141.4 E109.89887
G1 X34.38 Y141.395 E109.90492
G1 X32.69 Y141.248 E109.98955
G1 X32.456 Y141.207 E110.0014
G1 X30.772 Y140.765 E110.08826
G1 X30.541 Y140.682 E110.10051
G1 X28.956 Y139.951 E110.18759
G1 X28.744 Y139.83 E110.19977
G1 X27.315 Y138.839 E110.28653
G1 X27.128 Y138.684 E110.29864
G1 X25.891 Y137.459 E110.3855
G1 X25.733 Y137.272 E110.39771
G1 X24.726 Y135.848 E110.48473
G1 X24.603 Y135.638 E110.49687
G1 X23.857 Y134.06 E110.58395
G1 X23.772 Y133.831 E110.59613
G1 X23.314 Y132.154 E110.68286
G1 X23.271 Y131.913 E110.69508
G1 X23.111 Y130.177 E110.78205
G1 X23.105 Y130.05 E110.7884
G1 X23.1 Y116.668 E111.45603
G1 X23.1 Y70.002 E113.7842
G1 X23.105 Y69.88 E113.7903
G1 X23.252 Y68.19 E113.87493
G1 X23.293 Y67.955 E113.88683
G1 X23.735 Y66.272 E113.97364
G1 X23.818 Y66.042 E113.98584
G1 X24.549 Y64.456 E114.07297
G1 X24.67 Y64.244 E114.08515
G1 X25.661 Y62.815 E114.17191
G1 X25.816 Y62.628 E114.18402
G1 X27.041 Y61.391 E114.27088
G1 X27.227 Y61.233 E114.28305
G1 X28.65 Y60.226 E114.37003
G1 X28.861 Y60.103 E114.38221
G0 F600 X29.032 Y60.465
G1 F1080 X30.611 Y59.719 E114.46934
G1 X30.775 Y59.658 E114.47807
G1 X32.452 Y59.2 E114.5648
G1 X32.623 Y59.169 E114.57347
G1 X34.361 Y59.009 E114.66054
G1 X34.453 Y59.005 E114.66514
G1 X60.033 Y59 E115.94133
G1 X165.499 Y59 E121.20305
G1 X165.586 Y59.004 E121.20739
G1 X167.276 Y59.151 E121.29203
G1 X167.443 Y59.18 E121.30048
G1 X169.127 Y59.622 E121.38734
G1 X169.292 Y59.681 E121.39608
G1 X170.877 Y60.412 E121.48317
G1 X171.028 Y60.498 E121.49184
G1 X172.457 Y61.489 E121.57859
G1 X172.591 Y61.6 E121.58728
G1 X173.828 Y62.825 E121.67413
G1 X173.94 Y62.958 E121.6828
G1 X174.947 Y64.381 E121.76978
G1 X175.035 Y64.532 E121.7785
G1 X175.781 Y66.111 E121.86562
G1 X175.842 Y66.275 E121.87435
G1 X176.3 Y67.952 E121.96108
G1 X176.331 Y68.123 E121.96975
G1 X176.491 Y69.859 E122.05673
G1 X176.495 Y69.951 E122.06132
G1 X176.5 Y83.333 E122.72895
G1 X176.5 Y129.999 E125.05713
G1 X176.496 Y130.086 E125.06147
G1 X176.349 Y131.776 E125.14611
G1 X176.32 Y131.943 E125.15456
G1 X175.878 Y133.626 E125.24138
G1 X175.819 Y133.791 E125.25012
G1 X175.088 Y135.377 E125.33724
G1 X175.002 Y135.528 E125.34591
G1 X174.011 Y136.957 E125.43267
G1 X173.9 Y137.091 E125.44135
G1 X172.675 Y138.328 E125.52821
G1 X172.542 Y138.44 E125.53688
G1 X171.119 Y139.447 E125.62386
G1 X170.968 Y139.535 E125.63258
G1 X169.389 Y140.281 E125.7197
G1 X169.225 Y140.342 E125.72843
G1 X167.548 Y140.8 E125.81516
G1 X167.377 Y140.831 E125.82383
G1 X165.639 Y140.991 E125.91091
G1 X165.547 Y140.995 E125.9155
G1 X143.802 Y141 E127.00036
G1 X34.501 Y141 E132.45341
G1 X34.414 Y140.996 E132.45776
G1 X32.724 Y140.849 E132.54239
G1 X32.557 Y140.82 E132.55085
G1 X30.873 Y140.378 E132.63771
G1 X30.708 Y140.319 E132.64645
G1 X29.123 Y139.588 E132.73353
G1 X28.972 Y139.502 E132.7422
G1 X27.543 Y138.511 E132.82896
G1 X27.409 Y138.4 E132.83764
G1 X26.172 Y137.175 E132.9245
G1 X26.06 Y137.041 E132.93321
G1 X25.053 Y135.617 E133.02022
G1 X24.965 Y135.467 E133.0289
G1 X24.219 Y133.889 E133.11598
G1 X24.158 Y133.725 E133.12471
G1 X23.7 Y132.048 E133.21144
G1 X23.669 Y131.877 E133.22011
G1 X23.509 Y130.141 E133.30708
G1 X23.505 Y130.049 E133.31168
G1 X23.5 Y116.667 E133.97931
G1 X23.5 Y70.001 E136.30749
G1 X23.504 Y69.914 E136.31183
G1 X23.651 Y68.224 E136.39646
G1 X23.68 Y68.057 E136.40492
G1 X24.122 Y66.374 E136.49173
G1 X24.181 Y66.209 E136.50047
G1 X24.912 Y64.623 E136.5876
G1 X24.998 Y64.472 E136.59627
G1 X25.989 Y63.043 E136.68303
G1 X26.1 Y62.909 E136.69171
G1 X27.325 Y61.672 E136.77856
G1 X27.458 Y61.56 E136.78724
G1 X28.881 Y60.553 E136.87421
G1 X29.032 Y60.465 E136.88293
G0 F600 X29.203 Y60.826
G1 F1080 X30.782 Y60.08 E136.97006
G1 X30.88 Y60.044 E136.97527
G1 X32.557 Y59.586 E137.062
G1 X32.66 Y59.568 E137.06721
