;FLAVOR:Marlin
;TIME:14723
;Filament used: 18.0147m
;Layer height: 0.2
;MINX:16.2
;MINY:30.7
;MINZ:0.3
;MAXX:183.8
;MAXY:169.3
;MAXZ:4.9
;Generated with Cura_SteamEngine 4.2.1
M140 S65
M105
M190 S65
M104 S210
M105
M109 S210
M82 ;absolute extrusion mode
G21 ;metric values
G90 ;absolute positioning
M82 ;set extruder to absolute mode
M107 ;start with the fan off
G28 X0 Y0 ;move X/Y to min endstops
G28 Z0 ;move Z to min endstops
G1 Z15.0 F225 ;move the platform down 15mm
G92 E0 ;zero the extruded length
G1 F140 E30 ;extrude 3mm of feed stock
G1 X20 Y0 F140 E30
G92 E0 ;zero the extruded length again
G1 F225
M117 ;Printing...
M141 S28
G92 E0
G92 E0
G1 F1500 E-6.5
;LAYER_COUNT:24
;LAYER:0
M107 P1
G0 F2880 X23.03 Y33.512 Z0.3
;TYPE:SKIRT
G1 F1500 E0
G1 F1440 X24.367 Y32.684 E0.07846
G1 X25.175 Y32.268 E0.1238
G1 X26.62 Y31.661 E0.20199
G1 X27.485 Y31.375 E0.24745
G1 X29.007 Y31.002 E0.32563
G1 X29.908 Y30.855 E0.37117
G1 X31.473 Y30.725 E0.44952
G1 X31.95 Y30.705 E0.47334
G1 X41.125 Y30.7 E0.93108
G1 X167.999 Y30.7 E7.26085
G1 X168.449 Y30.717 E7.28332
G1 X169.967 Y30.835 E7.35928
G1 X170.843 Y30.972 E7.40351
G1 X172.367 Y31.33 E7.48161
G1 X173.238 Y31.608 E7.52723
G1 X174.694 Y32.204 E7.60572
G1 X175.502 Y32.611 E7.65086
G1 X176.841 Y33.422 E7.72896
G1 X177.583 Y33.956 E7.77456
G1 X178.78 Y34.969 E7.8528
G1 X179.426 Y35.609 E7.89817
G1 X180.45 Y36.797 E7.97641
G1 X180.988 Y37.53 E8.02178
G1 X181.816 Y38.867 E8.10024
G1 X182.232 Y39.673 E8.14549
G1 X182.839 Y41.117 E8.22363
G1 X183.126 Y41.985 E8.26924
G1 X183.499 Y43.508 E8.34747
G1 X183.645 Y44.407 E8.39291
G1 X183.775 Y45.97 E8.47116
G1 X183.795 Y46.446 E8.49493
G1 X183.8 Y52.871 E8.81547
G1 X183.8 Y153.499 E13.83582
G1 X183.783 Y153.949 E13.85829
G1 X183.665 Y155.467 E13.93425
G1 X183.528 Y156.343 E13.97849
G1 X183.17 Y157.867 E14.05659
G1 X182.892 Y158.738 E14.1022
G1 X182.296 Y160.194 E14.18069
G1 X181.889 Y161.002 E14.22583
G1 X181.078 Y162.341 E14.30393
G1 X180.544 Y163.083 E14.34954
G1 X179.531 Y164.28 E14.42777
G1 X178.891 Y164.926 E14.47314
G1 X177.703 Y165.95 E14.55139
G1 X176.97 Y166.488 E14.59675
G1 X175.633 Y167.316 E14.67521
G1 X174.825 Y167.732 E14.72055
G1 X173.38 Y168.339 E14.79875
G1 X172.515 Y168.625 E14.8442
G1 X170.993 Y168.998 E14.92238
G1 X170.092 Y169.145 E14.96792
G1 X168.527 Y169.275 E15.04627
G1 X168.048 Y169.295 E15.07019
G1 X144.704 Y169.3 E16.23483
G1 X32.001 Y169.3 E21.8576
G1 X31.551 Y169.283 E21.88007
G1 X30.033 Y169.165 E21.95603
G1 X29.157 Y169.028 E22.00026
G1 X27.633 Y168.67 E22.07837
G1 X26.762 Y168.392 E22.12398
G1 X25.306 Y167.796 E22.20247
G1 X24.497 Y167.388 E22.24767
G1 X23.157 Y166.576 E22.32584
G1 X22.416 Y166.043 E22.37138
G1 X21.218 Y165.029 E22.44969
G1 X20.571 Y164.388 E22.49512
G1 X19.549 Y163.202 E22.57323
G1 X19.012 Y162.47 E22.61853
G1 X18.184 Y161.133 E22.69698
G1 X17.768 Y160.326 E22.74228
G1 X17.16 Y158.879 E22.82058
G1 X16.873 Y158.011 E22.8662
G1 X16.501 Y156.491 E22.94427
G1 X16.355 Y155.593 E22.98966
G1 X16.225 Y154.03 E23.0679
G1 X16.205 Y153.554 E23.09167
G1 X16.2 Y147.129 E23.41222
G1 X16.2 Y46.501 E28.43257
G1 X16.217 Y46.051 E28.45503
G1 X16.335 Y44.533 E28.531
G1 X16.472 Y43.657 E28.57523
G1 X16.83 Y42.133 E28.65333
G1 X17.108 Y41.262 E28.69895
G1 X17.704 Y39.806 E28.77744
G1 X18.111 Y38.998 E28.82258
G1 X18.922 Y37.659 E28.90068
G1 X19.456 Y36.917 E28.94628
G1 X20.469 Y35.72 E29.02452
G1 X21.109 Y35.074 E29.06989
G1 X22.297 Y34.05 E29.14813
G1 X23.03 Y33.512 E29.1935
G0 F2880 X23.241 Y33.852
G1 F1440 X24.578 Y33.024 E29.27196
G1 X25.33 Y32.636 E29.31417
G1 X26.775 Y32.029 E29.39237
G1 X27.581 Y31.763 E29.43471
G1 X29.103 Y31.39 E29.51289
G1 X29.941 Y31.254 E29.55525
G1 X31.506 Y31.124 E29.63359
G1 X31.95 Y31.105 E29.65576
G1 X41.125 Y31.1 E30.11351
G1 X167.999 Y31.1 E36.44328
G1 X168.418 Y31.116 E36.4642
G1 X169.936 Y31.234 E36.54016
G1 X170.752 Y31.361 E36.58136
G1 X172.276 Y31.719 E36.65946
G1 X173.087 Y31.978 E36.70193
G1 X174.543 Y32.574 E36.78042
G1 X175.295 Y32.953 E36.82244
G1 X176.634 Y33.764 E36.90054
G1 X177.324 Y34.261 E36.94296
G1 X178.521 Y35.274 E37.0212
G1 X179.123 Y35.87 E37.06346
G1 X180.147 Y37.058 E37.14171
G1 X180.648 Y37.741 E37.18397
G1 X181.476 Y39.078 E37.26243
G1 X181.863 Y39.828 E37.30453
G1 X182.47 Y41.272 E37.38268
G1 X182.737 Y42.08 E37.42513
G1 X183.11 Y43.603 E37.50336
G1 X183.246 Y44.44 E37.54567
G1 X183.376 Y46.003 E37.62392
G1 X183.395 Y46.447 E37.64609
G1 X183.4 Y52.872 E37.96663
G1 X183.4 Y153.499 E42.98693
G1 X183.384 Y153.918 E43.00785
G1 X183.266 Y155.436 E43.08381
G1 X183.139 Y156.252 E43.12501
G1 X182.781 Y157.776 E43.20312
G1 X182.522 Y158.587 E43.24559
G1 X181.926 Y160.043 E43.32408
G1 X181.547 Y160.795 E43.36609
G1 X180.736 Y162.134 E43.4442
G1 X180.239 Y162.824 E43.48662
G1 X179.226 Y164.021 E43.56485
G1 X178.63 Y164.623 E43.60712
G1 X177.442 Y165.647 E43.68536
G1 X176.759 Y166.148 E43.72762
G1 X175.422 Y166.976 E43.80608
G1 X174.67 Y167.364 E43.8483
G1 X173.225 Y167.971 E43.92649
G1 X172.419 Y168.237 E43.96884
G1 X170.897 Y168.61 E44.04702
G1 X170.059 Y168.746 E44.08937
G1 X168.494 Y168.876 E44.16772
G1 X168.048 Y168.895 E44.18999
G1 X144.704 Y168.9 E45.35463
G1 X32.001 Y168.9 E50.9774
G1 X31.582 Y168.884 E50.99832
G1 X30.064 Y168.766 E51.07428
G1 X29.248 Y168.639 E51.11549
G1 X27.724 Y168.281 E51.19359
G1 X26.913 Y168.022 E51.23606
G1 X25.457 Y167.426 E51.31455
G1 X24.704 Y167.046 E51.35663
G1 X23.364 Y166.234 E51.4348
G1 X22.674 Y165.738 E51.4772
G1 X21.476 Y164.724 E51.5555
G1 X20.874 Y164.127 E51.5978
G1 X19.852 Y162.941 E51.67591
G1 X19.352 Y162.259 E51.7181
G1 X18.524 Y160.922 E51.79656
G1 X18.137 Y160.171 E51.8387
G1 X17.529 Y158.724 E51.91701
G1 X17.262 Y157.916 E51.95946
G1 X16.89 Y156.396 E52.03754
G1 X16.754 Y155.56 E52.07979
G1 X16.624 Y153.997 E52.15804
G1 X16.605 Y153.553 E52.18021
G1 X16.6 Y147.128 E52.50076
G1 X16.6 Y46.501 E57.52106
G1 X16.616 Y46.082 E57.54198
G1 X16.734 Y44.564 E57.61794
G1 X16.861 Y43.748 E57.65914
G1 X17.219 Y42.224 E57.73724
G1 X17.478 Y41.413 E57.77972
G1 X18.074 Y39.957 E57.85821
G1 X18.453 Y39.205 E57.90022
G1 X19.264 Y37.866 E57.97832
G1 X19.761 Y37.176 E58.02074
G1 X20.774 Y35.979 E58.09898
G1 X21.37 Y35.377 E58.14124
G1 X22.558 Y34.353 E58.21949
G1 X23.241 Y33.852 E58.26175
G0 F2880 X23.451 Y34.192
G1 F1440 X24.788 Y33.364 E58.34021
G1 X25.485 Y33.005 E58.37932
G1 X26.93 Y32.398 E58.45752
G1 X27.676 Y32.152 E58.49671
G1 X29.198 Y31.779 E58.57489
G1 X29.974 Y31.652 E58.61412
G1 X31.539 Y31.522 E58.69246
G1 X31.95 Y31.505 E58.71298
G1 X41.125 Y31.5 E59.17073
G1 X167.999 Y31.5 E65.5005
G1 X168.387 Y31.515 E65.51987
G1 X169.905 Y31.633 E65.59583
G1 X170.66 Y31.75 E65.63395
G1 X172.184 Y32.108 E65.71205
G1 X172.935 Y32.349 E65.7514
G1 X174.391 Y32.945 E65.82989
G1 X175.087 Y33.295 E65.86876
G1 X176.426 Y34.106 E65.94686
G1 X177.066 Y34.566 E65.98618
G1 X178.263 Y35.579 E66.06441
G1 X178.82 Y36.132 E66.10357
G1 X179.844 Y37.32 E66.18182
G1 X180.308 Y37.951 E66.22089
G1 X181.136 Y39.288 E66.29935
G1 X181.494 Y39.983 E66.33836
G1 X182.101 Y41.427 E66.4165
G1 X182.348 Y42.176 E66.45585
G1 X182.721 Y43.699 E66.53408
G1 X182.848 Y44.474 E66.57326
G1 X182.978 Y46.037 E66.65151
G1 X182.995 Y46.447 E66.67198
G1 X183 Y52.872 E66.99253
G1 X183 Y153.499 E72.01283
G1 X182.985 Y153.887 E72.0322
G1 X182.867 Y155.405 E72.10816
G1 X182.75 Y156.16 E72.14628
G1 X182.392 Y157.684 E72.22438
G1 X182.151 Y158.435 E72.26373
G1 X181.555 Y159.891 E72.34222
G1 X181.205 Y160.587 E72.38109
G1 X180.394 Y161.926 E72.45919
G1 X179.934 Y162.566 E72.49851
G1 X178.921 Y163.763 E72.57674
G1 X178.368 Y164.32 E72.6159
G1 X177.18 Y165.344 E72.69415
G1 X176.549 Y165.808 E72.73322
G1 X175.212 Y166.636 E72.81168
G1 X174.515 Y166.995 E72.8508
G1 X173.07 Y167.602 E72.92899
G1 X172.324 Y167.848 E72.96818
G1 X170.802 Y168.221 E73.04636
G1 X170.026 Y168.348 E73.08559
G1 X168.461 Y168.478 E73.16394
G1 X168.048 Y168.495 E73.18456
G1 X144.704 Y168.5 E74.3492
G1 X32.001 Y168.5 E79.97197
G1 X31.613 Y168.485 E79.99134
G1 X30.095 Y168.367 E80.06731
G1 X29.34 Y168.25 E80.10542
G1 X27.816 Y167.892 E80.18353
G1 X27.065 Y167.651 E80.22288
G1 X25.609 Y167.055 E80.30137
G1 X24.912 Y166.704 E80.3403
G1 X23.572 Y165.892 E80.41847
G1 X22.933 Y165.432 E80.45775
G1 X21.735 Y164.418 E80.53605
G1 X21.177 Y163.866 E80.57521
G1 X20.155 Y162.68 E80.65332
G1 X19.692 Y162.049 E80.69237
G1 X18.864 Y160.712 E80.77082
G1 X18.505 Y160.016 E80.8099
G1 X17.897 Y158.569 E80.8882
G1 X17.65 Y157.821 E80.9275
G1 X17.278 Y156.301 E81.00557
G1 X17.152 Y155.526 E81.04474
G1 X17.022 Y153.963 E81.12299
G1 X17.005 Y153.553 E81.14346
G1 X17 Y147.128 E81.46401
G1 X17 Y46.501 E86.48431
G1 X17.015 Y46.113 E86.50368
G1 X17.133 Y44.595 E86.57964
G1 X17.25 Y43.84 E86.61776
G1 X17.608 Y42.316 E86.69586
G1 X17.849 Y41.565 E86.73521
G1 X18.445 Y40.109 E86.8137
G1 X18.795 Y39.413 E86.85257
G1 X19.606 Y38.074 E86.93067
G1 X20.066 Y37.434 E86.96999
G1 X21.079 Y36.237 E87.04823
G1 X21.632 Y35.68 E87.08738
G1 X22.82 Y34.656 E87.16563
G1 X23.451 Y34.192 E87.20471
G0 F2880 X23.662 Y34.532
G1 F1440 X24.999 Y33.704 E87.28317
G1 X25.639 Y33.374 E87.31909
G1 X27.084 Y32.767 E87.39728
G1 X27.771 Y32.54 E87.43338
G1 X29.293 Y32.167 E87.51156
G1 X30.007 Y32.051 E87.54765
G1 X31.572 Y31.921 E87.626
G1 X31.95 Y31.905 E87.64487
G1 X41.125 Y31.9 E88.10262
G1 X167.999 Y31.9 E94.43239
G1 X168.356 Y31.914 E94.45021
G1 X169.874 Y32.032 E94.52617
G1 X170.569 Y32.14 E94.56126
G1 X172.093 Y32.498 E94.63936
G1 X172.784 Y32.719 E94.67556
G1 X174.24 Y33.315 E94.75405
G1 X174.88 Y33.637 E94.78979
G1 X176.219 Y34.448 E94.86789
G1 X176.808 Y34.872 E94.9041
G1 X178.005 Y35.885 E94.98233
G1 X178.517 Y36.393 E95.01832
G1 X179.541 Y37.581 E95.09657
G1 X179.968 Y38.162 E95.13254
G1 X180.796 Y39.499 E95.211
G1 X181.126 Y40.138 E95.24688
G1 X181.733 Y41.582 E95.32502
G1 X181.96 Y42.271 E95.36122
G1 X182.333 Y43.794 E95.43944
G1 X182.449 Y44.507 E95.47548
G1 X182.579 Y46.07 E95.55373
G1 X182.595 Y46.447 E95.57256
G1 X182.6 Y52.872 E95.8931
G1 X182.6 Y153.499 E100.9134
G1 X182.586 Y153.856 E100.93123
G1 X182.468 Y155.374 E101.00719
G1 X182.36 Y156.069 E101.04228
G1 X182.002 Y157.593 E101.12038
G1 X181.781 Y158.284 E101.15658
G1 X181.185 Y159.74 E101.23507
G1 X180.863 Y160.38 E101.27081
G1 X180.052 Y161.719 E101.34891
G1 X179.628 Y162.308 E101.38512
G1 X178.615 Y163.505 E101.46335
G1 X178.107 Y164.017 E101.49933
G1 X176.919 Y165.041 E101.57758
G1 X176.338 Y165.468 E101.61356
G1 X175.001 Y166.296 E101.69201
G1 X174.361 Y166.626 E101.72794
G1 X172.916 Y167.233 E101.80613
G1 X172.229 Y167.46 E101.84223
G1 X170.707 Y167.833 E101.92041
G1 X169.993 Y167.949 E101.9565
G1 X168.428 Y168.079 E102.03484
G1 X168.048 Y168.095 E102.05382
G1 X144.704 Y168.1 E103.21846
G1 X32.002 Y168.1 E108.84118
G1 X31.644 Y168.086 E108.85906
G1 X30.126 Y167.968 E108.93502
G1 X29.431 Y167.86 E108.97011
G1 X27.907 Y167.502 E109.04821
G1 X27.216 Y167.281 E109.08441
G1 X25.76 Y166.685 E109.1629
G1 X25.119 Y166.362 E109.19871
G1 X23.779 Y165.55 E109.27687
G1 X23.191 Y165.127 E109.31301
G1 X21.993 Y164.113 E109.39132
G1 X21.48 Y163.605 E109.42734
G1 X20.458 Y162.419 E109.50544
G1 X20.032 Y161.838 E109.54139
G1 X19.204 Y160.501 E109.61984
G1 X18.874 Y159.861 E109.65577
G1 X18.266 Y158.414 E109.73407
G1 X18.039 Y157.726 E109.77022
G1 X17.667 Y156.206 E109.84829
G1 X17.551 Y155.493 E109.88433
G1 X17.421 Y153.93 E109.96258
G1 X17.405 Y153.553 E109.9814
G1 X17.4 Y147.128 E110.30195
G1 X17.4 Y46.501 E115.32225
G1 X17.414 Y46.144 E115.34007
G1 X17.532 Y44.626 E115.41603
G1 X17.64 Y43.931 E115.45112
G1 X17.998 Y42.407 E115.52923
G1 X18.219 Y41.716 E115.56542
G1 X18.815 Y40.26 E115.64391
G1 X19.137 Y39.62 E115.67965
G1 X19.948 Y38.281 E115.75776
G1 X20.372 Y37.692 E115.79396
G1 X21.385 Y36.495 E115.8722
G1 X21.893 Y35.983 E115.90818
G1 X23.081 Y34.959 E115.98643
G1 X23.662 Y34.532 E116.0224
G0 F2880 X23.873 Y34.872
G1 F1440 X25.21 Y34.044 E116.10086
G1 X25.794 Y33.743 E116.13364
G1 X27.239 Y33.136 E116.21183
G1 X27.866 Y32.929 E116.24477
G1 X29.388 Y32.556 E116.32295
G1 X30.04 Y32.449 E116.35592
G1 X31.605 Y32.319 E116.43426
G1 X31.951 Y32.305 E116.45154
G1 X41.126 Y32.3 E116.90928
G1 X167.999 Y32.3 E123.239
G1 X168.325 Y32.313 E123.25528
G1 X169.843 Y32.431 E123.33124
G1 X170.477 Y32.529 E123.36325
G1 X172.001 Y32.887 E123.44135
G1 X172.632 Y33.089 E123.4744
G1 X174.088 Y33.685 E123.55289
G1 X174.673 Y33.98 E123.58558
G1 X176.012 Y34.791 E123.66368
G1 X176.549 Y35.177 E123.69668
G1 X177.746 Y36.19 E123.77491
G1 X178.214 Y36.654 E123.80779
G1 X179.238 Y37.842 E123.88604
G1 X179.628 Y38.373 E123.91891
G1 X180.456 Y39.71 E123.99736
G1 X180.757 Y40.293 E124.0301
G1 X181.364 Y41.737 E124.10825
G1 X181.571 Y42.366 E124.14128
G1 X181.944 Y43.889 E124.21951
G1 X182.051 Y44.54 E124.25243
G1 X182.181 Y46.103 E124.33067
G1 X182.195 Y46.448 E124.3479
G1 X182.2 Y52.873 E124.66844
G1 X182.2 Y153.499 E129.6887
G1 X182.187 Y153.825 E129.70497
G1 X182.069 Y155.343 E129.78093
G1 X181.971 Y155.977 E129.81294
G1 X181.613 Y157.501 E129.89104
G1 X181.411 Y158.132 E129.9241
G1 X180.815 Y159.588 E130.00259
G1 X180.52 Y160.173 E130.03527
G1 X179.709 Y161.512 E130.11337
G1 X179.323 Y162.049 E130.14637
G1 X178.31 Y163.246 E130.2246
G1 X177.846 Y163.714 E130.25748
G1 X176.658 Y164.738 E130.33573
G1 X176.127 Y165.128 E130.3686
G1 X174.79 Y165.956 E130.44706
G1 X174.206 Y166.257 E130.47984
G1 X172.761 Y166.864 E130.55803
G1 X172.134 Y167.071 E130.59097
G1 X170.612 Y167.444 E130.66915
G1 X169.96 Y167.551 E130.70212
G1 X168.395 Y167.681 E130.78046
G1 X168.048 Y167.695 E130.79779
G1 X144.704 Y167.7 E131.96243
G1 X32.002 Y167.7 E137.58515
G1 X31.675 Y167.687 E137.60148
G1 X30.157 Y167.569 E137.67744
G1 X29.523 Y167.471 E137.70945
G1 X27.999 Y167.113 E137.78755
G1 X27.368 Y166.911 E137.8206
G1 X25.912 Y166.315 E137.89909
G1 X25.326 Y166.02 E137.93182
G1 X23.986 Y165.208 E138.00999
G1 X23.45 Y164.822 E138.04295
G1 X22.252 Y163.808 E138.12125
G1 X21.783 Y163.344 E138.15417
G1 X20.761 Y162.158 E138.23227
G1 X20.372 Y161.627 E138.26511
G1 X19.544 Y160.29 E138.34357
G1 X19.243 Y159.706 E138.37635
G1 X18.635 Y158.259 E138.45465
G1 X18.427 Y157.63 E138.48771
G1 X18.055 Y156.11 E138.56578
G1 X17.949 Y155.46 E138.59863
G1 X17.819 Y153.897 E138.67688
G1 X17.805 Y153.552 E138.69411
G1 X17.8 Y147.127 E139.01465
G1 X17.8 Y46.501 E144.0349
G1 X17.813 Y46.175 E144.05118
G1 X17.931 Y44.657 E144.12714
G1 X18.029 Y44.023 E144.15915
G1 X18.387 Y42.499 E144.23725
G1 X18.589 Y41.868 E144.27031
G1 X19.185 Y40.412 E144.3488
G1 X19.48 Y39.827 E144.38148
G1 X20.291 Y38.488 E144.45958
G1 X20.677 Y37.951 E144.49258
G1 X21.69 Y36.754 E144.57081
G1 X22.154 Y36.286 E144.60369
G1 X23.342 Y35.262 E144.68194
G1 X23.873 Y34.872 E144.71481
G0 F2880 X24.083 Y35.212
G1 F1440 X25.42 Y34.384 E144.79327
G1 X25.949 Y34.112 E144.82294
G1 X27.394 Y33.505 E144.90114
G1 X27.961 Y33.317 E144.93094
G1 X29.483 Y32.944 E145.00912
G1 X30.073 Y32.848 E145.03894
G1 X31.638 Y32.718 E145.11729
G1 X31.951 Y32.705 E145.13292
G1 X41.126 Y32.7 E145.59066
G1 X167.999 Y32.7 E151.92038
G1 X168.294 Y32.711 E151.93511
G1 X169.812 Y32.829 E152.01107
G1 X170.386 Y32.919 E152.04006
G1 X171.91 Y33.277 E152.11816
G1 X172.481 Y33.459 E152.14806
G1 X173.937 Y34.055 E152.22655
G1 X174.466 Y34.322 E152.25611
G1 X175.805 Y35.133 E152.33421
G1 X176.291 Y35.482 E152.36406
G1 X177.488 Y36.495 E152.4423
G1 X177.911 Y36.915 E152.47204
G1 X178.935 Y38.103 E152.55028
G1 X179.288 Y38.583 E152.58001
G1 X180.116 Y39.92 E152.65847
G1 X180.388 Y40.448 E152.6881
G1 X180.995 Y41.892 E152.76625
G1 X181.183 Y42.461 E152.79615
G1 X181.556 Y43.984 E152.87437
G1 X181.652 Y44.573 E152.90415
G1 X181.782 Y46.136 E152.98239
G1 X181.795 Y46.448 E152.99797
G1 X181.8 Y52.873 E153.31852
G1 X181.8 Y153.499 E158.33877
G1 X181.789 Y153.794 E158.3535
G1 X181.671 Y155.312 E158.42946
G1 X181.581 Y155.886 E158.45845
G1 X181.223 Y157.41 E158.53655
G1 X181.041 Y157.981 E158.56645
G1 X180.445 Y159.437 E158.64494
G1 X180.178 Y159.966 E158.6745
G1 X179.367 Y161.305 E158.7526
G1 X179.018 Y161.791 E158.78245
G1 X178.005 Y162.988 E158.86069
G1 X177.585 Y163.411 E158.89043
G1 X176.397 Y164.435 E158.96867
