;FLAVOR:Marlin
;TIME:6321
;Filament used: 5.07328m
;Layer height: 0.2
;MINX:53.752
;MINY:73.276
;MINZ:0.3
;MAXX:132.757
;MAXY:117.278
;MAXZ:20.9
;Generated with Cura_SteamEngine 4.2.1
M140 S70
M105
M190 S70
M104 S210
M105
M109 S210
M82 ;absolute extrusion mode
G21 ;metric values
G90 ;absolute positioning
M82 ;set extruder to absolute mode
M107 ;start with the fan off
G28 X0 Y0 ;move X/Y to min endstops
G28 Z0 ;move Z to min endstops
G1 Z15.0 F225 ;move the platform down 15mm
G92 E0 ;zero the extruded length
G1 F140 E30 ;extrude 3mm of feed stock
G1 X20 Y0 F140 E30
G92 E0 ;zero the extruded length again
G1 F225
M117 ;Printing...
M141 S28
G92 E0
G92 E0
G1 F1500 E-6.5
;LAYER_COUNT:104
;LAYER:0
M107 P1
G0 F3240 X57.157 Y75.104 Z0.3
;TYPE:SKIRT
G1 F1500 E0
G1 F1080 X57.523 Y74.835 E0.02266
G1 X57.645 Y74.748 E0.03014
G1 X57.838 Y74.616 E0.0418
G1 X58.382 Y74.299 E0.07321
G1 X58.842 Y74.073 E0.09878
G1 X59.378 Y73.852 E0.12771
G1 X59.981 Y73.649 E0.15945
G1 X60.279 Y73.56 E0.17497
G1 X60.51 Y73.5 E0.18688
G1 X61.146 Y73.384 E0.21913
G1 X61.63 Y73.332 E0.24341
G1 X61.759 Y73.32 E0.24988
G1 X61.965 Y73.304 E0.26019
G1 X62.249 Y73.291 E0.27437
G1 X63.397 Y73.276 E0.33165
G1 X123.645 Y73.276 E3.33743
G1 X124.351 Y73.286 E3.37266
G1 X124.515 Y73.292 E3.38085
G1 X124.768 Y73.305 E3.39349
G1 X124.946 Y73.318 E3.40239
G1 X125.391 Y73.359 E3.42469
G1 X126.033 Y73.466 E3.45716
G1 X126.605 Y73.606 E3.48654
G1 X127.204 Y73.799 E3.51793
G1 X127.735 Y74.013 E3.5465
G1 X127.997 Y74.129 E3.56079
G1 X128.207 Y74.23 E3.57242
G1 X128.756 Y74.544 E3.60397
G1 X129.196 Y74.84 E3.63043
G1 X129.295 Y74.909 E3.63645
G1 X129.459 Y75.026 E3.6465
G1 X129.955 Y75.437 E3.67863
G1 X130.245 Y75.716 E3.69871
G1 X130.345 Y75.816 E3.70577
G1 X130.535 Y76.011 E3.71935
G1 X130.929 Y76.476 E3.74976
G1 X131.198 Y76.842 E3.77242
G1 X131.285 Y76.964 E3.77989
G1 X131.417 Y77.157 E3.79156
G1 X131.734 Y77.701 E3.82297
G1 X131.96 Y78.161 E3.84854
G1 X132.183 Y78.704 E3.87783
G1 X132.391 Y79.325 E3.9105
G1 X132.478 Y79.617 E3.9257
G1 X132.533 Y79.829 E3.93663
G1 X132.649 Y80.465 E3.96888
G1 X132.702 Y80.959 E3.99367
G1 X132.725 Y81.311 E4.01127
G1 X132.753 Y82.361 E4.06367
G1 X132.755 Y82.477 E4.06946
G1 X132.757 Y92.634 E4.57619
G1 X132.757 Y92.697 E4.57934
G1 X132.747 Y93.411 E4.61496
G1 X132.743 Y93.534 E4.6211
G1 X132.725 Y93.962 E4.64247
G1 X132.722 Y94.025 E4.64562
G1 X132.616 Y95.9 E4.73931
G1 X132.54 Y98.579 E4.87302
G1 X132.55 Y101.969 E5.04215
G1 X132.55 Y101.981 E5.04275
G1 X132.552 Y112.061 E5.54564
G1 X132.552 Y112.123 E5.54874
G1 X132.542 Y112.842 E5.58461
G1 X132.493 Y113.433 E5.6142
G1 X132.342 Y114.093 E5.64798
G1 X132.317 Y114.173 E5.65216
G1 X132.102 Y114.726 E5.68176
G1 X131.815 Y115.245 E5.71135
G1 X131.461 Y115.721 E5.74094
G1 X131.046 Y116.144 E5.77051
G1 X130.578 Y116.508 E5.80009
G1 X130.065 Y116.806 E5.82968
G1 X129.517 Y117.032 E5.85926
G1 X128.944 Y117.183 E5.88882
G1 X128.198 Y117.26 E5.92624
G1 X127.277 Y117.277 E5.97219
G1 X127.196 Y117.278 E5.97623
G1 X118.296 Y117.278 E6.42026
G1 X117.598 Y117.268 E6.45508
G1 X117.007 Y117.219 E6.48467
G1 X116.626 Y117.145 E6.50403
G1 X115.955 Y116.983 E6.53847
G1 X113.273 Y116.365 E6.67578
G1 X110.639 Y115.833 E6.80985
G1 X107.962 Y115.377 E6.94533
G1 X105.299 Y114.998 E7.07952
G1 X102.606 Y114.692 E7.21474
G1 X99.928 Y114.464 E7.34883
G1 X97.206 Y114.309 E7.48485
G1 X94.526 Y114.233 E7.61861
G1 X91.804 Y114.233 E7.75441
G1 X89.116 Y114.309 E7.88857
G1 X86.406 Y114.462 E8.02399
G1 X83.723 Y114.69 E8.15833
G1 X81.019 Y114.997 E8.2941
G1 X78.361 Y115.375 E8.42804
G1 X75.674 Y115.835 E8.56405
G1 X73.075 Y116.355 E8.69628
G1 X70.341 Y116.985 E8.83626
G1 X69.72 Y117.138 E8.86816
G1 X69.137 Y117.241 E8.8977
G1 X68.821 Y117.263 E8.9135
G1 X68.475 Y117.275 E8.93078
G1 X68.322 Y117.278 E8.93841
G1 X58.802 Y117.278 E9.41336
G1 X58.104 Y117.269 E9.44819
G1 X57.513 Y117.221 E9.47777
G1 X56.934 Y117.094 E9.50735
G1 X56.377 Y116.891 E9.53692
G1 X55.852 Y116.615 E9.56651
G1 X55.37 Y116.27 E9.59609
G1 X54.938 Y115.864 E9.62566
G1 X54.564 Y115.403 E9.65528
G1 X54.256 Y114.897 E9.68483
G1 X54.019 Y114.353 E9.71444
G1 X53.857 Y113.783 E9.744
G1 X53.763 Y112.988 E9.78394
G1 X53.754 Y112.655 E9.80056
G1 X53.752 Y112.536 E9.8065
G1 X53.752 Y101.773 E10.34347
G1 X53.762 Y101.067 E10.37869
G1 X53.766 Y100.941 E10.38498
G1 X53.794 Y100.288 E10.41759
G1 X53.797 Y100.229 E10.42054
G1 X53.881 Y98.733 E10.49529
G1 X53.956 Y96.042 E10.6296
G1 X53.964 Y93.991 E10.73192
G1 X53.957 Y93.041 E10.77932
G1 X53.957 Y82.348 E11.3128
G1 X53.958 Y82.281 E11.31614
G1 X53.968 Y81.628 E11.34872
G1 X53.978 Y81.382 E11.361
G1 X54.006 Y80.99 E11.38061
G1 X54.017 Y80.859 E11.38717
G1 X54.047 Y80.563 E11.40201
G1 X54.156 Y79.943 E11.43342
G1 X54.25 Y79.566 E11.4528
G1 X54.276 Y79.463 E11.4581
G1 X54.353 Y79.183 E11.47259
G1 X54.573 Y78.567 E11.50522
G1 X54.764 Y78.136 E11.52874
G1 X54.818 Y78.02 E11.53513
G1 X54.907 Y77.834 E11.54541
G1 X55.225 Y77.277 E11.57741
G1 X55.521 Y76.837 E11.60387
G1 X55.59 Y76.738 E11.60989
G1 X55.707 Y76.574 E11.61994
G1 X56.118 Y76.078 E11.65208
G1 X56.397 Y75.788 E11.67215
G1 X56.497 Y75.688 E11.67921
G1 X56.692 Y75.498 E11.69279
G1 X57.157 Y75.104 E11.7232
G0 F3240 X57.394 Y75.426
G1 F1080 X57.76 Y75.157 E11.74586
G1 X57.871 Y75.078 E11.75266
G1 X58.064 Y74.946 E11.76432
G1 X58.558 Y74.658 E11.79285
G1 X59.018 Y74.432 E11.81842
G1 X59.506 Y74.231 E11.84475
G1 X60.109 Y74.028 E11.8765
G1 X60.379 Y73.947 E11.89056
G1 X60.61 Y73.887 E11.90247
G1 X61.189 Y73.782 E11.93182
G1 X61.673 Y73.73 E11.95611
G1 X61.79 Y73.719 E11.96197
G1 X61.996 Y73.703 E11.97228
G1 X62.254 Y73.691 E11.98517
G1 X63.402 Y73.676 E12.04245
G1 X123.64 Y73.676 E15.04773
G1 X124.346 Y73.686 E15.08296
G1 X124.494 Y73.691 E15.09035
G1 X124.747 Y73.704 E15.10298
G1 X124.909 Y73.716 E15.11109
G1 X125.354 Y73.757 E15.13338
G1 X125.938 Y73.855 E15.16293
G1 X126.51 Y73.995 E15.19231
G1 X127.054 Y74.17 E15.22082
G1 X127.585 Y74.384 E15.24938
G1 X127.824 Y74.489 E15.2624
G1 X128.034 Y74.59 E15.27403
G1 X128.533 Y74.876 E15.30272
G1 X128.973 Y75.172 E15.32918
G1 X129.063 Y75.235 E15.33466
G1 X129.227 Y75.352 E15.34471
G1 X129.677 Y75.725 E15.37387
G1 X129.967 Y76.004 E15.39395
G1 X130.059 Y76.096 E15.40044
G1 X130.249 Y76.291 E15.41402
G1 X130.607 Y76.713 E15.44163
G1 X130.876 Y77.079 E15.46429
G1 X130.955 Y77.19 E15.47109
G1 X131.087 Y77.383 E15.48275
G1 X131.375 Y77.877 E15.51128
G1 X131.601 Y78.337 E15.53685
G1 X131.804 Y78.831 E15.5635
G1 X132.012 Y79.452 E15.59617
G1 X132.091 Y79.718 E15.61002
G1 X132.146 Y79.93 E15.62094
G1 X132.251 Y80.507 E15.6502
G1 X132.304 Y81.001 E15.67499
G1 X132.326 Y81.321 E15.69099
G1 X132.354 Y82.371 E15.74339
G1 X132.355 Y82.477 E15.74868
G1 X132.357 Y92.634 E16.25542
G1 X132.357 Y92.691 E16.25826
G1 X132.347 Y93.405 E16.29389
G1 X132.343 Y93.517 E16.29948
G1 X132.325 Y93.945 E16.32085
G1 X132.323 Y94.003 E16.32375
G1 X132.216 Y95.903 E16.41869
G1 X132.14 Y98.569 E16.55175
G1 X132.15 Y101.97 E16.72143
G1 X132.15 Y101.981 E16.72197
G1 X132.152 Y112.061 E17.22487
G1 X132.152 Y112.118 E17.22771
G1 X132.142 Y112.837 E17.26359
G1 X132.094 Y113.4 E17.29178
G1 X131.96 Y113.974 E17.32118
G1 X131.935 Y114.054 E17.32536
G1 X131.729 Y114.58 E17.35355
G1 X131.45 Y115.072 E17.38177
G1 X131.105 Y115.52 E17.40998
G1 X130.7 Y115.915 E17.4382
G1 X130.244 Y116.249 E17.4664
G1 X129.745 Y116.515 E17.49461
G1 X129.214 Y116.708 E17.5228
G1 X128.661 Y116.824 E17.55099
G1 X128.191 Y116.86 E17.57451
G1 X127.27 Y116.877 E17.62046
G1 X127.196 Y116.878 E17.62415
G1 X118.302 Y116.878 E18.06788
G1 X117.604 Y116.868 E18.1027
G1 X117.04 Y116.82 E18.13094
G1 X116.72 Y116.756 E18.14723
G1 X116.034 Y116.59 E18.18244
G1 X113.37 Y115.976 E18.31883
G1 X110.687 Y115.435 E18.45538
G1 X108.044 Y114.985 E18.58914
G1 X105.334 Y114.599 E18.7257
G1 X102.684 Y114.298 E18.85876
G1 X99.95 Y114.065 E18.99566
G1 X97.204 Y113.908 E19.13288
G1 X94.537 Y113.833 E19.26599
G1 X91.793 Y113.833 E19.40289
G1 X89.118 Y113.909 E19.5364
G1 X86.383 Y114.063 E19.67306
G1 X83.645 Y114.296 E19.81016
G1 X80.989 Y114.597 E19.94351
G1 X78.309 Y114.978 E20.07856
G1 X75.6 Y115.442 E20.21568
G1 X72.979 Y115.967 E20.34904
G1 X70.285 Y116.587 E20.48696
G1 X69.625 Y116.75 E20.52088
G1 X68.807 Y116.864 E20.56208
G1 X68.461 Y116.876 E20.57936
G1 X68.322 Y116.878 E20.58629
G1 X58.807 Y116.878 E21.061
G1 X58.109 Y116.869 E21.09582
G1 X57.546 Y116.821 E21.12401
G1 X56.995 Y116.695 E21.15221
G1 X56.467 Y116.493 E21.18042
G1 X55.973 Y116.218 E21.20862
G1 X55.523 Y115.876 E21.23682
G1 X55.125 Y115.474 E21.26504
G1 X54.789 Y115.02 E21.29322
G1 X54.519 Y114.523 E21.32144
G1 X54.322 Y113.993 E21.34965
G1 X54.202 Y113.441 E21.37783
G1 X54.162 Y112.977 E21.40107
G1 X54.153 Y112.644 E21.41769
G1 X54.152 Y112.536 E21.42308
G1 X54.152 Y101.778 E21.95979
G1 X54.162 Y101.072 E21.99502
G1 X54.166 Y100.958 E22.00071
G1 X54.194 Y100.305 E22.03332
G1 X54.196 Y100.252 E22.03597
G1 X54.281 Y98.733 E22.11187
G1 X54.356 Y96.055 E22.24553
G1 X54.364 Y93.993 E22.3484
G1 X54.357 Y93.038 E22.39605
G1 X54.357 Y82.287 E22.93242
G1 X54.367 Y81.634 E22.965
G1 X54.377 Y81.41 E22.97618
G1 X54.405 Y81.018 E22.99579
G1 X54.415 Y80.9 E23.0017
G1 X54.445 Y80.604 E23.01654
G1 X54.544 Y80.039 E23.04516
G1 X54.638 Y79.662 E23.06454
G1 X54.662 Y79.569 E23.06934
G1 X54.739 Y79.289 E23.08382
G1 X54.939 Y78.729 E23.11349
G1 X55.13 Y78.298 E23.13701
G1 X55.179 Y78.192 E23.14284
G1 X55.268 Y78.006 E23.15312
G1 X55.557 Y77.5 E23.1822
G1 X55.853 Y77.06 E23.20865
G1 X55.916 Y76.97 E23.21413
G1 X56.033 Y76.806 E23.22418
G1 X56.406 Y76.356 E23.25334
G1 X56.685 Y76.066 E23.27342
G1 X56.777 Y75.974 E23.27991
G1 X56.972 Y75.784 E23.2935
G1 X57.394 Y75.426 E23.3211
G0 F3240 X57.631 Y75.748
G1 F1080 X57.997 Y75.479 E23.34377
G1 X58.097 Y75.409 E23.34986
G1 X58.29 Y75.277 E23.36152
G1 X58.735 Y75.017 E23.38723
G1 X59.195 Y74.791 E23.4128
G1 X59.633 Y74.61 E23.43645
G1 X60.236 Y74.407 E23.46819
G1 X60.48 Y74.335 E23.48088
G1 X60.711 Y74.275 E23.49279
G1 X61.231 Y74.18 E23.51916
G1 X61.715 Y74.128 E23.54345
G1 X61.821 Y74.118 E23.54876
G1 X62.027 Y74.102 E23.55907
G1 X62.259 Y74.091 E23.57066
G1 X63.407 Y74.076 E23.62793
G1 X123.634 Y74.076 E26.63267
G1 X124.34 Y74.086 E26.6679
G1 X124.474 Y74.091 E26.67459
G1 X124.727 Y74.104 E26.68723
G1 X124.872 Y74.114 E26.69448
G1 X125.317 Y74.155 E26.71677
G1 X125.843 Y74.243 E26.74338
G1 X126.415 Y74.383 E26.77276
G1 X126.905 Y74.541 E26.79844
G1 X127.436 Y74.755 E26.82701
G1 X127.65 Y74.85 E26.83869
G1 X127.86 Y74.951 E26.85031
G1 X128.309 Y75.208 E26.87612
G1 X128.749 Y75.504 E26.90258
G1 X128.831 Y75.56 E26.90754
G1 X128.995 Y75.677 E26.91759
G1 X129.4 Y76.014 E26.94387
G1 X129.69 Y76.293 E26.96395
G1 X129.772 Y76.375 E26.96973
G1 X129.962 Y76.57 E26.98332
G1 X130.285 Y76.95 E27.0082
G1 X130.554 Y77.316 E27.03086
G1 X130.624 Y77.416 E27.03695
G1 X130.756 Y77.609 E27.04862
G1 X131.016 Y78.054 E27.07433
G1 X131.242 Y78.514 E27.0999
G1 X131.425 Y78.958 E27.12386
G1 X131.633 Y79.579 E27.15653
G1 X131.704 Y79.818 E27.16897
G1 X131.759 Y80.03 E27.1799
G1 X131.853 Y80.55 E27.20626
G1 X131.906 Y81.044 E27.23105
G1 X131.926 Y81.332 E27.24545
G1 X131.954 Y82.382 E27.29785
G1 X131.955 Y82.477 E27.30259
G1 X131.957 Y92.634 E27.80933
G1 X131.957 Y92.685 E27.81187
G1 X131.947 Y93.399 E27.8475
G1 X131.944 Y93.5 E27.85254
G1 X131.926 Y93.928 E27.87391
G1 X131.923 Y93.98 E27.87651
G1 X131.818 Y95.832 E27.96905
G1 X131.74 Y98.592 E28.10681
G1 X131.75 Y101.972 E28.27544
G1 X131.75 Y101.981 E28.27588
G1 X131.752 Y112.061 E28.77878
G1 X131.752 Y112.112 E28.78132
G1 X131.742 Y112.831 E28.8172
G1 X131.694 Y113.365 E28.84395
G1 X131.578 Y113.855 E28.86907
G1 X131.553 Y113.935 E28.87325
G1 X131.355 Y114.433 E28.89999
G1 X131.086 Y114.897 E28.92674
G1 X130.751 Y115.315 E28.95347
G1 X130.357 Y115.679 E28.98023
G1 X129.913 Y115.981 E29.00702
G1 X129.43 Y116.213 E29.03375
G1 X128.917 Y116.371 E29.06053
G1 X128.183 Y116.46 E29.09742
G1 X127.262 Y116.477 E29.14338
G1 X127.196 Y116.478 E29.14667
G1 X118.307 Y116.478 E29.59014
G1 X117.609 Y116.468 E29.62497
G1 X116.814 Y116.367 E29.66495
G1 X116.128 Y116.201 E29.70016
G1 X113.468 Y115.588 E29.83635
G1 X110.768 Y115.043 E29.97377
G1 X108.095 Y114.588 E30.10905
G1 X105.399 Y114.204 E30.24491
G1 X102.691 Y113.897 E30.38088
G1 X99.971 Y113.665 E30.51707
G1 X97.274 Y113.511 E30.65184
G1 X94.512 Y113.433 E30.78969
G1 X91.818 Y113.433 E30.9241
G1 X89.047 Y113.511 E31.0624
G1 X86.362 Y113.663 E31.19657
G1 X83.638 Y113.895 E31.33296
G1 X80.924 Y114.203 E31.46923
G1 X78.216 Y114.588 E31.60569
G1 X75.56 Y115.042 E31.74012
G1 X72.882 Y115.579 E31.87639
G1 X70.162 Y116.205 E32.01564
G1 X69.529 Y116.361 E32.04816
G1 X68.793 Y116.464 E32.08524
G1 X68.447 Y116.476 E32.10251
G1 X68.322 Y116.478 E32.10875
G1 X58.813 Y116.478 E32.58316
G1 X58.115 Y116.469 E32.61798
G1 X57.58 Y116.422 E32.64478
G1 X57.059 Y116.296 E32.67152
G1 X56.562 Y116.094 E32.69828
G1 X56.101 Y115.821 E32.72501
G1 X55.685 Y115.482 E32.75179
G1 X55.324 Y115.086 E32.77852
G1 X55.026 Y114.64 E32.80528
G1 X54.798 Y114.154 E32.83206
G1 X54.645 Y113.64 E32.85882
G1 X54.562 Y112.966 E32.8927
G1 X54.553 Y112.633 E32.90932
G1 X54.552 Y112.536 E32.91416
G1 X54.552 Y101.784 E33.45058
G1 X54.562 Y101.078 E33.4858
G1 X54.565 Y100.975 E33.49094
G1 X54.593 Y100.322 E33.52355
G1 X54.596 Y100.274 E33.52595
G1 X54.679 Y98.801 E33.59956
G1 X54.756 Y96.026 E33.73806
G1 X54.764 Y93.994 E33.83943
G1 X54.757 Y93.035 E33.88728
G1 X54.757 Y82.293 E34.4232
G1 X54.767 Y81.64 E34.45578
G1 X54.776 Y81.439 E34.46582
G1 X54.804 Y81.047 E34.48543
G1 X54.813 Y80.94 E34.49078
G1 X54.843 Y80.644 E34.50563
G1 X54.932 Y80.136 E34.53136
G1 X55.026 Y79.759 E34.55074
G1 X55.048 Y79.675 E34.55507
G1 X55.125 Y79.395 E34.56956
G1 X55.305 Y78.891 E34.59626
G1 X55.496 Y78.46 E34.61978
G1 X55.54 Y78.365 E34.625
G1 X55.629 Y78.179 E34.63529
G1 X55.889 Y77.724 E34.66144
G1 X56.185 Y77.284 E34.68789
G1 X56.241 Y77.202 E34.69285
G1 X56.358 Y77.038 E34.7029
G1 X56.695 Y76.633 E34.72918
G1 X56.974 Y76.343 E34.74926
G1 X57.056 Y76.261 E34.75505
G1 X57.251 Y76.071 E34.76863
G1 X57.631 Y75.748 E34.79351
G0 F3240 X57.868 Y76.071
G1 F1080 X58.234 Y75.802 E34.81617
G1 X58.323 Y75.739 E34.82161
G1 X58.516 Y75.607 E34.83328
G1 X58.911 Y75.376 E34.85611
G1 X59.371 Y75.15 E34.88168
G1 X59.761 Y74.989 E34.90273
G1 X60.364 Y74.786 E34.93447
G1 X60.581 Y74.722 E34.94576
G1 X60.812 Y74.662 E34.95766
G1 X61.274 Y74.577 E34.9811
G1 X61.758 Y74.525 E35.00539
G1 X61.852 Y74.517 E35.01009
G1 X62.058 Y74.501 E35.0204
G1 X62.264 Y74.491 E35.03069
G1 X63.412 Y74.476 E35.08797
G1 X123.628 Y74.476 E38.09216
G1 X124.334 Y74.486 E38.12738
G1 X124.453 Y74.49 E38.13332
G1 X124.706 Y74.503 E38.14596
G1 X124.836 Y74.512 E38.15246
G1 X125.281 Y74.553 E38.17476
G1 X125.748 Y74.632 E38.19839
G1 X126.32 Y74.772 E38.22777
G1 X126.755 Y74.912 E38.25057
G1 X127.286 Y75.126 E38.27913
G1 X127.477 Y75.21 E38.28954
G1 X127.687 Y75.311 E38.30116
G1 X128.086 Y75.54 E38.32412
G1 X128.526 Y75.836 E38.35057
G1 X128.598 Y75.886 E38.35495
G1 X128.762 Y76.003 E38.365
G1 X129.123 Y76.302 E38.38838
G1 X129.413 Y76.581 E38.40846
G1 X129.486 Y76.654 E38.41361
G1 X129.676 Y76.849 E38.42719
G1 X129.962 Y77.187 E38.44928
G1 X130.231 Y77.553 E38.47194
G1 X130.294 Y77.642 E38.47738
G1 X130.426 Y77.835 E38.48905
G1 X130.657 Y78.23 E38.51188
G1 X130.883 Y78.69 E38.53745
G1 X131.045 Y79.085 E38.55875
G1 X131.253 Y79.706 E38.59142
G1 X131.316 Y79.918 E38.60245
G1 X131.371 Y80.13 E38.61338
G1 X131.456 Y80.593 E38.63687
G1 X131.509 Y81.087 E38.66165
G1 X131.526 Y81.343 E38.67445
G1 X131.554 Y82.393 E38.72686
G1 X131.555 Y82.477 E38.73105
G1 X131.557 Y92.634 E39.23778
G1 X131.557 Y92.68 E39.24008
G1 X131.547 Y93.394 E39.2757
G1 X131.544 Y93.483 E39.28015
G1 X131.526 Y93.911 E39.30152
G1 X131.524 Y93.958 E39.30387
G1 X131.418 Y95.835 E39.39766
G1 X131.34 Y98.582 E39.53476
G1 X131.35 Y101.973 E39.70394
G1 X131.35 Y101.981 E39.70434
G1 X131.352 Y112.061 E40.20723
G1 X131.352 Y112.107 E40.20953
G1 X131.342 Y112.826 E40.2454
G1 X131.295 Y113.329 E40.27061
G1 X131.196 Y113.735 E40.29146
G1 X131.171 Y113.815 E40.29564
