;Generated by Cura LulzBot Edition GCodeWriter Version: 3.6.8
;FLAVOR:Marlin
;TIME:2508
;Filament used: 0.80377m
;Layer height: 0.3
;Generated with Cura_SteamEngine 3.6.8
M82 ;absolute extrusion mode
M221 S100
;This G-Code has been generated specifically for the LulzBot TAZ 5 with standard extruder
M75			 ; start GLCD timer
M140 S70    ; start bed heating up
G90                      ; absolute positioning
M107                     ; disable fans
M82                      ; set extruder to absolute mode
G28 X0 Y0                ; home X and Y
G28 Z0                   ; home Z
G1 Z15.0 F175 ; move extruder up
M117 Heating...                     ; progress indicator message on LCD
M109 R210  ; wait for extruder to reach printing temp
M190 S70    ; wait for bed to reach printing temp
G92 E0                   ; set extruder position to 0
G1 F200 E0               ; prime the nozzle with filament
G92 E0                   ; re-set extruder position to 0
G1 F175       ; set travel speed
M203 X192 Y208 Z3        ; set limits on travel speed
M117 TAZ 5 Printing...   ; progress indicator message on LCD

G92 E0
G1 F600 E-1
;LAYER_COUNT:187
;LAYER:0
M107
G0 F2450 X130.284 Y130.394 Z0.425
;TYPE:SKIRT
G1 F600 E0
G1 F840 X130.752 Y129.992 E0.02055
G1 X131.267 Y129.654 E0.04107
G1 X131.822 Y129.386 E0.0616
G1 X132.597 Y129.147 E0.08862
G1 X133.709 Y128.905 E0.12652
G1 X134.318 Y128.813 E0.14704
G1 X135.058 Y128.808 E0.17169
G1 X136.189 Y128.889 E0.20946
G1 X136.8 Y128.973 E0.23
G1 X137.2 Y129.073 E0.24374
G1 X137.743 Y129.234 E0.2626
G1 X138.321 Y129.447 E0.28312
G1 X138.867 Y129.733 E0.30366
G1 X139.371 Y130.088 E0.32419
G1 X139.825 Y130.504 E0.3447
G1 X140.022 Y130.739 E0.35492
G1 X140.299 Y130.43 E0.36874
G1 X140.766 Y130.029 E0.38924
G1 X141.282 Y129.691 E0.40979
G1 X141.836 Y129.423 E0.43029
G1 X142.608 Y129.184 E0.45721
G1 X143.708 Y128.944 E0.49471
G1 X144.318 Y128.852 E0.51526
G1 X145.063 Y128.847 E0.54008
G1 X146.184 Y128.928 E0.57752
G1 X146.795 Y129.013 E0.59807
G1 X147.191 Y129.111 E0.61166
G1 X147.728 Y129.27 E0.63031
G1 X148.306 Y129.483 E0.65083
G1 X148.851 Y129.769 E0.67133
G1 X149.356 Y130.123 E0.69187
G1 X149.81 Y130.54 E0.71241
G1 X150.206 Y131.011 E0.73291
G1 X150.538 Y131.531 E0.75346
G1 X150.674 Y131.82 E0.7641
G1 X151.112 Y132.045 E0.7805
G1 X151.62 Y132.395 E0.80105
G1 X152.077 Y132.807 E0.82154
G1 X152.478 Y133.276 E0.8421
G1 X152.815 Y133.792 E0.86263
G1 X153.081 Y134.347 E0.88313
G1 X153.317 Y135.109 E0.9097
G1 X153.556 Y136.203 E0.947
G1 X153.648 Y136.812 E0.96752
G1 X153.653 Y137.559 E0.9924
G1 X153.572 Y138.682 E1.02991
G1 X153.488 Y139.292 E1.05042
G1 X153.392 Y139.675 E1.06357
G1 X153.235 Y140.211 E1.08217
G1 X153.024 Y140.79 E1.1027
G1 X152.74 Y141.337 E1.12323
G1 X152.387 Y141.842 E1.14376
G1 X151.972 Y142.297 E1.16427
G1 X151.502 Y142.695 E1.18478
G1 X150.984 Y143.028 E1.2053
G1 X150.682 Y143.171 E1.21643
G1 X150.461 Y143.604 E1.23262
G1 X150.113 Y144.111 E1.2531
G1 X149.701 Y144.57 E1.27365
G1 X149.234 Y144.971 E1.29415
G1 X148.718 Y145.309 E1.3147
G1 X148.164 Y145.577 E1.3352
G1 X148.143 Y145.583 E1.33593
G1 X148.173 Y145.646 E1.33825
G1 X148.407 Y146.405 E1.36471
G1 X148.651 Y147.521 E1.40276
G1 X148.744 Y148.131 E1.42332
G1 X148.749 Y148.879 E1.44823
G1 X148.666 Y150.024 E1.48647
G1 X148.581 Y150.635 E1.50702
G1 X148.487 Y151.015 E1.52006
G1 X148.327 Y151.562 E1.53905
G1 X148.116 Y152.14 E1.55954
G1 X147.832 Y152.687 E1.58007
G1 X147.479 Y153.192 E1.6006
G1 X147.065 Y153.648 E1.62111
G1 X146.594 Y154.046 E1.64165
G1 X146.076 Y154.379 E1.66217
G1 X145.743 Y154.537 E1.67444
G1 X145.505 Y155.004 E1.6919
G1 X145.156 Y155.512 E1.71243
G1 X144.744 Y155.97 E1.73295
G1 X144.276 Y156.371 E1.75348
G1 X143.761 Y156.708 E1.77398
G1 X143.206 Y156.976 E1.79451
G1 X142.433 Y157.215 E1.82147
G1 X141.311 Y157.459 E1.85971
G1 X140.702 Y157.55 E1.88022
G1 X139.962 Y157.555 E1.90487
G1 X138.819 Y157.473 E1.94305
G1 X138.209 Y157.389 E1.96356
G1 X137.812 Y157.29 E1.97719
G1 X137.264 Y157.128 E1.99622
G1 X136.686 Y156.916 E2.01673
G1 X136.14 Y156.63 E2.03726
G1 X135.636 Y156.276 E2.05778
G1 X135.182 Y155.86 E2.07829
G1 X134.785 Y155.388 E2.09883
G1 X134.453 Y154.869 E2.11935
G1 X134.302 Y154.548 E2.13117
G1 X134.205 Y154.509 E2.13465
G1 X133.669 Y154.206 E2.15516
G1 X133.176 Y153.836 E2.1757
G1 X132.736 Y153.406 E2.19619
G1 X132.355 Y152.922 E2.21671
G1 X132.039 Y152.392 E2.23726
G1 X131.795 Y151.827 E2.25776
G1 X131.629 Y151.247 E2.27786
G1 X131.384 Y150.128 E2.31602
G1 X131.291 Y149.519 E2.33654
G1 X131.286 Y148.772 E2.36142
G1 X131.368 Y147.628 E2.39962
G1 X131.452 Y147.018 E2.42014
G1 X131.549 Y146.627 E2.43355
G1 X131.71 Y146.08 E2.45255
G1 X131.876 Y145.626 E2.46865
G1 X131.679 Y145.553 E2.47565
G1 X131.133 Y145.267 E2.49618
G1 X130.629 Y144.912 E2.51672
G1 X130.175 Y144.496 E2.53723
G1 X129.779 Y144.024 E2.55775
G1 X129.447 Y143.505 E2.57827
G1 X129.305 Y143.203 E2.58939
G1 X128.86 Y142.976 E2.60603
G1 X128.352 Y142.627 E2.62656
G1 X127.894 Y142.216 E2.64706
G1 X127.492 Y141.748 E2.66761
G1 X127.154 Y141.233 E2.68813
G1 X126.886 Y140.678 E2.70866
G1 X126.647 Y139.907 E2.73555
G1 X126.405 Y138.799 E2.77332
G1 X126.313 Y138.189 E2.79387
G1 X126.308 Y137.446 E2.81862
G1 X126.389 Y136.313 E2.85646
G1 X126.473 Y135.703 E2.87697
G1 X126.569 Y135.315 E2.89029
G1 X126.728 Y134.773 E2.9091
G1 X126.939 Y134.194 E2.92963
G1 X127.224 Y133.648 E2.95014
G1 X127.577 Y133.143 E2.97067
G1 X127.992 Y132.688 E2.99118
G1 X128.463 Y132.29 E3.01172
G1 X128.981 Y131.957 E3.03223
G1 X129.296 Y131.808 E3.04384
G1 X129.524 Y131.36 E3.06059
G1 X129.873 Y130.852 E3.08112
G1 X130.284 Y130.394 E3.10161
G0 F2450 X130.772 Y130.621
G1 F840 X131.232 Y130.263 E3.12103
G1 X131.737 Y129.972 E3.14045
G1 X132.276 Y129.752 E3.15984
G1 X132.703 Y129.635 E3.17459
G1 X133.815 Y129.393 E3.21249
G1 X134.392 Y129.309 E3.23192
G1 X135.023 Y129.307 E3.25294
G1 X136.154 Y129.388 E3.29071
G1 X136.731 Y129.469 E3.31011
G1 X137.058 Y129.552 E3.32135
G1 X137.601 Y129.713 E3.34022
G1 X138.147 Y129.917 E3.35963
G1 X138.66 Y130.193 E3.37904
G1 X139.131 Y130.537 E3.39847
G1 X139.55 Y130.942 E3.41788
G1 X139.909 Y131.401 E3.43729
G1 X140.015 Y131.582 E3.44428
G1 X140.035 Y131.545 E3.44568
G1 X140.38 Y131.075 E3.4651
G1 X140.787 Y130.658 E3.48451
G1 X141.247 Y130.3 E3.50392
G1 X141.751 Y130.008 E3.52333
G1 X142.291 Y129.788 E3.54275
G1 X142.715 Y129.673 E3.55738
G1 X143.815 Y129.433 E3.59489
G1 X144.392 Y129.348 E3.61431
G1 X145.027 Y129.346 E3.63547
G1 X146.148 Y129.427 E3.6729
G1 X146.725 Y129.509 E3.69232
G1 X147.049 Y129.591 E3.70345
G1 X147.586 Y129.75 E3.72211
G1 X148.132 Y129.953 E3.74151
G1 X148.645 Y130.229 E3.76091
G1 X149.115 Y130.573 E3.78032
G1 X149.535 Y130.978 E3.79975
G1 X149.894 Y131.436 E3.81913
G1 X150.188 Y131.94 E3.83857
G1 X150.296 Y132.203 E3.84804
G1 X150.452 Y132.262 E3.8536
G1 X150.963 Y132.541 E3.87299
G1 X151.432 Y132.888 E3.89242
G1 X151.848 Y133.295 E3.91181
G1 X152.206 Y133.756 E3.93125
G1 X152.496 Y134.261 E3.95065
G1 X152.715 Y134.801 E3.97006
G1 X152.828 Y135.216 E3.98439
G1 X153.067 Y136.31 E4.02169
G1 X153.152 Y136.886 E4.04108
G1 X153.154 Y137.523 E4.0623
G1 X153.073 Y138.646 E4.09981
G1 X152.991 Y139.223 E4.11922
G1 X152.913 Y139.535 E4.12993
G1 X152.756 Y140.071 E4.14854
G1 X152.554 Y140.617 E4.16793
G1 X152.279 Y141.131 E4.18735
G1 X151.937 Y141.603 E4.20676
G1 X151.533 Y142.023 E4.22618
G1 X151.076 Y142.384 E4.24558
G1 X150.573 Y142.679 E4.265
G1 X150.301 Y142.792 E4.27481
G1 X150.244 Y142.943 E4.28019
G1 X149.965 Y143.455 E4.29961
G1 X149.62 Y143.925 E4.31903
G1 X149.213 Y144.342 E4.33844
G1 X148.753 Y144.7 E4.35786
G1 X148.249 Y144.992 E4.37726
G1 X147.709 Y145.212 E4.39668
G1 X147.432 Y145.287 E4.40624
G1 X147.588 Y145.56 E4.41672
G1 X147.807 Y146.1 E4.43613
G1 X147.919 Y146.512 E4.45035
G1 X148.163 Y147.628 E4.4884
G1 X148.248 Y148.205 E4.50783
G1 X148.25 Y148.843 E4.52908
G1 X148.167 Y149.988 E4.56732
G1 X148.085 Y150.565 E4.58673
G1 X148.007 Y150.874 E4.59735
G1 X147.847 Y151.421 E4.61633
G1 X147.646 Y151.968 E4.63575
G1 X147.371 Y152.482 E4.65516
G1 X147.029 Y152.954 E4.67458
G1 X146.625 Y153.374 E4.69399
G1 X146.168 Y153.735 E4.71339
G1 X145.666 Y154.031 E4.7328
G1 X145.357 Y154.159 E4.74394
G1 X145.288 Y154.344 E4.75052
G1 X145.009 Y154.856 E4.76994
G1 X144.663 Y155.325 E4.78936
G1 X144.256 Y155.742 E4.80877
G1 X143.796 Y156.099 E4.82816
G1 X143.291 Y156.391 E4.8476
G1 X142.752 Y156.61 E4.86698
G1 X142.327 Y156.726 E4.88165
G1 X141.205 Y156.97 E4.9199
G1 X140.629 Y157.054 E4.93929
G1 X139.998 Y157.056 E4.96031
G1 X138.855 Y156.974 E4.99848
G1 X138.278 Y156.893 E5.01789
G1 X137.954 Y156.811 E5.02902
G1 X137.406 Y156.649 E5.04805
G1 X136.86 Y156.446 E5.06746
G1 X136.347 Y156.17 E5.08686
G1 X135.876 Y155.826 E5.10629
G1 X135.457 Y155.421 E5.1257
G1 X135.097 Y154.963 E5.14511
G1 X134.803 Y154.46 E5.16451
G1 X134.68 Y154.162 E5.17525
G1 X134.338 Y154.017 E5.18763
G1 X133.838 Y153.717 E5.20705
G1 X133.384 Y153.352 E5.22645
G1 X132.984 Y152.928 E5.24587
G1 X132.646 Y152.453 E5.26529
G1 X132.376 Y151.937 E5.28469
G1 X132.117 Y151.14 E5.3126
G1 X131.872 Y150.021 E5.35076
G1 X131.787 Y149.445 E5.37016
G1 X131.785 Y148.808 E5.39138
G1 X131.867 Y147.664 E5.42958
G1 X131.948 Y147.087 E5.44899
G1 X132.029 Y146.768 E5.45995
G1 X132.19 Y146.221 E5.47895
G1 X132.392 Y145.675 E5.49834
G1 X132.573 Y145.338 E5.51108
G1 X132.399 Y145.287 E5.51712
G1 X131.853 Y145.083 E5.53654
G1 X131.34 Y144.807 E5.55594
G1 X130.869 Y144.463 E5.57537
G1 X130.45 Y144.058 E5.59478
G1 X130.091 Y143.599 E5.61419
G1 X129.797 Y143.096 E5.6336
G1 X129.683 Y142.819 E5.64357
G1 X129.52 Y142.758 E5.64937
G1 X129.008 Y142.48 E5.66878
G1 X128.539 Y142.134 E5.68819
G1 X128.121 Y141.728 E5.7076
G1 X127.763 Y141.268 E5.72702
G1 X127.472 Y140.763 E5.74643
G1 X127.252 Y140.224 E5.76583
G1 X127.136 Y139.8 E5.78047
G1 X126.894 Y138.692 E5.81825
G1 X126.809 Y138.115 E5.83767
G1 X126.807 Y137.482 E5.85876
G1 X126.888 Y136.349 E5.8966
G1 X126.969 Y135.772 E5.91601
G1 X127.049 Y135.456 E5.92686
G1 X127.208 Y134.914 E5.94568
G1 X127.41 Y134.367 E5.9651
G1 X127.685 Y133.853 E5.98452
G1 X128.027 Y133.382 E6.00391
G1 X128.431 Y132.962 E6.02332
G1 X128.889 Y132.601 E6.04275
G1 X129.391 Y132.306 E6.06214
G1 X129.68 Y132.186 E6.07257
G1 X129.742 Y132.02 E6.07847
G1 X130.02 Y131.508 E6.09788
G1 X130.366 Y131.039 E6.11729
G1 X130.772 Y130.621 E6.1367
G0 F2450 X130.857 Y131.238
G1 F840 X131.258 Y130.865 E6.15494
G1 X131.708 Y130.554 E6.17316
G1 X132.199 Y130.312 E6.1914
G1 X132.81 Y130.124 E6.21269
G1 X133.922 Y129.882 E6.2506
G1 X134.463 Y129.805 E6.2688
G1 X134.987 Y129.806 E6.28626
G1 X136.118 Y129.887 E6.32403
G1 X136.916 Y130.032 E6.35104
G1 X137.459 Y130.193 E6.36991
G1 X137.971 Y130.386 E6.38814
G1 X138.449 Y130.652 E6.40636
G1 X138.884 Y130.985 E6.42461
G1 X139.266 Y131.377 E6.44284
G1 X139.586 Y131.821 E6.46107
G1 X139.838 Y132.307 E6.47931
G1 X139.928 Y132.566 E6.48844
G1 X140.039 Y132.611 E6.49243
G1 X140.084 Y132.595 E6.49402
G1 X140.254 Y132.175 E6.50911
G1 X140.53 Y131.702 E6.52735
G1 X140.872 Y131.275 E6.54558
G1 X141.272 Y130.902 E6.5638
G1 X141.723 Y130.591 E6.58204
G1 X142.214 Y130.349 E6.60028
G1 X142.822 Y130.161 E6.62148
G1 X143.922 Y129.921 E6.65898
G1 X144.463 Y129.844 E6.67718
G1 X144.991 Y129.845 E6.69477
G1 X146.112 Y129.926 E6.73221
G1 X146.907 Y130.07 E6.75912
G1 X147.444 Y130.229 E6.77778
G1 X147.956 Y130.423 E6.79602
G1 X148.434 Y130.688 E6.81422
G1 X148.869 Y131.021 E6.83247
G1 X149.251 Y131.413 E6.8507
G1 X149.571 Y131.857 E6.86893
G1 X149.824 Y132.343 E6.88718
G1 X149.909 Y132.587 E6.89579
G1 X150.333 Y132.759 E6.91103
G1 X150.805 Y133.036 E6.92926
G1 X151.232 Y133.379 E6.94751
G1 X151.604 Y133.78 E6.96573
G1 X151.914 Y134.231 E6.98396
G1 X152.155 Y134.723 E7.00221
G1 X152.34 Y135.323 E7.02312
G1 X152.579 Y136.417 E7.06042
G1 X152.656 Y136.958 E7.07862
G1 X152.655 Y137.487 E7.09624
G1 X152.574 Y138.61 E7.13375
G1 X152.433 Y139.394 E7.16028
G1 X152.276 Y139.93 E7.17889
G1 X152.084 Y140.443 E7.19713
G1 X151.82 Y140.922 E7.21535
G1 X151.488 Y141.358 E7.23361
G1 X151.097 Y141.741 E7.25184
G1 X150.654 Y142.062 E7.27006
G1 X150.169 Y142.316 E7.2883
G1 X149.916 Y142.405 E7.29723
G1 X149.746 Y142.825 E7.31233
G1 X149.47 Y143.298 E7.33057
G1 X149.128 Y143.725 E7.34879
G1 X148.728 Y144.098 E7.36701
G1 X148.277 Y144.409 E7.38526
G1 X147.786 Y144.651 E7.40349
G1 X147.178 Y144.839 E7.42469
G1 X146.592 Y144.967 E7.44467
G1 X146.696 Y145.079 E7.44976
G1 X147.006 Y145.53 E7.46799
G1 X147.247 Y146.022 E7.48624
G1 X147.43 Y146.619 E7.50704
G1 X147.674 Y147.735 E7.54509
G1 X147.752 Y148.277 E7.56333
G1 X147.751 Y148.807 E7.58099
G1 X147.668 Y149.952 E7.61923
G1 X147.527 Y150.734 E7.6457
G1 X147.367 Y151.281 E7.66468
G1 X147.176 Y151.794 E7.68292
G1 X146.911 Y152.273 E7.70115
G1 X146.58 Y152.709 E7.71938
G1 X146.189 Y153.092 E7.73762
G1 X145.746 Y153.414 E7.75586
G1 X145.262 Y153.668 E7.77407
G1 X144.975 Y153.768 E7.78419
G1 X144.79 Y154.225 E7.80061
G1 X144.514 Y154.698 E7.81885
G1 X144.172 Y155.125 E7.83708
G1 X143.771 Y155.498 E7.85532
G1 X143.32 Y155.808 E7.87355
G1 X142.829 Y156.05 E7.89178
G1 X142.221 Y156.237 E7.91297
G1 X141.099 Y156.481 E7.95122
G1 X140.557 Y156.558 E7.96946
G1 X140.034 Y156.557 E7.98688
G1 X138.891 Y156.475 E8.02505
G1 X138.096 Y156.331 E8.05196
G1 X137.548 Y156.169 E8.071
G1 X137.036 Y155.976 E8.08922
G1 X136.557 Y155.711 E8.10746
G1 X136.122 Y155.378 E8.12571
G1 X135.74 Y154.986 E8.14394
G1 X135.42 Y154.542 E8.16217
G1 X135.167 Y154.057 E8.18039
G1 X135.071 Y153.778 E8.19022
G1 X134.975 Y153.751 E8.19354
G1 X134.477 Y153.525 E8.21176
G1 X134.016 Y153.229 E8.23001
G1 X133.604 Y152.869 E8.24823
G1 X133.248 Y152.453 E8.26647
G1 X132.957 Y151.99 E8.28469
G1 X132.736 Y151.489 E8.30293
G1 X132.606 Y151.033 E8.31872
G1 X132.361 Y149.914 E8.35688
G1 X132.283 Y149.372 E8.37512
G1 X132.284 Y148.844 E8.39271
G1 X132.366 Y147.7 E8.43091
G1 X132.509 Y146.909 E8.45769
G1 X132.67 Y146.362 E8.47668
G1 X132.862 Y145.85 E8.4949
G1 X133.127 Y145.371 E8.51313
G1 X133.392 Y145.024 E8.52767
G1 X133.084 Y144.968 E8.5381
G1 X132.541 Y144.807 E8.55697
G1 X132.029 Y144.614 E8.57519
G1 X131.551 Y144.348 E8.59342
G1 X131.116 Y144.015 E8.61166
G1 X130.734 Y143.623 E8.6299
G1 X130.414 Y143.179 E8.64813
G1 X130.162 Y142.693 E8.66636
G1 X130.073 Y142.436 E8.67542
G1 X129.638 Y142.261 E8.69104
G1 X129.165 Y141.984 E8.7093
G1 X128.738 Y141.643 E8.7275
G1 X128.365 Y141.242 E8.74574
G1 X128.054 Y140.792 E8.76397
G1 X127.812 Y140.301 E8.7822
G1 X127.624 Y139.693 E8.8034
G1 X127.382 Y138.585 E8.84118
G1 X127.305 Y138.043 E8.85941
G1 X127.306 Y137.518 E8.8769
G1 X127.387 Y136.385 E8.91474
G1 X127.529 Y135.596 E8.94144
G1 X127.688 Y135.054 E8.96026
G1 X127.88 Y134.542 E8.97847
G1 X128.144 Y134.063 E8.99669
G1 X128.476 Y133.627 E9.01494
G1 X128.867 Y133.244 E9.03318
G1 X129.31 Y132.923 E9.0514
G1 X129.795 Y132.669 E9.06964
G1 X130.063 Y132.576 E9.07909
G1 X130.239 Y132.138 E9.09481
G1 X130.516 Y131.665 E9.11307
G1 X130.857 Y131.238 E9.13127
G0 F2450 X131.347 Y131.452
G1 F840 X131.74 Y131.128 E9.14824
G1 X132.179 Y130.869 E9.16522
G1 X132.653 Y130.681 E9.1822
G1 X132.916 Y130.612 E9.19126
G1 X134.028 Y130.37 E9.22917
G1 X134.533 Y130.301 E9.24614
G1 X134.951 Y130.304 E9.26007
G1 X136.082 Y130.385 E9.29784
G1 X136.774 Y130.511 E9.32127
G1 X137.317 Y130.672 E9.34013
G1 X137.793 Y130.855 E9.35712
G1 X138.234 Y131.11 E9.37409
G1 X138.63 Y131.43 E9.39105
G1 X138.971 Y131.809 E9.40803
G1 X139.248 Y132.236 E9.42499
G1 X139.456 Y132.701 E9.44195
G1 X139.529 Y132.974 E9.45137
G1 X139.776 Y133.038 E9.45987
G1 X140.035 Y133.151 E9.46928
G1 X140.226 Y133.065 E9.47626
G1 X140.49 Y132.993 E9.48537
G1 X140.548 Y132.768 E9.49311
G1 X140.751 Y132.3 E9.51011
G1 X141.024 Y131.871 E9.52704
G1 X141.362 Y131.489 E9.54403
G1 X141.755 Y131.164 E9.56102
G1 X142.193 Y130.905 E9.57797
G1 X142.667 Y130.718 E9.59494
G1 X142.928 Y130.65 E9.60393
G1 X144.028 Y130.41 E9.64143
G1 X144.533 Y130.34 E9.65842
G1 X144.955 Y130.343 E9.67247
G1 X146.076 Y130.424 E9.70991
G1 X146.765 Y130.55 E9.73324
G1 X147.302 Y130.709 E9.7519
G1 X147.777 Y130.891 E9.76884
G1 X148.219 Y131.146 E9.78584
